; LightBurn 1.2.01
; GRBL device profile, absolute coords
; Bounds: X0 Y-0 to X250 Y178
G00 G17 G40 G21 G54
G90
M4
; Cut @ 300 mm/min, 80% power
M9
G0 X1Y167.511
; Layer words
G1 X1.095Y167.225S800F300
G1 X1.381Y167.034
G1 X1.857Y166.939
G1 X2.143
G1 X2.619Y167.034
G1 X2.905Y167.225
G1 X3Y167.511
G1 Y167.701
G1 X2.905Y167.987
G1 X2.619Y168.177
G1 X2.143Y168.272
G1 X1.857
G1 X1.381Y168.177
G1 X1.095Y167.987
G1 X1Y167.701
G1 Y167.511
G0 X1Y166.608
G1 X3Y165.655
G0 X3Y164.371
G1 X1
G1 X1.286Y164.086
G1 X1.381Y163.895
G0 X1Y165.274
G1 Y166.608
G0 X1Y157.511
G1 X1.095Y157.225
G1 X1.381Y157.034
G1 X1.857Y156.939
G1 X2.143
G1 X2.619Y157.034
G1 X2.905Y157.225
G1 X3Y157.511
G1 Y157.701
G1 X2.905Y157.987
G1 X2.619Y158.177
G1 X2.143Y158.272
G1 X1.857
G1 X1.381Y158.177
G1 X1.095Y157.987
G1 X1Y157.701
G1 Y157.511
G0 X1.286Y156.512
G1 X1.095Y156.417
G1 X1Y156.131
G1 Y155.941
G1 X1.095Y155.655
G1 X1.381Y155.465
G1 X1.857Y155.37
G1 X2.333
G1 X2.714Y155.465
G1 X2.905Y155.655
G1 X3Y155.941
G1 Y156.036
G1 X2.905Y156.322
G1 X2.714Y156.512
G1 X2.429Y156.608
G1 X2.333
G1 X2.048Y156.512
G1 X1.857Y156.322
G1 X1.762Y156.036
G1 Y155.941
G1 X1.857Y155.655
G1 X2.048Y155.465
G1 X2.333Y155.37
G0 X3Y154.371
G1 X1
G1 X1.286Y154.086
G1 X1.381Y153.895
G0 X1Y147.511
G1 X1.095Y147.225
G1 X1.381Y147.034
G1 X1.857Y146.939
G1 X2.143
G1 X2.619Y147.034
G1 X2.905Y147.225
G1 X3Y147.511
G1 Y147.701
G1 X2.905Y147.987
G1 X2.619Y148.177
G1 X2.143Y148.272
G1 X1.857
G1 X1.381Y148.177
G1 X1.095Y147.987
G1 X1Y147.701
G1 Y147.511
G0 X1Y146.417
G1 Y145.465
G1 X1.857Y145.37
G1 X1.762Y145.465
G1 X1.667Y145.751
G1 Y146.036
G1 X1.762Y146.322
G1 X1.952Y146.512
G1 X2.238Y146.608
G1 X2.429
G1 X2.714Y146.512
G1 X2.905Y146.322
G1 X3Y146.036
G1 Y145.751
G1 X2.905Y145.465
G1 X2.81Y145.37
G1 X2.619Y145.274
G0 X3Y144.371
G1 X1
G1 X1.286Y144.086
G1 X1.381Y143.895
G0 X1Y137.511
G1 X1.095Y137.225
G1 X1.381Y137.034
G1 X1.857Y136.939
G1 X2.143
G1 X2.619Y137.034
G1 X2.905Y137.225
G1 X3Y137.511
G1 Y137.701
G1 X2.905Y137.987
G1 X2.619Y138.177
G1 X2.143Y138.272
G1 X1.857
G1 X1.381Y138.177
G1 X1.095Y137.987
G1 X1Y137.701
G1 Y137.511
G0 X2.333Y136.703
G1 Y135.274
G1 X1Y136.227
G0 X1Y136.227
G1 X3
G0 X3Y134.371
G1 X1
G1 X1.286Y134.086
G1 X1.381Y133.895
G0 X1Y127.511
G1 X1.095Y127.225
G1 X1.381Y127.034
G1 X1.857Y126.939
G1 X2.143
G1 X2.619Y127.034
G1 X2.905Y127.225
G1 X3Y127.511
G1 Y127.701
G1 X2.905Y127.987
G1 X2.619Y128.177
G1 X2.143Y128.272
G1 X1.857
G1 X1.381Y128.177
G1 X1.095Y127.987
G1 X1Y127.701
G1 Y127.511
G0 X1Y125.465
G1 Y126.512
G1 X1.762Y125.941
G1 Y126.227
G1 X1.857Y126.417
G1 X1.952Y126.512
G1 X2.238Y126.608
G1 X2.429
G1 X2.714Y126.512
G1 X2.905Y126.322
G1 X3Y126.036
G1 Y125.751
G1 X2.905Y125.465
G1 X2.81Y125.37
G1 X2.619Y125.274
G0 X3Y124.371
G1 X1
G1 X1.286Y124.086
G1 X1.381Y123.895
G0 X1Y117.511
G1 X1.095Y117.225
G1 X1.381Y117.034
G1 X1.857Y116.939
G1 X2.143
G1 X2.619Y117.034
G1 X2.905Y117.225
G1 X3Y117.511
G1 Y117.701
G1 X2.905Y117.987
G1 X2.619Y118.177
G1 X2.143Y118.272
G1 X1.857
G1 X1.381Y118.177
G1 X1.095Y117.987
G1 X1Y117.701
G1 Y117.511
G0 X3Y116.608
G1 Y115.274
G1 X2.048Y116.227
G1 X1.762Y116.417
G1 X1.571Y116.512
G1 X1.381
G1 X1.19Y116.417
G1 X1.095Y116.322
G1 X1Y116.131
G1 Y115.751
G1 X1.095Y115.56
G1 X1.19Y115.465
G1 X1.381Y115.37
G1 X1.476
G0 X3Y114.371
G1 X1
G1 X1.286Y114.086
G1 X1.381Y113.895
G0 X1Y107.511
G1 X1.095Y107.225
G1 X1.381Y107.034
G1 X1.857Y106.939
G1 X2.143
G1 X2.619Y107.034
G1 X2.905Y107.225
G1 X3Y107.511
G1 Y107.701
G1 X2.905Y107.987
G1 X2.619Y108.177
G1 X2.143Y108.272
G1 X1.857
G1 X1.381Y108.177
G1 X1.095Y107.987
G1 X1Y107.701
G1 Y107.511
G0 X1.381Y105.56
G1 X1.286Y105.751
G1 X1Y106.036
G1 X3
G0 X3Y104.371
G1 X1
G1 X1.286Y104.086
G1 X1.381Y103.895
G0 X1Y97.51
G1 X1.095Y97.225
G1 X1.381Y97.034
G1 X1.857Y96.939
G1 X2.143
G1 X2.619Y97.034
G1 X2.905Y97.225
G1 X3Y97.51
G1 Y97.701
G1 X2.905Y97.987
G1 X2.619Y98.177
G1 X2.143Y98.272
G1 X1.857
G1 X1.381Y98.177
G1 X1.095Y97.987
G1 X1Y97.701
G1 Y97.51
G0 X1Y95.846
G1 X1.095Y95.56
G1 X1.381Y95.369
G1 X1.857Y95.274
G1 X2.143
G1 X2.619Y95.369
G1 X2.905Y95.56
G1 X3Y95.846
G1 Y96.036
G1 X2.905Y96.322
G1 X2.619Y96.512
G1 X2.143Y96.608
G1 X1.857
G1 X1.381Y96.512
G1 X1.095Y96.322
G1 X1Y96.036
G1 Y95.846
G0 X1.381Y93.895
G1 X1.286Y94.086
G1 X1Y94.371
G1 X3
G0 X1Y87.821
G1 X1.095Y87.535
G1 X1.381Y87.345
G1 X1.857Y87.25
G1 X2.143
G1 X2.619Y87.345
G1 X2.905Y87.535
G1 X3Y87.821
G1 Y88.011
G1 X2.905Y88.297
G1 X2.619Y88.488
G1 X2.143Y88.583
G1 X1.857
G1 X1.381Y88.488
G1 X1.095Y88.297
G1 X1Y88.011
G1 Y87.821
G0 X1.667Y86.823
G1 X1.952Y86.728
G1 X2.143Y86.537
G1 X2.238Y86.251
G1 Y86.156
G1 X2.143Y85.87
G1 X1.952Y85.68
G1 X1.667Y85.585
G1 X1.571
G1 X1.286Y85.68
G1 X1.095Y85.87
G1 X1Y86.156
G1 Y86.251
G1 X1.095Y86.537
G1 X1.286Y86.728
G1 X1.667Y86.823
G1 X2.143
G1 X2.619Y86.728
G1 X2.905Y86.537
G1 X3Y86.251
G1 Y86.061
G1 X2.905Y85.775
G1 X2.714Y85.68
G0 X1Y77.821
G1 X1.095Y77.535
G1 X1.381Y77.345
G1 X1.857Y77.25
G1 X2.143
G1 X2.619Y77.345
G1 X2.905Y77.535
G1 X3Y77.821
G1 Y78.011
G1 X2.905Y78.297
G1 X2.619Y78.488
G1 X2.143Y78.583
G1 X1.857
G1 X1.381Y78.488
G1 X1.095Y78.297
G1 X1Y78.011
G1 Y77.821
G0 X1Y76.061
G1 X1.095Y75.775
G1 X1.286Y75.68
G1 X1.476
G1 X1.667Y75.775
G1 X1.762Y75.966
G1 X1.857Y76.347
G1 X1.952Y76.632
G1 X2.143Y76.823
G1 X2.333Y76.918
G1 X2.619
G1 X2.81Y76.823
G1 X2.905Y76.728
G1 X3Y76.442
G1 Y76.061
G1 X2.905Y75.775
G1 X2.81Y75.68
G1 X2.619Y75.585
G1 X2.333
G1 X2.143Y75.68
G1 X1.952Y75.87
G1 X1.857Y76.156
G1 X1.762Y76.537
G1 X1.667Y76.728
G1 X1.476Y76.823
G1 X1.286
G1 X1.095Y76.728
G1 X1Y76.442
G1 Y76.061
G0 X1Y67.678
G1 X1.095Y67.392
G1 X1.381Y67.202
G1 X1.857Y67.107
G1 X2.143
G1 X2.619Y67.202
G1 X2.905Y67.392
G1 X3Y67.678
G1 Y67.869
G1 X2.905Y68.154
G1 X2.619Y68.345
G1 X2.143Y68.44
G1 X1.857
G1 X1.381Y68.345
G1 X1.095Y68.154
G1 X1Y67.869
G1 Y67.678
G0 X1Y66.775
G1 X3Y65.823
G0 X1Y65.442
G1 Y66.775
G0 X1Y57.678
G1 X1.095Y57.392
G1 X1.381Y57.202
G1 X1.857Y57.107
G1 X2.143
G1 X2.619Y57.202
G1 X2.905Y57.392
G1 X3Y57.678
G1 Y57.869
G1 X2.905Y58.154
G1 X2.619Y58.345
G1 X2.143Y58.44
G1 X1.857
G1 X1.381Y58.345
G1 X1.095Y58.154
G1 X1Y57.869
G1 Y57.678
G0 X1.286Y56.68
G1 X1.095Y56.585
G1 X1Y56.299
G1 Y56.109
G1 X1.095Y55.823
G1 X1.381Y55.632
G1 X1.857Y55.537
G1 X2.333
G1 X2.714Y55.632
G1 X2.905Y55.823
G1 X3Y56.109
G1 Y56.204
G1 X2.905Y56.489
G1 X2.714Y56.68
G1 X2.429Y56.775
G1 X2.333
G1 X2.048Y56.68
G1 X1.857Y56.489
G1 X1.762Y56.204
G1 Y56.109
G1 X1.857Y55.823
G1 X2.048Y55.632
G1 X2.333Y55.537
G0 X1Y47.821
G1 X1.095Y47.535
G1 X1.381Y47.345
G1 X1.857Y47.25
G1 X2.143
G1 X2.619Y47.345
G1 X2.905Y47.535
G1 X3Y47.821
G1 Y48.012
G1 X2.905Y48.297
G1 X2.619Y48.488
G1 X2.143Y48.583
G1 X1.857
G1 X1.381Y48.488
G1 X1.095Y48.297
G1 X1Y48.012
G1 Y47.821
G0 X1Y46.728
G1 Y45.775
G1 X1.857Y45.68
G1 X1.762Y45.775
G1 X1.667Y46.061
G1 Y46.347
G1 X1.762Y46.632
G1 X1.952Y46.823
G1 X2.238Y46.918
G1 X2.429
G1 X2.714Y46.823
G1 X2.905Y46.632
G1 X3Y46.347
G1 Y46.061
G1 X2.905Y45.775
G1 X2.81Y45.68
G1 X2.619Y45.585
G0 X1Y37.678
G1 X1.095Y37.392
G1 X1.381Y37.202
G1 X1.857Y37.107
G1 X2.143
G1 X2.619Y37.202
G1 X2.905Y37.392
G1 X3Y37.678
G1 Y37.869
G1 X2.905Y38.154
G1 X2.619Y38.345
G1 X2.143Y38.44
G1 X1.857
G1 X1.381Y38.345
G1 X1.095Y38.154
G1 X1Y37.869
G1 Y37.678
G0 X2.333Y36.87
G1 Y35.442
G1 X1Y36.394
G0 X1Y36.394
G1 X3
G0 X1Y27.821
G1 X1.095Y27.535
G1 X1.381Y27.345
G1 X1.857Y27.25
G1 X2.143
G1 X2.619Y27.345
G1 X2.905Y27.535
G1 X3Y27.821
G1 Y28.011
G1 X2.905Y28.297
G1 X2.619Y28.488
G1 X2.143Y28.583
G1 X1.857
G1 X1.381Y28.488
G1 X1.095Y28.297
G1 X1Y28.011
G1 Y27.821
G0 X1Y25.775
G1 Y26.823
G1 X1.762Y26.251
G1 Y26.537
G1 X1.857Y26.728
G1 X1.952Y26.823
G1 X2.238Y26.918
G1 X2.429
G1 X2.714Y26.823
G1 X2.905Y26.632
G1 X3Y26.347
G1 Y26.061
G1 X2.905Y25.775
G1 X2.81Y25.68
G1 X2.619Y25.585
G0 X1Y17.678
G1 X1.095Y17.392
G1 X1.381Y17.202
G1 X1.857Y17.107
G1 X2.143
G1 X2.619Y17.202
G1 X2.905Y17.392
G1 X3Y17.678
G1 Y17.869
G1 X2.905Y18.154
G1 X2.619Y18.345
G1 X2.143Y18.44
G1 X1.857
G1 X1.381Y18.345
G1 X1.095Y18.154
G1 X1Y17.869
G1 Y17.678
G0 X3Y16.775
G1 Y15.442
G1 X2.048Y16.394
G1 X1.762Y16.585
G1 X1.571Y16.68
G1 X1.381
G1 X1.19Y16.585
G1 X1.095Y16.489
G1 X1Y16.299
G1 Y15.918
G1 X1.095Y15.728
G1 X1.19Y15.632
G1 X1.381Y15.537
G1 X1.476
G0 X1Y7.678
G1 X1.095Y7.392
G1 X1.381Y7.202
G1 X1.857Y7.107
G1 X2.143
G1 X2.619Y7.202
G1 X2.905Y7.392
G1 X3Y7.678
G1 Y7.869
G1 X2.905Y8.154
G1 X2.619Y8.345
G1 X2.143Y8.44
G1 X1.857
G1 X1.381Y8.345
G1 X1.095Y8.154
G1 X1Y7.869
G1 Y7.678
G0 X1.381Y5.728
G1 X1.286Y5.918
G1 X1Y6.204
G1 X3
G0 X27Y17
G1 X17
G1 Y27
G0 X18Y28
G1 Y18
G1 X28
G0 X29Y19
G1 X19
G1 Y29
G0 X14.476Y35.68
G1 X14.381
G1 X14.191Y35.775
G1 X14.095Y35.87
G1 X14Y36.061
G1 Y36.442
G1 X14.095Y36.632
G1 X14.191Y36.728
G1 X14.381Y36.823
G1 X14.571
G1 X14.762Y36.728
G1 X15.048Y36.537
G1 X16Y35.585
G1 Y36.918
G0 X14Y37.821
G1 X14.095Y37.535
G1 X14.381Y37.345
G1 X14.857Y37.25
G1 X15.143
G1 X15.619Y37.345
G1 X15.905Y37.535
G1 X16Y37.821
G1 Y38.011
G1 X15.905Y38.297
G1 X15.619Y38.488
G1 X15.143Y38.583
G1 X14.857
G1 X14.381Y38.488
G1 X14.095Y38.297
G1 X14Y38.011
G1 Y37.821
G0 X15.619Y45.728
G1 X15.81Y45.823
G1 X15.905Y45.918
G1 X16Y46.204
G1 Y46.49
G1 X15.905Y46.775
G1 X15.714Y46.966
G1 X15.429Y47.061
G1 X15.238
G1 X14.952Y46.966
G1 X14.857Y46.871
G1 X14.762Y46.68
G1 Y46.394
G1 X14Y46.966
G1 Y45.918
G0 X14Y47.964
G1 X14.095Y47.678
G1 X14.381Y47.488
G1 X14.857Y47.392
G1 X15.143
G1 X15.619Y47.488
G1 X15.905Y47.678
G1 X16Y47.964
G1 Y48.154
G1 X15.905Y48.44
G1 X15.619Y48.631
G1 X15.143Y48.726
G1 X14.857
G1 X14.381Y48.631
G1 X14.095Y48.44
G1 X14Y48.154
G1 Y47.964
G0 X14Y56.537
G1 X15.333Y55.585
G1 Y57.013
G0 X16Y56.537
G1 X14
G0 X14Y57.821
G1 X14.095Y57.535
G1 X14.381Y57.345
G1 X14.857Y57.25
G1 X15.143
G1 X15.619Y57.345
G1 X15.905Y57.535
G1 X16Y57.821
G1 Y58.011
G1 X15.905Y58.297
G1 X15.619Y58.488
G1 X15.143Y58.583
G1 X14.857
G1 X14.381Y58.488
G1 X14.095Y58.297
G1 X14Y58.011
G1 Y57.821
G0 X15.619Y65.728
G1 X15.81Y65.823
G1 X15.905Y65.918
G1 X16Y66.204
G1 Y66.49
G1 X15.905Y66.775
G1 X15.714Y66.966
G1 X15.429Y67.061
G1 X15.238
G1 X14.952Y66.966
G1 X14.762Y66.775
G1 X14.667Y66.49
G1 Y66.204
G1 X14.762Y65.918
G1 X14.857Y65.823
G1 X14Y65.918
G1 Y66.871
G0 X14Y67.964
G1 X14.095Y67.678
G1 X14.381Y67.488
G1 X14.857Y67.393
G1 X15.143
G1 X15.619Y67.488
G1 X15.905Y67.678
G1 X16Y67.964
G1 Y68.154
G1 X15.905Y68.44
G1 X15.619Y68.631
G1 X15.143Y68.726
G1 X14.857
G1 X14.381Y68.631
G1 X14.095Y68.44
G1 X14Y68.154
G1 Y67.964
G0 X15.333Y75.68
G1 X15.048Y75.775
G1 X14.857Y75.966
G1 X14.762Y76.251
G1 Y76.347
G1 X14.857Y76.632
G1 X15.048Y76.823
G1 X15.333Y76.918
G1 X15.429
G1 X15.714Y76.823
G1 X15.905Y76.632
G1 X16Y76.347
G1 Y76.251
G1 X15.905Y75.966
G1 X15.714Y75.775
G1 X15.333Y75.68
G1 X14.857
G1 X14.381Y75.775
G1 X14.095Y75.966
G1 X14Y76.251
G1 Y76.442
G1 X14.095Y76.728
G1 X14.286Y76.823
G0 X14Y77.821
G1 X14.095Y77.535
G1 X14.381Y77.345
G1 X14.857Y77.25
G1 X15.143
G1 X15.619Y77.345
G1 X15.905Y77.535
G1 X16Y77.821
G1 Y78.011
G1 X15.905Y78.297
G1 X15.619Y78.488
G1 X15.143Y78.583
G1 X14.857
G1 X14.381Y78.488
G1 X14.095Y78.297
G1 X14Y78.011
G1 Y77.821
G0 X14Y85.585
G1 Y86.918
G0 X14Y86.918
G1 X16Y85.966
G0 X14Y87.821
G1 X14.095Y87.535
G1 X14.381Y87.345
G1 X14.857Y87.25
G1 X15.143
G1 X15.619Y87.345
G1 X15.905Y87.535
G1 X16Y87.821
G1 Y88.011
G1 X15.905Y88.297
G1 X15.619Y88.488
G1 X15.143Y88.583
G1 X14.857
G1 X14.381Y88.488
G1 X14.095Y88.297
G1 X14Y88.011
G1 Y87.821
G0 X14Y96.204
G1 X14.095Y95.918
G1 X14.286Y95.823
G1 X14.476
G1 X14.667Y95.918
G1 X14.762Y96.109
G1 X14.857Y96.49
G1 X14.952Y96.775
G1 X15.143Y96.966
G1 X15.333Y97.061
G1 X15.619
G1 X15.81Y96.966
G1 X15.905Y96.871
G1 X16Y96.585
G1 Y96.204
G1 X15.905Y95.918
G1 X15.81Y95.823
G1 X15.619Y95.728
G1 X15.333
G1 X15.143Y95.823
G1 X14.952Y96.013
G1 X14.857Y96.299
G1 X14.762Y96.68
G1 X14.667Y96.871
G1 X14.476Y96.966
G1 X14.286
G1 X14.095Y96.871
G1 X14Y96.585
G1 Y96.204
G0 X14Y97.964
G1 X14.095Y97.678
G1 X14.381Y97.488
G1 X14.857Y97.392
G1 X15.143
G1 X15.619Y97.488
G1 X15.905Y97.678
G1 X16Y97.964
G1 Y98.154
G1 X15.905Y98.44
G1 X15.619Y98.631
G1 X15.143Y98.726
G1 X14.857
G1 X14.381Y98.631
G1 X14.095Y98.44
G1 X14Y98.154
G1 Y97.964
G0 X15.714Y105.823
G1 X15.905Y105.918
G1 X16Y106.204
G1 Y106.395
G1 X15.905Y106.68
G1 X15.619Y106.871
G1 X15.143Y106.966
G1 X14.667
G1 X14.286Y106.871
G1 X14.095Y106.68
G1 X14Y106.395
G1 Y106.299
G1 X14.095Y106.014
G1 X14.286Y105.823
G1 X14.571Y105.728
G1 X14.667
G1 X14.952Y105.823
G1 X15.143Y106.014
G1 X15.238Y106.299
G1 Y106.395
G1 X15.143Y106.68
G1 X14.952Y106.871
G1 X14.667Y106.966
G0 X14Y107.964
G1 X14.095Y107.678
G1 X14.381Y107.488
G1 X14.857Y107.393
G1 X15.143
G1 X15.619Y107.488
G1 X15.905Y107.678
G1 X16Y107.964
G1 Y108.155
G1 X15.905Y108.44
G1 X15.619Y108.631
G1 X15.143Y108.726
G1 X14.857
G1 X14.381Y108.631
G1 X14.095Y108.44
G1 X14Y108.155
G1 Y107.964
G0 X14.381Y114.038
G1 X14.286Y114.229
G1 X14Y114.514
G1 X16
G0 X14Y115.989
G1 X14.095Y115.703
G1 X14.381Y115.513
G1 X14.857Y115.417
G1 X15.143
G1 X15.619Y115.513
G1 X15.905Y115.703
G1 X16Y115.989
G1 Y116.179
G1 X15.905Y116.465
G1 X15.619Y116.655
G1 X15.143Y116.751
G1 X14.857
G1 X14.381Y116.655
G1 X14.095Y116.465
G1 X14Y116.179
G1 Y115.989
G0 X14Y117.654
G1 X14.095Y117.368
G1 X14.381Y117.177
G1 X14.857Y117.082
G1 X15.143
G1 X15.619Y117.177
G1 X15.905Y117.368
G1 X16Y117.654
G1 Y117.844
G1 X15.905Y118.13
G1 X15.619Y118.32
G1 X15.143Y118.415
G1 X14.857
G1 X14.381Y118.32
G1 X14.095Y118.13
G1 X14Y117.844
G1 Y117.654
G0 X14.381Y124.038
G1 X14.286Y124.229
G1 X14Y124.514
G1 X16
G0 X14.381Y125.703
G1 X14.286Y125.894
G1 X14Y126.179
G1 X16
G0 X14Y127.654
G1 X14.095Y127.368
G1 X14.381Y127.177
G1 X14.857Y127.082
G1 X15.143
G1 X15.619Y127.177
G1 X15.905Y127.368
G1 X16Y127.654
G1 Y127.844
G1 X15.905Y128.13
G1 X15.619Y128.32
G1 X15.143Y128.415
G1 X14.857
G1 X14.381Y128.32
G1 X14.095Y128.13
G1 X14Y127.844
G1 Y127.654
G0 X14.381Y134.038
G1 X14.286Y134.229
G1 X14Y134.514
G1 X16
G0 X14.476Y135.513
G1 X14.381
G1 X14.191Y135.608
G1 X14.095Y135.703
G1 X14Y135.894
G1 Y136.274
G1 X14.095Y136.465
G1 X14.191Y136.56
G1 X14.381Y136.655
G1 X14.571
G1 X14.762Y136.56
G1 X15.048Y136.37
G1 X16Y135.417
G1 Y136.751
G0 X14Y137.654
G1 X14.095Y137.368
G1 X14.381Y137.177
G1 X14.857Y137.082
G1 X15.143
G1 X15.619Y137.177
G1 X15.905Y137.368
G1 X16Y137.654
G1 Y137.844
G1 X15.905Y138.13
G1 X15.619Y138.32
G1 X15.143Y138.415
G1 X14.857
G1 X14.381Y138.32
G1 X14.095Y138.13
G1 X14Y137.844
G1 Y137.654
G0 X14.381Y144.038
G1 X14.286Y144.229
G1 X14Y144.514
G1 X16
G0 X15.619Y145.417
G1 X15.81Y145.513
G1 X15.905Y145.608
G1 X16Y145.894
G1 Y146.179
G1 X15.905Y146.465
G1 X15.714Y146.655
G1 X15.429Y146.751
G1 X15.238
G1 X14.952Y146.655
G1 X14.857Y146.56
G1 X14.762Y146.37
G1 Y146.084
G1 X14Y146.655
G1 Y145.608
G0 X14Y147.654
G1 X14.095Y147.368
G1 X14.381Y147.177
G1 X14.857Y147.082
G1 X15.143
G1 X15.619Y147.177
G1 X15.905Y147.368
G1 X16Y147.654
G1 Y147.844
G1 X15.905Y148.13
G1 X15.619Y148.32
G1 X15.143Y148.415
G1 X14.857
G1 X14.381Y148.32
G1 X14.095Y148.13
G1 X14Y147.844
G1 Y147.654
G0 X14.381Y154.038
G1 X14.286Y154.229
G1 X14Y154.514
G1 X16
G0 X16Y156.37
G1 X14
G0 X14Y156.37
G1 X15.333Y155.417
G1 Y156.846
G0 X14Y157.654
G1 X14.095Y157.368
G1 X14.381Y157.177
G1 X14.857Y157.082
G1 X15.143
G1 X15.619Y157.177
G1 X15.905Y157.368
G1 X16Y157.654
G1 Y157.844
G1 X15.905Y158.13
G1 X15.619Y158.32
G1 X15.143Y158.415
G1 X14.857
G1 X14.381Y158.32
G1 X14.095Y158.13
G1 X14Y157.844
G1 Y157.654
G0 X19Y163
G1 Y173
G0 X19Y173
G1 X29
G0 X28Y174
G1 X18
G0 X18Y174
G1 Y164
G0 X17Y165
G1 Y175
G1 X27
G0 X47Y133
G1 Y123
G0 X48Y122
G1 Y132
G1 X58
G0 X57Y133
G1 X47
G0 X43.531Y128.152
G1 X43.627Y127.866
G1 X43.912Y127.675
G1 X44.389Y127.58
G1 X44.674
G1 X45.15Y127.675
G1 X45.436Y127.866
G1 X45.531Y128.152
G1 Y128.342
G1 X45.436Y128.628
G1 X45.15Y128.818
G1 X44.674Y128.913
G1 X44.389
G1 X43.912Y128.818
G1 X43.627Y128.628
G1 X43.531Y128.342
G1 Y128.152
G0 X43.531Y126.487
G1 X43.627Y126.201
G1 X43.912Y126.011
G1 X44.389Y125.915
G1 X44.674
G1 X45.15Y126.011
G1 X45.436Y126.201
G1 X45.531Y126.487
G1 Y126.677
G1 X45.436Y126.963
G1 X45.15Y127.153
G1 X44.674Y127.249
G1 X44.389
G1 X43.912Y127.153
G1 X43.627Y126.963
G1 X43.531Y126.677
G1 Y126.487
G0 X43.912Y124.536
G1 X43.817Y124.727
G1 X43.531Y125.012
G1 X45.531
G0 X49Y121
G1 Y131
G1 X59
G0 X43.531Y118.461
G1 X43.627Y118.175
G1 X43.912Y117.985
G1 X44.389Y117.89
G1 X44.674
G1 X45.15Y117.985
G1 X45.436Y118.175
G1 X45.531Y118.461
G1 Y118.652
G1 X45.436Y118.937
G1 X45.15Y119.128
G1 X44.674Y119.223
G1 X44.389
G1 X43.912Y119.128
G1 X43.627Y118.937
G1 X43.531Y118.652
G1 Y118.461
G0 X44.198Y117.463
G1 X44.484Y117.368
G1 X44.674Y117.177
G1 X44.77Y116.892
G1 Y116.796
G1 X44.674Y116.511
G1 X44.484Y116.32
G1 X44.198Y116.225
G1 X44.103
G1 X43.817Y116.32
G1 X43.627Y116.511
G1 X43.531Y116.796
G1 Y116.892
G1 X43.627Y117.177
G1 X43.817Y117.368
G1 X44.198Y117.463
G1 X44.674
G1 X45.15Y117.368
G1 X45.436Y117.177
G1 X45.531Y116.892
G1 Y116.701
G1 X45.436Y116.415
G1 X45.246Y116.32
G0 X43.531Y108.462
G1 X43.627Y108.176
G1 X43.912Y107.986
G1 X44.389Y107.891
G1 X44.674
G1 X45.15Y107.986
G1 X45.436Y108.176
G1 X45.531Y108.462
G1 Y108.653
G1 X45.436Y108.938
G1 X45.15Y109.129
G1 X44.674Y109.224
G1 X44.389
G1 X43.912Y109.129
G1 X43.627Y108.938
G1 X43.531Y108.653
G1 Y108.462
G0 X43.531Y106.702
G1 X43.627Y106.416
G1 X43.817Y106.321
G1 X44.008
G1 X44.198Y106.416
G1 X44.293Y106.607
G1 X44.389Y106.988
G1 X44.484Y107.274
G1 X44.674Y107.464
G1 X44.865Y107.559
G1 X45.15
G1 X45.341Y107.464
G1 X45.436Y107.369
G1 X45.531Y107.083
G1 Y106.702
G1 X45.436Y106.416
G1 X45.341Y106.321
G1 X45.15Y106.226
G1 X44.865
G1 X44.674Y106.321
G1 X44.484Y106.512
G1 X44.389Y106.797
G1 X44.293Y107.178
G1 X44.198Y107.369
G1 X44.008Y107.464
G1 X43.817
G1 X43.627Y107.369
G1 X43.531Y107.083
G1 Y106.702
G0 X43.531Y98.319
G1 X43.627Y98.033
G1 X43.912Y97.843
G1 X44.389Y97.747
G1 X44.674
G1 X45.15Y97.843
G1 X45.436Y98.033
G1 X45.531Y98.319
G1 Y98.509
G1 X45.436Y98.795
G1 X45.15Y98.985
G1 X44.674Y99.081
G1 X44.389
G1 X43.912Y98.985
G1 X43.627Y98.795
G1 X43.531Y98.509
G1 Y98.319
G0 X43.531Y97.416
G1 X45.531Y96.464
G0 X43.531Y96.083
G1 Y97.416
G0 X43.531Y88.319
G1 X43.627Y88.033
G1 X43.912Y87.843
G1 X44.389Y87.747
G1 X44.674
G1 X45.15Y87.843
G1 X45.436Y88.033
G1 X45.531Y88.319
G1 Y88.509
G1 X45.436Y88.795
G1 X45.15Y88.985
G1 X44.674Y89.081
G1 X44.389
G1 X43.912Y88.985
G1 X43.627Y88.795
G1 X43.531Y88.509
G1 Y88.319
G0 X43.817Y87.321
G1 X43.627Y87.225
G1 X43.531Y86.94
G1 Y86.749
G1 X43.627Y86.464
G1 X43.912Y86.273
G1 X44.389Y86.178
G1 X44.865
G1 X45.246Y86.273
G1 X45.436Y86.464
G1 X45.531Y86.749
G1 Y86.844
G1 X45.436Y87.13
G1 X45.246Y87.321
G1 X44.96Y87.416
G1 X44.865
G1 X44.579Y87.321
G1 X44.389Y87.13
G1 X44.293Y86.844
G1 Y86.749
G1 X44.389Y86.464
G1 X44.579Y86.273
G1 X44.865Y86.178
G0 X43.531Y78.462
G1 X43.627Y78.176
G1 X43.912Y77.986
G1 X44.389Y77.89
G1 X44.674
G1 X45.15Y77.986
G1 X45.436Y78.176
G1 X45.531Y78.462
G1 Y78.652
G1 X45.436Y78.938
G1 X45.15Y79.128
G1 X44.674Y79.224
G1 X44.389
G1 X43.912Y79.128
G1 X43.627Y78.938
G1 X43.531Y78.652
G1 Y78.462
G0 X43.531Y77.368
G1 Y76.416
G1 X44.389Y76.321
G1 X44.293Y76.416
G1 X44.198Y76.702
G1 Y76.987
G1 X44.293Y77.273
G1 X44.484Y77.464
G1 X44.77Y77.559
G1 X44.96
G1 X45.246Y77.464
G1 X45.436Y77.273
G1 X45.531Y76.987
G1 Y76.702
G1 X45.436Y76.416
G1 X45.341Y76.321
G1 X45.15Y76.226
G0 X43.531Y68.319
G1 X43.627Y68.033
G1 X43.912Y67.843
G1 X44.389Y67.747
G1 X44.674
G1 X45.15Y67.843
G1 X45.436Y68.033
G1 X45.531Y68.319
G1 Y68.509
G1 X45.436Y68.795
G1 X45.15Y68.985
G1 X44.674Y69.081
G1 X44.389
G1 X43.912Y68.985
G1 X43.627Y68.795
G1 X43.531Y68.509
G1 Y68.319
G0 X44.865Y67.511
G1 Y66.083
G1 X43.531Y67.035
G0 X43.531Y67.035
G1 X45.531
G0 X43.531Y58.462
G1 X43.627Y58.176
G1 X43.912Y57.985
G1 X44.389Y57.89
G1 X44.674
G1 X45.15Y57.985
G1 X45.436Y58.176
G1 X45.531Y58.462
G1 Y58.652
G1 X45.436Y58.938
G1 X45.15Y59.128
G1 X44.674Y59.224
G1 X44.389
G1 X43.912Y59.128
G1 X43.627Y58.938
G1 X43.531Y58.652
G1 Y58.462
G0 X43.531Y56.416
G1 Y57.464
G1 X44.293Y56.892
G1 Y57.178
G1 X44.389Y57.368
G1 X44.484Y57.464
G1 X44.77Y57.559
G1 X44.96
G1 X45.246Y57.464
G1 X45.436Y57.273
G1 X45.531Y56.987
G1 Y56.702
G1 X45.436Y56.416
G1 X45.341Y56.321
G1 X45.15Y56.225
G0 X43.531Y48.319
G1 X43.627Y48.033
G1 X43.912Y47.843
G1 X44.389Y47.747
G1 X44.674
G1 X45.15Y47.843
G1 X45.436Y48.033
G1 X45.531Y48.319
G1 Y48.509
G1 X45.436Y48.795
G1 X45.15Y48.985
G1 X44.674Y49.081
G1 X44.389
G1 X43.912Y48.985
G1 X43.627Y48.795
G1 X43.531Y48.509
G1 Y48.319
G0 X45.531Y47.416
G1 Y46.083
G1 X44.579Y47.035
G1 X44.293Y47.225
G1 X44.103Y47.321
G1 X43.912
G1 X43.722Y47.225
G1 X43.627Y47.13
G1 X43.531Y46.94
G1 Y46.559
G1 X43.627Y46.368
G1 X43.722Y46.273
G1 X43.912Y46.178
G1 X44.008
G0 X43.531Y38.319
G1 X43.627Y38.033
G1 X43.912Y37.843
G1 X44.389Y37.747
G1 X44.674
G1 X45.15Y37.843
G1 X45.436Y38.033
G1 X45.531Y38.319
G1 Y38.509
G1 X45.436Y38.795
G1 X45.15Y38.985
G1 X44.674Y39.081
G1 X44.389
G1 X43.912Y38.985
G1 X43.627Y38.795
G1 X43.531Y38.509
G1 Y38.319
G0 X43.912Y36.368
G1 X43.817Y36.559
G1 X43.531Y36.844
G1 X45.531
G0 X47Y37
G1 Y27
G1 X57
G0 X58Y28
G1 X48
G1 Y38
G0 X49Y39
G1 Y29
G1 X59
G0 X58.678Y26
G1 X58.393Y25.905
G1 X58.202Y25.619
G1 X58.107Y25.143
G1 Y24.857
G1 X58.202Y24.381
G1 X58.393Y24.095
G1 X58.678Y24
G1 X58.869
G1 X59.155Y24.095
G1 X59.345Y24.381
G1 X59.44Y24.857
G1 Y25.143
G1 X59.345Y25.619
G1 X59.155Y25.905
G1 X58.869Y26
G1 X58.678
G0 X56.728Y25.619
G1 X56.918Y25.714
G1 X57.204Y26
G1 Y24
G0 X66.537Y25.524
G1 Y25.619
G1 X66.633Y25.809
G1 X66.728Y25.905
G1 X66.918Y26
G1 X67.299
G1 X67.49Y25.905
G1 X67.585Y25.809
G1 X67.68Y25.619
G1 Y25.429
G1 X67.585Y25.238
G1 X67.395Y24.952
G1 X66.442Y24
G1 X67.775
G0 X68.678Y26
G1 X68.393Y25.905
G1 X68.202Y25.619
G1 X68.107Y25.143
G1 Y24.857
G1 X68.202Y24.381
G1 X68.393Y24.095
G1 X68.678Y24
G1 X68.869
G1 X69.155Y24.095
G1 X69.345Y24.381
G1 X69.44Y24.857
G1 Y25.143
G1 X69.345Y25.619
G1 X69.155Y25.905
G1 X68.869Y26
G1 X68.678
G0 X76.776Y26
G1 X77.823
G1 X77.252Y25.238
G1 X77.537
G1 X77.728Y25.143
G1 X77.823Y25.048
G1 X77.918Y24.762
G1 Y24.571
G1 X77.823Y24.286
G1 X77.633Y24.095
G1 X77.347Y24
G1 X77.061
G1 X76.776Y24.095
G1 X76.68Y24.19
G1 X76.585Y24.381
G0 X78.821Y26
G1 X78.536Y25.905
G1 X78.345Y25.619
G1 X78.25Y25.143
G1 Y24.857
G1 X78.345Y24.381
G1 X78.536Y24.095
G1 X78.821Y24
G1 X79.012
G1 X79.297Y24.095
G1 X79.488Y24.381
G1 X79.583Y24.857
G1 Y25.143
G1 X79.488Y25.619
G1 X79.297Y25.905
G1 X79.012Y26
G1 X78.821
G0 X87.395Y26
G1 Y24
G0 X87.871Y24.667
G1 X86.442
G1 X87.395Y26
G0 X88.678Y26
G1 X88.393Y25.905
G1 X88.202Y25.619
G1 X88.107Y25.143
G1 Y24.857
G1 X88.202Y24.381
G1 X88.393Y24.095
G1 X88.678Y24
G1 X88.869
G1 X89.155Y24.095
G1 X89.345Y24.381
G1 X89.44Y24.857
G1 Y25.143
G1 X89.345Y25.619
G1 X89.155Y25.905
G1 X88.869Y26
G1 X88.678
G0 X96.585Y24.381
G1 X96.68Y24.19
G1 X96.776Y24.095
G1 X97.061Y24
G1 X97.347
G1 X97.633Y24.095
G1 X97.823Y24.286
G1 X97.918Y24.571
G1 Y24.762
G1 X97.823Y25.048
G1 X97.633Y25.238
G1 X97.347Y25.333
G1 X97.061
G1 X96.776Y25.238
G1 X96.68Y25.143
G1 X96.776Y26
G1 X97.728
G0 X98.821Y26
G1 X98.536Y25.905
G1 X98.345Y25.619
G1 X98.25Y25.143
G1 Y24.857
G1 X98.345Y24.381
G1 X98.536Y24.095
G1 X98.821Y24
G1 X99.012
G1 X99.297Y24.095
G1 X99.488Y24.381
G1 X99.583Y24.857
G1 Y25.143
G1 X99.488Y25.619
G1 X99.297Y25.905
G1 X99.012Y26
G1 X98.821
G0 X106.537Y24.667
G1 X106.632Y24.952
G1 X106.823Y25.143
G1 X107.109Y25.238
G1 X107.204
G1 X107.49Y25.143
G1 X107.68Y24.952
G1 X107.775Y24.667
G1 Y24.571
G1 X107.68Y24.286
G1 X107.49Y24.095
G1 X107.204Y24
G1 X107.109
G1 X106.823Y24.095
G1 X106.632Y24.286
G1 X106.537Y24.667
G1 Y25.143
G1 X106.632Y25.619
G1 X106.823Y25.905
G1 X107.109Y26
G1 X107.299
G1 X107.585Y25.905
G1 X107.68Y25.714
G0 X108.678Y26
G1 X108.392Y25.905
G1 X108.202Y25.619
G1 X108.107Y25.143
G1 Y24.857
G1 X108.202Y24.381
G1 X108.392Y24.095
G1 X108.678Y24
G1 X108.869
G1 X109.154Y24.095
G1 X109.345Y24.381
G1 X109.44Y24.857
G1 Y25.143
G1 X109.345Y25.619
G1 X109.154Y25.905
G1 X108.869Y26
G1 X108.678
G0 X116.442Y26
G1 X117.775
G0 X117.775Y26
G1 X116.823Y24
G0 X118.678Y26
G1 X118.392Y25.905
G1 X118.202Y25.619
G1 X118.107Y25.143
G1 Y24.857
G1 X118.202Y24.381
G1 X118.392Y24.095
G1 X118.678Y24
G1 X118.869
G1 X119.154Y24.095
G1 X119.345Y24.381
G1 X119.44Y24.857
G1 Y25.143
G1 X119.345Y25.619
G1 X119.154Y25.905
G1 X118.869Y26
G1 X118.678
G0 X136.68Y24.286
G1 X136.775Y24.095
G1 X137.061Y24
G1 X137.252
G1 X137.537Y24.095
G1 X137.728Y24.381
G1 X137.823Y24.857
G1 Y25.333
G1 X137.728Y25.714
G1 X137.537Y25.905
G1 X137.252Y26
G1 X137.156
G1 X136.871Y25.905
G1 X136.68Y25.714
G1 X136.585Y25.429
G1 Y25.333
G1 X136.68Y25.048
G1 X136.871Y24.857
G1 X137.156Y24.762
G1 X137.252
G1 X137.537Y24.857
G1 X137.728Y25.048
G1 X137.823Y25.333
G0 X138.821Y26
G1 X138.535Y25.905
G1 X138.345Y25.619
G1 X138.25Y25.143
G1 Y24.857
G1 X138.345Y24.381
G1 X138.535Y24.095
G1 X138.821Y24
G1 X139.012
G1 X139.297Y24.095
G1 X139.488Y24.381
G1 X139.583Y24.857
G1 Y25.143
G1 X139.488Y25.619
G1 X139.297Y25.905
G1 X139.012Y26
G1 X138.821
G0 X144.895Y25.619
G1 X145.086Y25.714
G1 X145.371Y26
G1 Y24
G0 X146.846Y26
G1 X146.56Y25.905
G1 X146.37Y25.619
G1 X146.274Y25.143
G1 Y24.857
G1 X146.37Y24.381
G1 X146.56Y24.095
G1 X146.846Y24
G1 X147.036
G1 X147.322Y24.095
G1 X147.512Y24.381
G1 X147.608Y24.857
G1 Y25.143
G1 X147.512Y25.619
G1 X147.322Y25.905
G1 X147.036Y26
G1 X146.846
G0 X148.511Y26
G1 X148.225Y25.905
G1 X148.034Y25.619
G1 X147.939Y25.143
G1 Y24.857
G1 X148.034Y24.381
G1 X148.225Y24.095
G1 X148.511Y24
G1 X148.701
G1 X148.987Y24.095
G1 X149.177Y24.381
G1 X149.272Y24.857
G1 Y25.143
G1 X149.177Y25.619
G1 X148.987Y25.905
G1 X148.701Y26
G1 X148.511
G0 X154.895Y25.619
G1 X155.086Y25.714
G1 X155.371Y26
G1 Y24
G0 X157.036Y24
G1 Y26
G1 X156.751Y25.714
G1 X156.56Y25.619
G0 X158.511Y26
G1 X158.225Y25.905
G1 X158.034Y25.619
G1 X157.939Y25.143
G1 Y24.857
G1 X158.034Y24.381
G1 X158.225Y24.095
G1 X158.511Y24
G1 X158.701
G1 X158.987Y24.095
G1 X159.177Y24.381
G1 X159.272Y24.857
G1 Y25.143
G1 X159.177Y25.619
G1 X158.987Y25.905
G1 X158.701Y26
G1 X158.511
G0 X164.895Y25.619
G1 X165.086Y25.714
G1 X165.371Y26
G1 Y24
G0 X167.608Y24
G1 X166.274
G1 X167.227Y24.952
G1 X167.417Y25.238
G1 X167.512Y25.429
G1 Y25.619
G1 X167.417Y25.809
G1 X167.322Y25.905
G1 X167.131Y26
G1 X166.751
G1 X166.56Y25.905
G1 X166.465Y25.809
G1 X166.37Y25.619
G1 Y25.524
G0 X168.511Y26
G1 X168.225Y25.905
G1 X168.034Y25.619
G1 X167.939Y25.143
G1 Y24.857
G1 X168.034Y24.381
G1 X168.225Y24.095
G1 X168.511Y24
G1 X168.701
G1 X168.987Y24.095
G1 X169.177Y24.381
G1 X169.272Y24.857
G1 Y25.143
G1 X169.177Y25.619
G1 X168.987Y25.905
G1 X168.701Y26
G1 X168.511
G0 X174.895Y25.619
G1 X175.086Y25.714
G1 X175.371Y26
G1 Y24
G0 X176.274Y24.381
G1 X176.37Y24.19
G1 X176.465Y24.095
G1 X176.751Y24
G1 X177.036
G1 X177.322Y24.095
G1 X177.512Y24.286
G1 X177.608Y24.571
G1 Y24.762
G1 X177.512Y25.048
G1 X177.417Y25.143
G1 X177.227Y25.238
G1 X176.941
G1 X177.512Y26
G1 X176.465
G0 X178.511Y26
G1 X178.225Y25.905
G1 X178.034Y25.619
G1 X177.939Y25.143
G1 Y24.857
G1 X178.034Y24.381
G1 X178.225Y24.095
G1 X178.511Y24
G1 X178.701
G1 X178.987Y24.095
G1 X179.177Y24.381
G1 X179.272Y24.857
G1 Y25.143
G1 X179.177Y25.619
G1 X178.987Y25.905
G1 X178.701Y26
G1 X178.511
G0 X184.895Y25.619
G1 X185.086Y25.714
G1 X185.371Y26
G1 Y24
G0 X187.227Y24
G1 Y26
G0 X187.227Y26
G1 X186.274Y24.667
G1 X187.703
G0 X188.511Y26
G1 X188.225Y25.905
G1 X188.034Y25.619
G1 X187.939Y25.143
G1 Y24.857
G1 X188.034Y24.381
G1 X188.225Y24.095
G1 X188.511Y24
G1 X188.701
G1 X188.987Y24.095
G1 X189.177Y24.381
G1 X189.272Y24.857
G1 Y25.143
G1 X189.177Y25.619
G1 X188.987Y25.905
G1 X188.701Y26
G1 X188.511
G0 X194.895Y25.619
G1 X195.086Y25.714
G1 X195.371Y26
G1 Y24
G0 X196.274Y24.381
G1 X196.37Y24.19
G1 X196.465Y24.095
G1 X196.751Y24
G1 X197.036
G1 X197.322Y24.095
G1 X197.512Y24.286
G1 X197.608Y24.571
G1 Y24.762
G1 X197.512Y25.048
G1 X197.322Y25.238
G1 X197.036Y25.333
G1 X196.751
G1 X196.465Y25.238
G1 X196.37Y25.143
G1 X196.465Y26
G1 X197.417
G0 X198.511Y26
G1 X198.225Y25.905
G1 X198.034Y25.619
G1 X197.939Y25.143
G1 Y24.857
G1 X198.034Y24.381
G1 X198.225Y24.095
G1 X198.511Y24
G1 X198.701
G1 X198.987Y24.095
G1 X199.177Y24.381
G1 X199.272Y24.857
G1 Y25.143
G1 X199.177Y25.619
G1 X198.987Y25.905
G1 X198.701Y26
G1 X198.511
G0 X87.776Y16
G1 X86.823Y14
G0 X58.678Y16
G1 X58.393Y15.905
G1 X58.202Y15.619
G1 X58.107Y15.143
G1 Y14.857
G1 X58.202Y14.381
G1 X58.393Y14.095
G1 X58.678Y14
G1 X58.869
G1 X59.155Y14.095
G1 X59.345Y14.381
G1 X59.44Y14.857
G1 Y15.143
G1 X59.345Y15.619
G1 X59.155Y15.905
G1 X58.869Y16
G1 X58.678
G0 X57.395Y16
G1 X56.442Y14.667
G1 X57.871
G0 X57.395Y14
G1 Y16
G0 X28.678Y16
G1 X28.393Y15.905
G1 X28.202Y15.619
G1 X28.107Y15.143
G1 Y14.857
G1 X28.202Y14.381
G1 X28.393Y14.095
G1 X28.678Y14
G1 X28.869
G1 X29.155Y14.095
G1 X29.345Y14.381
G1 X29.44Y14.857
G1 Y15.143
G1 X29.345Y15.619
G1 X29.155Y15.905
G1 X28.869Y16
G1 X28.678
G0 X26.728Y15.619
G1 X26.918Y15.714
G1 X27.204Y16
G1 Y14
G0 X36.537Y15.524
G1 Y15.619
G1 X36.633Y15.809
G1 X36.728Y15.905
G1 X36.918Y16
G1 X37.299
G1 X37.49Y15.905
G1 X37.585Y15.809
G1 X37.68Y15.619
G1 Y15.429
G1 X37.585Y15.238
G1 X37.395Y14.952
G1 X36.442Y14
G1 X37.776
G0 X38.678Y16
G1 X38.393Y15.905
G1 X38.202Y15.619
G1 X38.107Y15.143
G1 Y14.857
G1 X38.202Y14.381
G1 X38.393Y14.095
G1 X38.678Y14
G1 X38.869
G1 X39.155Y14.095
G1 X39.345Y14.381
G1 X39.44Y14.857
G1 Y15.143
G1 X39.345Y15.619
G1 X39.155Y15.905
G1 X38.869Y16
G1 X38.678
G0 X46.776Y16
G1 X47.823
G1 X47.252Y15.238
G1 X47.538
G1 X47.728Y15.143
G1 X47.823Y15.048
G1 X47.918Y14.762
G1 Y14.571
G1 X47.823Y14.286
G1 X47.633Y14.095
G1 X47.347Y14
G1 X47.061
G1 X46.776Y14.095
G1 X46.68Y14.19
G1 X46.585Y14.381
G0 X48.821Y16
G1 X48.536Y15.905
G1 X48.345Y15.619
G1 X48.25Y15.143
G1 Y14.857
G1 X48.345Y14.381
G1 X48.536Y14.095
G1 X48.821Y14
G1 X49.012
G1 X49.298Y14.095
G1 X49.488Y14.381
G1 X49.583Y14.857
G1 Y15.143
G1 X49.488Y15.619
G1 X49.298Y15.905
G1 X49.012Y16
G1 X48.821
G0 X66.585Y14.381
G1 X66.68Y14.19
G1 X66.776Y14.095
G1 X67.061Y14
G1 X67.347
G1 X67.633Y14.095
G1 X67.823Y14.286
G1 X67.918Y14.571
G1 Y14.762
G1 X67.823Y15.048
G1 X67.633Y15.238
G1 X67.347Y15.333
G1 X67.061
G1 X66.776Y15.238
G1 X66.68Y15.143
G1 X66.776Y16
G1 X67.728
G0 X68.821Y16
G1 X68.536Y15.905
G1 X68.345Y15.619
G1 X68.25Y15.143
G1 Y14.857
G1 X68.345Y14.381
G1 X68.536Y14.095
G1 X68.821Y14
G1 X69.012
G1 X69.298Y14.095
G1 X69.488Y14.381
G1 X69.583Y14.857
G1 Y15.143
G1 X69.488Y15.619
G1 X69.298Y15.905
G1 X69.012Y16
G1 X68.821
G0 X76.537Y14.667
G1 X76.633Y14.952
G1 X76.823Y15.143
G1 X77.109Y15.238
G1 X77.204
G1 X77.49Y15.143
G1 X77.68Y14.952
G1 X77.776Y14.667
G1 Y14.571
G1 X77.68Y14.286
G1 X77.49Y14.095
G1 X77.204Y14
G1 X77.109
G1 X76.823Y14.095
G1 X76.633Y14.286
G1 X76.537Y14.667
G1 Y15.143
G1 X76.633Y15.619
G1 X76.823Y15.905
G1 X77.109Y16
G1 X77.299
G1 X77.585Y15.905
G1 X77.68Y15.714
G0 X78.678Y16
G1 X78.393Y15.905
G1 X78.202Y15.619
G1 X78.107Y15.143
G1 Y14.857
G1 X78.202Y14.381
G1 X78.393Y14.095
G1 X78.678Y14
G1 X78.869
G1 X79.155Y14.095
G1 X79.345Y14.381
G1 X79.44Y14.857
G1 Y15.143
G1 X79.345Y15.619
G1 X79.155Y15.905
G1 X78.869Y16
G1 X78.678
G0 X86.442Y16
G1 X87.776
G0 X88.678Y16
G1 X88.393Y15.905
G1 X88.202Y15.619
G1 X88.107Y15.143
G1 Y14.857
G1 X88.202Y14.381
G1 X88.393Y14.095
G1 X88.678Y14
G1 X88.869
G1 X89.155Y14.095
G1 X89.345Y14.381
G1 X89.44Y14.857
G1 Y15.143
G1 X89.345Y15.619
G1 X89.155Y15.905
G1 X88.869Y16
G1 X88.678
G0 X97.061Y16
G1 X96.776Y15.905
G1 X96.68Y15.714
G1 Y15.524
G1 X96.776Y15.333
G1 X96.966Y15.238
G1 X97.347Y15.143
G1 X97.633Y15.048
G1 X97.823Y14.857
G1 X97.918Y14.667
G1 Y14.381
G1 X97.823Y14.19
G1 X97.728Y14.095
G1 X97.442Y14
G1 X97.061
G1 X96.776Y14.095
G1 X96.68Y14.19
G1 X96.585Y14.381
G1 Y14.667
G1 X96.68Y14.857
G1 X96.871Y15.048
G1 X97.157Y15.143
G1 X97.538Y15.238
G1 X97.728Y15.333
G1 X97.823Y15.524
G1 Y15.714
G1 X97.728Y15.905
G1 X97.442Y16
G1 X97.061
G0 X98.821Y16
G1 X98.536Y15.905
G1 X98.345Y15.619
G1 X98.25Y15.143
G1 Y14.857
G1 X98.345Y14.381
G1 X98.536Y14.095
G1 X98.821Y14
G1 X99.012
G1 X99.298Y14.095
G1 X99.488Y14.381
G1 X99.583Y14.857
G1 Y15.143
G1 X99.488Y15.619
G1 X99.298Y15.905
G1 X99.012Y16
G1 X98.821
G0 X106.68Y14.286
G1 X106.775Y14.095
G1 X107.061Y14
G1 X107.252
G1 X107.537Y14.095
G1 X107.728Y14.381
G1 X107.823Y14.857
G1 Y15.333
G1 X107.728Y15.714
G1 X107.537Y15.905
G1 X107.252Y16
G1 X107.156
G1 X106.871Y15.905
G1 X106.68Y15.714
G1 X106.585Y15.429
G1 Y15.333
G1 X106.68Y15.048
G1 X106.871Y14.857
G1 X107.156Y14.762
G1 X107.252
G1 X107.537Y14.857
G1 X107.728Y15.048
G1 X107.823Y15.333
G0 X108.821Y16
G1 X108.535Y15.905
G1 X108.345Y15.619
G1 X108.25Y15.143
G1 Y14.857
G1 X108.345Y14.381
G1 X108.535Y14.095
G1 X108.821Y14
G1 X109.012
G1 X109.297Y14.095
G1 X109.488Y14.381
G1 X109.583Y14.857
G1 Y15.143
G1 X109.488Y15.619
G1 X109.297Y15.905
G1 X109.012Y16
G1 X108.821
G0 X114.895Y15.619
G1 X115.086Y15.714
G1 X115.371Y16
G1 Y14
G0 X116.846Y16
G1 X116.56Y15.905
G1 X116.37Y15.619
G1 X116.274Y15.143
G1 Y14.857
G1 X116.37Y14.381
G1 X116.56Y14.095
G1 X116.846Y14
G1 X117.036
G1 X117.322Y14.095
G1 X117.512Y14.381
G1 X117.608Y14.857
G1 Y15.143
G1 X117.512Y15.619
G1 X117.322Y15.905
G1 X117.036Y16
G1 X116.846
G0 X118.511Y16
G1 X118.225Y15.905
G1 X118.034Y15.619
G1 X117.939Y15.143
G1 Y14.857
G1 X118.034Y14.381
G1 X118.225Y14.095
G1 X118.511Y14
G1 X118.701
G1 X118.987Y14.095
G1 X119.177Y14.381
G1 X119.272Y14.857
G1 Y15.143
G1 X119.177Y15.619
G1 X118.987Y15.905
G1 X118.701Y16
G1 X118.511
G0 X134.895Y15.619
G1 X135.086Y15.714
G1 X135.371Y16
G1 Y14
G0 X137.608Y14
G1 X136.274
G1 X137.227Y14.952
G1 X137.417Y15.238
G1 X137.512Y15.429
G1 Y15.619
G1 X137.417Y15.809
G1 X137.322Y15.905
G1 X137.131Y16
G1 X136.751
G1 X136.56Y15.905
G1 X136.465Y15.809
G1 X136.37Y15.619
G1 Y15.524
G0 X138.511Y16
G1 X138.225Y15.905
G1 X138.034Y15.619
G1 X137.939Y15.143
G1 Y14.857
G1 X138.034Y14.381
G1 X138.225Y14.095
G1 X138.511Y14
G1 X138.701
G1 X138.987Y14.095
G1 X139.177Y14.381
G1 X139.272Y14.857
G1 Y15.143
G1 X139.177Y15.619
G1 X138.987Y15.905
G1 X138.701Y16
G1 X138.511
G0 X144.895Y15.619
G1 X145.086Y15.714
G1 X145.371Y16
G1 Y14
G0 X146.274Y14.381
G1 X146.37Y14.19
G1 X146.465Y14.095
G1 X146.751Y14
G1 X147.036
G1 X147.322Y14.095
G1 X147.512Y14.286
G1 X147.608Y14.571
G1 Y14.762
G1 X147.512Y15.048
G1 X147.417Y15.143
G1 X147.227Y15.238
G1 X146.941
G1 X147.512Y16
G1 X146.465
G0 X148.511Y16
G1 X148.225Y15.905
G1 X148.034Y15.619
G1 X147.939Y15.143
G1 Y14.857
G1 X148.034Y14.381
G1 X148.225Y14.095
G1 X148.511Y14
G1 X148.701
G1 X148.987Y14.095
G1 X149.177Y14.381
G1 X149.272Y14.857
G1 Y15.143
G1 X149.177Y15.619
G1 X148.987Y15.905
G1 X148.701Y16
G1 X148.511
G0 X154.895Y15.619
G1 X155.086Y15.714
G1 X155.371Y16
G1 Y14
G0 X157.227Y14
G1 Y16
G0 X157.227Y16
G1 X156.274Y14.667
G1 X157.703
G0 X158.511Y16
G1 X158.225Y15.905
G1 X158.034Y15.619
G1 X157.939Y15.143
G1 Y14.857
G1 X158.034Y14.381
G1 X158.225Y14.095
G1 X158.511Y14
G1 X158.701
G1 X158.987Y14.095
G1 X159.177Y14.381
G1 X159.272Y14.857
G1 Y15.143
G1 X159.177Y15.619
G1 X158.987Y15.905
G1 X158.701Y16
G1 X158.511
G0 X164.895Y15.619
G1 X165.086Y15.714
G1 X165.371Y16
G1 Y14
G0 X166.274Y14.381
G1 X166.37Y14.19
G1 X166.465Y14.095
G1 X166.751Y14
G1 X167.036
G1 X167.322Y14.095
G1 X167.512Y14.286
G1 X167.608Y14.571
G1 Y14.762
G1 X167.512Y15.048
G1 X167.322Y15.238
G1 X167.036Y15.333
G1 X166.751
G1 X166.465Y15.238
G1 X166.37Y15.143
G1 X166.465Y16
G1 X167.417
G0 X168.511Y16
G1 X168.225Y15.905
G1 X168.034Y15.619
G1 X167.939Y15.143
G1 Y14.857
G1 X168.034Y14.381
G1 X168.225Y14.095
G1 X168.511Y14
G1 X168.701
G1 X168.987Y14.095
G1 X169.177Y14.381
G1 X169.272Y14.857
G1 Y15.143
G1 X169.177Y15.619
G1 X168.987Y15.905
G1 X168.701Y16
G1 X168.511
G0 X174.895Y15.619
G1 X175.086Y15.714
G1 X175.371Y16
G1 Y14
G0 X176.37Y14.667
G1 X176.465Y14.952
G1 X176.655Y15.143
G1 X176.941Y15.238
G1 X177.036
G1 X177.322Y15.143
G1 X177.512Y14.952
G1 X177.608Y14.667
G1 Y14.571
G1 X177.512Y14.286
G1 X177.322Y14.095
G1 X177.036Y14
G1 X176.941
G1 X176.655Y14.095
G1 X176.465Y14.286
G1 X176.37Y14.667
G1 Y15.143
G1 X176.465Y15.619
G1 X176.655Y15.905
G1 X176.941Y16
G1 X177.131
G1 X177.417Y15.905
G1 X177.512Y15.714
G0 X178.511Y16
G1 X178.225Y15.905
G1 X178.034Y15.619
G1 X177.939Y15.143
G1 Y14.857
G1 X178.034Y14.381
G1 X178.225Y14.095
G1 X178.511Y14
G1 X178.701
G1 X178.987Y14.095
G1 X179.177Y14.381
G1 X179.272Y14.857
G1 Y15.143
G1 X179.177Y15.619
G1 X178.987Y15.905
G1 X178.701Y16
G1 X178.511
G0 X184.895Y15.619
G1 X185.086Y15.714
G1 X185.371Y16
G1 Y14
G0 X186.655Y14
G1 X187.608Y16
G0 X187.608Y16
G1 X186.274
G0 X188.511Y16
G1 X188.225Y15.905
G1 X188.034Y15.619
G1 X187.939Y15.143
G1 Y14.857
G1 X188.034Y14.381
G1 X188.225Y14.095
G1 X188.511Y14
G1 X188.701
G1 X188.987Y14.095
G1 X189.177Y14.381
G1 X189.272Y14.857
G1 Y15.143
G1 X189.177Y15.619
G1 X188.987Y15.905
G1 X188.701Y16
G1 X188.511
G0 X194.895Y15.619
G1 X195.086Y15.714
G1 X195.371Y16
G1 Y14
G0 X196.751Y16
G1 X196.465Y15.905
G1 X196.37Y15.714
G1 Y15.524
G1 X196.465Y15.333
G1 X196.655Y15.238
G1 X197.036Y15.143
G1 X197.322Y15.048
G1 X197.512Y14.857
G1 X197.608Y14.667
G1 Y14.381
G1 X197.512Y14.19
G1 X197.417Y14.095
G1 X197.131Y14
G1 X196.751
G1 X196.465Y14.095
G1 X196.37Y14.19
G1 X196.274Y14.381
G1 Y14.667
G1 X196.37Y14.857
G1 X196.56Y15.048
G1 X196.846Y15.143
G1 X197.227Y15.238
G1 X197.417Y15.333
G1 X197.512Y15.524
G1 Y15.714
G1 X197.417Y15.905
G1 X197.131Y16
G1 X196.751
G0 X198.511Y16
G1 X198.225Y15.905
G1 X198.034Y15.619
G1 X197.939Y15.143
G1 Y14.857
G1 X198.034Y14.381
G1 X198.225Y14.095
G1 X198.511Y14
G1 X198.701
G1 X198.987Y14.095
G1 X199.177Y14.381
G1 X199.272Y14.857
G1 Y15.143
G1 X199.177Y15.619
G1 X198.987Y15.905
G1 X198.701Y16
G1 X198.511
G0 X204.895Y15.619
G1 X205.086Y15.714
G1 X205.371Y16
G1 Y14
G0 X206.37Y14.286
G1 X206.465Y14.095
G1 X206.751Y14
G1 X206.941
G1 X207.227Y14.095
G1 X207.417Y14.381
G1 X207.512Y14.857
G1 Y15.333
G1 X207.417Y15.714
G1 X207.227Y15.905
G1 X206.941Y16
G1 X206.846
G1 X206.56Y15.905
G1 X206.37Y15.714
G1 X206.274Y15.429
G1 Y15.333
G1 X206.37Y15.048
G1 X206.56Y14.857
G1 X206.846Y14.762
G1 X206.941
G1 X207.227Y14.857
G1 X207.417Y15.048
G1 X207.512Y15.333
G0 X208.511Y16
G1 X208.225Y15.905
G1 X208.034Y15.619
G1 X207.939Y15.143
G1 Y14.857
G1 X208.034Y14.381
G1 X208.225Y14.095
G1 X208.511Y14
G1 X208.701
G1 X208.987Y14.095
G1 X209.177Y14.381
G1 X209.272Y14.857
G1 Y15.143
G1 X209.177Y15.619
G1 X208.987Y15.905
G1 X208.701Y16
G1 X208.511
G0 X214.705Y15.524
G1 Y15.619
G1 X214.8Y15.809
G1 X214.895Y15.905
G1 X215.086Y16
G1 X215.467
G1 X215.657Y15.905
G1 X215.752Y15.809
G1 X215.848Y15.619
G1 Y15.429
G1 X215.752Y15.238
G1 X215.562Y14.952
G1 X214.61Y14
G1 X215.943
G0 X216.846Y16
G1 X216.56Y15.905
G1 X216.37Y15.619
G1 X216.274Y15.143
G1 Y14.857
G1 X216.37Y14.381
G1 X216.56Y14.095
G1 X216.846Y14
G1 X217.036
G1 X217.322Y14.095
G1 X217.512Y14.381
G1 X217.608Y14.857
G1 Y15.143
G1 X217.512Y15.619
G1 X217.322Y15.905
G1 X217.036Y16
G1 X216.846
G0 X218.511Y16
G1 X218.225Y15.905
G1 X218.034Y15.619
G1 X217.939Y15.143
G1 Y14.857
G1 X218.034Y14.381
G1 X218.225Y14.095
G1 X218.511Y14
G1 X218.701
G1 X218.987Y14.095
G1 X219.177Y14.381
G1 X219.272Y14.857
G1 Y15.143
G1 X219.177Y15.619
G1 X218.987Y15.905
G1 X218.701Y16
G1 X218.511
G0 X37.323Y3
G1 Y1
G0 X8.607Y3
G1 X8.321Y2.905
G1 X8.131Y2.619
G1 X8.035Y2.143
G1 Y1.857
G1 X8.131Y1.381
G1 X8.321Y1.095
G1 X8.607Y1
G1 X8.797
G1 X9.083Y1.095
G1 X9.274Y1.381
G1 X9.369Y1.857
G1 Y2.143
G1 X9.274Y2.619
G1 X9.083Y2.905
G1 X8.797Y3
G1 X8.607
G0 X6.656Y2.619
G1 X6.847Y2.714
G1 X7.133Y3
G1 Y1
G0 X16.466Y2.524
G1 Y2.619
G1 X16.561Y2.81
G1 X16.656Y2.905
G1 X16.847Y3
G1 X17.228
G1 X17.418Y2.905
G1 X17.514Y2.81
G1 X17.609Y2.619
G1 Y2.429
G1 X17.514Y2.238
G1 X17.323Y1.952
G1 X16.371Y1
G1 X17.704
G0 X18.607Y3
G1 X18.321Y2.905
G1 X18.131Y2.619
G1 X18.035Y2.143
G1 Y1.857
G1 X18.131Y1.381
G1 X18.321Y1.095
G1 X18.607Y1
G1 X18.797
G1 X19.083Y1.095
G1 X19.274Y1.381
G1 X19.369Y1.857
G1 Y2.143
G1 X19.274Y2.619
G1 X19.083Y2.905
G1 X18.797Y3
G1 X18.607
G0 X26.704Y3
G1 X27.752
G1 X27.18Y2.238
G1 X27.466
G1 X27.656Y2.143
G1 X27.752Y2.048
G1 X27.847Y1.762
G1 Y1.571
G1 X27.752Y1.286
G1 X27.561Y1.095
G1 X27.275Y1
G1 X26.99
G1 X26.704Y1.095
G1 X26.609Y1.19
G1 X26.514Y1.381
G0 X28.75Y3
G1 X28.464Y2.905
G1 X28.274Y2.619
G1 X28.178Y2.143
G1 Y1.857
G1 X28.274Y1.381
G1 X28.464Y1.095
G1 X28.75Y1
G1 X28.94
G1 X29.226Y1.095
G1 X29.416Y1.381
G1 X29.512Y1.857
G1 Y2.143
G1 X29.416Y2.619
G1 X29.226Y2.905
G1 X28.94Y3
G1 X28.75
G0 X37.323Y3
G1 X36.371Y1.667
G1 X37.799
G0 X38.607Y3
G1 X38.321Y2.905
G1 X38.131Y2.619
G1 X38.035Y2.143
G1 Y1.857
G1 X38.131Y1.381
G1 X38.321Y1.095
G1 X38.607Y1
G1 X38.797
G1 X39.083Y1.095
G1 X39.274Y1.381
G1 X39.369Y1.857
G1 Y2.143
G1 X39.274Y2.619
G1 X39.083Y2.905
G1 X38.797Y3
G1 X38.607
G0 X46.514Y1.381
G1 X46.609Y1.19
G1 X46.704Y1.095
G1 X46.99Y1
G1 X47.275
G1 X47.561Y1.095
G1 X47.752Y1.286
G1 X47.847Y1.571
G1 Y1.762
G1 X47.752Y2.048
G1 X47.561Y2.238
G1 X47.275Y2.333
G1 X46.99
G1 X46.704Y2.238
G1 X46.609Y2.143
G1 X46.704Y3
G1 X47.656
G0 X48.75Y3
G1 X48.464Y2.905
G1 X48.274Y2.619
G1 X48.178Y2.143
G1 Y1.857
G1 X48.274Y1.381
G1 X48.464Y1.095
G1 X48.75Y1
G1 X48.94
G1 X49.226Y1.095
G1 X49.416Y1.381
G1 X49.512Y1.857
G1 Y2.143
G1 X49.416Y2.619
G1 X49.226Y2.905
G1 X48.94Y3
G1 X48.75
G0 X56.466Y1.667
G1 X56.561Y1.952
G1 X56.752Y2.143
G1 X57.037Y2.238
G1 X57.133
G1 X57.418Y2.143
G1 X57.609Y1.952
G1 X57.704Y1.667
G1 Y1.571
G1 X57.609Y1.286
G1 X57.418Y1.095
G1 X57.133Y1
G1 X57.037
G1 X56.752Y1.095
G1 X56.561Y1.286
G1 X56.466Y1.667
G1 Y2.143
G1 X56.561Y2.619
G1 X56.752Y2.905
G1 X57.037Y3
G1 X57.228
G1 X57.514Y2.905
G1 X57.609Y2.714
G0 X58.607Y3
G1 X58.321Y2.905
G1 X58.131Y2.619
G1 X58.035Y2.143
G1 Y1.857
G1 X58.131Y1.381
G1 X58.321Y1.095
G1 X58.607Y1
G1 X58.797
G1 X59.083Y1.095
G1 X59.274Y1.381
G1 X59.369Y1.857
G1 Y2.143
G1 X59.274Y2.619
G1 X59.083Y2.905
G1 X58.797Y3
G1 X58.607
G0 X66.371Y3
G1 X67.704
G0 X67.704Y3
G1 X66.752Y1
G0 X68.607Y3
G1 X68.321Y2.905
G1 X68.131Y2.619
G1 X68.035Y2.143
G1 Y1.857
G1 X68.131Y1.381
G1 X68.321Y1.095
G1 X68.607Y1
G1 X68.797
G1 X69.083Y1.095
G1 X69.274Y1.381
G1 X69.369Y1.857
G1 Y2.143
G1 X69.274Y2.619
G1 X69.083Y2.905
G1 X68.797Y3
G1 X68.607
G0 X76.99Y3
G1 X76.704Y2.905
G1 X76.609Y2.714
G1 Y2.524
G1 X76.704Y2.333
G1 X76.895Y2.238
G1 X77.275Y2.143
G1 X77.561Y2.048
G1 X77.752Y1.857
G1 X77.847Y1.667
G1 Y1.381
G1 X77.752Y1.19
G1 X77.656Y1.095
G1 X77.371Y1
G1 X76.99
G1 X76.704Y1.095
G1 X76.609Y1.19
G1 X76.514Y1.381
G1 Y1.667
G1 X76.609Y1.857
G1 X76.799Y2.048
G1 X77.085Y2.143
G1 X77.466Y2.238
G1 X77.656Y2.333
G1 X77.752Y2.524
G1 Y2.714
G1 X77.656Y2.905
G1 X77.371Y3
G1 X76.99
G0 X78.75Y3
G1 X78.464Y2.905
G1 X78.274Y2.619
G1 X78.178Y2.143
G1 Y1.857
G1 X78.274Y1.381
G1 X78.464Y1.095
G1 X78.75Y1
G1 X78.94
G1 X79.226Y1.095
G1 X79.416Y1.381
G1 X79.512Y1.857
G1 Y2.143
G1 X79.416Y2.619
G1 X79.226Y2.905
G1 X78.94Y3
G1 X78.75
G0 X86.609Y1.286
G1 X86.704Y1.095
G1 X86.99Y1
G1 X87.18
G1 X87.466Y1.095
G1 X87.656Y1.381
G1 X87.752Y1.857
G1 Y2.333
G1 X87.656Y2.714
G1 X87.466Y2.905
G1 X87.18Y3
G1 X87.085
G1 X86.799Y2.905
G1 X86.609Y2.714
G1 X86.514Y2.429
G1 Y2.333
G1 X86.609Y2.048
G1 X86.799Y1.857
G1 X87.085Y1.762
G1 X87.18
G1 X87.466Y1.857
G1 X87.656Y2.048
G1 X87.752Y2.333
G0 X88.75Y3
G1 X88.464Y2.905
G1 X88.274Y2.619
G1 X88.178Y2.143
G1 Y1.857
G1 X88.274Y1.381
G1 X88.464Y1.095
G1 X88.75Y1
G1 X88.94
G1 X89.226Y1.095
G1 X89.416Y1.381
G1 X89.512Y1.857
G1 Y2.143
G1 X89.416Y2.619
G1 X89.226Y2.905
G1 X88.94Y3
G1 X88.75
G0 X94.824Y2.619
G1 X95.014Y2.714
G1 X95.3Y3
G1 Y1
G0 X96.774Y3
G1 X96.489Y2.905
G1 X96.298Y2.619
G1 X96.203Y2.143
G1 Y1.857
G1 X96.298Y1.381
G1 X96.489Y1.095
G1 X96.774Y1
G1 X96.965
G1 X97.251Y1.095
G1 X97.441Y1.381
G1 X97.536Y1.857
G1 Y2.143
G1 X97.441Y2.619
G1 X97.251Y2.905
G1 X96.965Y3
G1 X96.774
G0 X98.439Y3
G1 X98.154Y2.905
G1 X97.963Y2.619
G1 X97.868Y2.143
G1 Y1.857
G1 X97.963Y1.381
G1 X98.154Y1.095
G1 X98.439Y1
G1 X98.63
G1 X98.915Y1.095
G1 X99.106Y1.381
G1 X99.201Y1.857
G1 Y2.143
G1 X99.106Y2.619
G1 X98.915Y2.905
G1 X98.63Y3
G1 X98.439
G0 X104.823Y2.619
G1 X105.014Y2.714
G1 X105.299Y3
G1 Y1
G0 X106.964Y1
G1 Y3
G1 X106.679Y2.714
G1 X106.488Y2.619
G0 X108.439Y3
G1 X108.153Y2.905
G1 X107.962Y2.619
G1 X107.867Y2.143
G1 Y1.857
G1 X107.962Y1.381
G1 X108.153Y1.095
G1 X108.439Y1
G1 X108.629
G1 X108.915Y1.095
G1 X109.105Y1.381
G1 X109.2Y1.857
G1 Y2.143
G1 X109.105Y2.619
G1 X108.915Y2.905
G1 X108.629Y3
G1 X108.439
G0 X114.823Y2.619
G1 X115.014Y2.714
G1 X115.299Y3
G1 Y1
G0 X117.536Y1
G1 X116.202
G1 X117.155Y1.952
G1 X117.345Y2.238
G1 X117.44Y2.429
G1 Y2.619
G1 X117.345Y2.81
G1 X117.25Y2.905
G1 X117.059Y3
G1 X116.679
G1 X116.488Y2.905
G1 X116.393Y2.81
G1 X116.298Y2.619
G1 Y2.524
G0 X118.439Y3
G1 X118.153Y2.905
G1 X117.962Y2.619
G1 X117.867Y2.143
G1 Y1.857
G1 X117.962Y1.381
G1 X118.153Y1.095
G1 X118.439Y1
G1 X118.629
G1 X118.915Y1.095
G1 X119.105Y1.381
G1 X119.2Y1.857
G1 Y2.143
G1 X119.105Y2.619
G1 X118.915Y2.905
G1 X118.629Y3
G1 X118.439
G0 X134.823Y2.619
G1 X135.014Y2.714
G1 X135.299Y3
G1 Y1
G0 X137.155Y1
G1 Y3
G0 X137.155Y3
G1 X136.202Y1.667
G1 X137.631
G0 X138.439Y3
G1 X138.153Y2.905
G1 X137.962Y2.619
G1 X137.867Y2.143
G1 Y1.857
G1 X137.962Y1.381
G1 X138.153Y1.095
G1 X138.439Y1
G1 X138.629
G1 X138.915Y1.095
G1 X139.105Y1.381
G1 X139.2Y1.857
G1 Y2.143
G1 X139.105Y2.619
G1 X138.915Y2.905
G1 X138.629Y3
G1 X138.439
G0 X144.823Y2.619
G1 X145.014Y2.714
G1 X145.299Y3
G1 Y1
G0 X146.202Y1.381
G1 X146.298Y1.19
G1 X146.393Y1.095
G1 X146.679Y1
G1 X146.964
G1 X147.25Y1.095
G1 X147.44Y1.286
G1 X147.536Y1.571
G1 Y1.762
G1 X147.44Y2.048
G1 X147.25Y2.238
G1 X146.964Y2.333
G1 X146.679
G1 X146.393Y2.238
G1 X146.298Y2.143
G1 X146.393Y3
G1 X147.345
G0 X148.439Y3
G1 X148.153Y2.905
G1 X147.962Y2.619
G1 X147.867Y2.143
G1 Y1.857
G1 X147.962Y1.381
G1 X148.153Y1.095
G1 X148.439Y1
G1 X148.629
G1 X148.915Y1.095
G1 X149.105Y1.381
G1 X149.2Y1.857
G1 Y2.143
G1 X149.105Y2.619
G1 X148.915Y2.905
G1 X148.629Y3
G1 X148.439
G0 X154.823Y2.619
G1 X155.014Y2.714
G1 X155.299Y3
G1 Y1
G0 X156.298Y1.667
G1 X156.393Y1.952
G1 X156.583Y2.143
G1 X156.869Y2.238
G1 X156.964
G1 X157.25Y2.143
G1 X157.44Y1.952
G1 X157.536Y1.667
G1 Y1.571
G1 X157.44Y1.286
G1 X157.25Y1.095
G1 X156.964Y1
G1 X156.869
G1 X156.583Y1.095
G1 X156.393Y1.286
G1 X156.298Y1.667
G1 Y2.143
G1 X156.393Y2.619
G1 X156.583Y2.905
G1 X156.869Y3
G1 X157.059
G1 X157.345Y2.905
G1 X157.44Y2.714
G0 X158.439Y3
G1 X158.153Y2.905
G1 X157.962Y2.619
G1 X157.867Y2.143
G1 Y1.857
G1 X157.962Y1.381
G1 X158.153Y1.095
G1 X158.439Y1
G1 X158.629
G1 X158.915Y1.095
G1 X159.105Y1.381
G1 X159.2Y1.857
G1 Y2.143
G1 X159.105Y2.619
G1 X158.915Y2.905
G1 X158.629Y3
G1 X158.439
G0 X164.823Y2.619
G1 X165.014Y2.714
G1 X165.299Y3
G1 Y1
G0 X166.583Y1
G1 X167.536Y3
G0 X167.536Y3
G1 X166.202
G0 X168.439Y3
G1 X168.153Y2.905
G1 X167.962Y2.619
G1 X167.867Y2.143
G1 Y1.857
G1 X167.962Y1.381
G1 X168.153Y1.095
G1 X168.439Y1
G1 X168.629
G1 X168.915Y1.095
G1 X169.105Y1.381
G1 X169.2Y1.857
G1 Y2.143
G1 X169.105Y2.619
G1 X168.915Y2.905
G1 X168.629Y3
G1 X168.439
G0 X174.823Y2.619
G1 X175.014Y2.714
G1 X175.299Y3
G1 Y1
G0 X176.679Y3
G1 X176.393Y2.905
G1 X176.298Y2.714
G1 Y2.524
G1 X176.393Y2.333
G1 X176.583Y2.238
G1 X176.964Y2.143
G1 X177.25Y2.048
G1 X177.44Y1.857
G1 X177.536Y1.667
G1 Y1.381
G1 X177.44Y1.19
G1 X177.345Y1.095
G1 X177.059Y1
G1 X176.679
G1 X176.393Y1.095
G1 X176.298Y1.19
G1 X176.202Y1.381
G1 Y1.667
G1 X176.298Y1.857
G1 X176.488Y2.048
G1 X176.774Y2.143
G1 X177.155Y2.238
G1 X177.345Y2.333
G1 X177.44Y2.524
G1 Y2.714
G1 X177.345Y2.905
G1 X177.059Y3
G1 X176.679
G0 X178.439Y3
G1 X178.153Y2.905
G1 X177.962Y2.619
G1 X177.867Y2.143
G1 Y1.857
G1 X177.962Y1.381
G1 X178.153Y1.095
G1 X178.439Y1
G1 X178.629
G1 X178.915Y1.095
G1 X179.105Y1.381
G1 X179.2Y1.857
G1 Y2.143
G1 X179.105Y2.619
G1 X178.915Y2.905
G1 X178.629Y3
G1 X178.439
G0 X184.823Y2.619
G1 X185.014Y2.714
G1 X185.299Y3
G1 Y1
G0 X186.298Y1.286
G1 X186.393Y1.095
G1 X186.679Y1
G1 X186.869
G1 X187.155Y1.095
G1 X187.345Y1.381
G1 X187.44Y1.857
G1 Y2.333
G1 X187.345Y2.714
G1 X187.155Y2.905
G1 X186.869Y3
G1 X186.774
G1 X186.488Y2.905
G1 X186.298Y2.714
G1 X186.202Y2.429
G1 Y2.333
G1 X186.298Y2.048
G1 X186.488Y1.857
G1 X186.774Y1.762
G1 X186.869
G1 X187.155Y1.857
G1 X187.345Y2.048
G1 X187.44Y2.333
G0 X188.439Y3
G1 X188.153Y2.905
G1 X187.962Y2.619
G1 X187.867Y2.143
G1 Y1.857
G1 X187.962Y1.381
G1 X188.153Y1.095
G1 X188.439Y1
G1 X188.629
G1 X188.915Y1.095
G1 X189.105Y1.381
G1 X189.2Y1.857
G1 Y2.143
G1 X189.105Y2.619
G1 X188.915Y2.905
G1 X188.629Y3
G1 X188.439
G0 X194.633Y2.524
G1 Y2.619
G1 X194.728Y2.81
G1 X194.823Y2.905
G1 X195.014Y3
G1 X195.395
G1 X195.585Y2.905
G1 X195.68Y2.81
G1 X195.776Y2.619
G1 Y2.429
G1 X195.68Y2.238
G1 X195.49Y1.952
G1 X194.538Y1
G1 X195.871
G0 X196.774Y3
G1 X196.488Y2.905
G1 X196.298Y2.619
G1 X196.202Y2.143
G1 Y1.857
G1 X196.298Y1.381
G1 X196.488Y1.095
G1 X196.774Y1
G1 X196.964
G1 X197.25Y1.095
G1 X197.44Y1.381
G1 X197.536Y1.857
G1 Y2.143
G1 X197.44Y2.619
G1 X197.25Y2.905
G1 X196.964Y3
G1 X196.774
G0 X198.439Y3
G1 X198.153Y2.905
G1 X197.962Y2.619
G1 X197.867Y2.143
G1 Y1.857
G1 X197.962Y1.381
G1 X198.153Y1.095
G1 X198.439Y1
G1 X198.629
G1 X198.915Y1.095
G1 X199.105Y1.381
G1 X199.2Y1.857
G1 Y2.143
G1 X199.105Y2.619
G1 X198.915Y2.905
G1 X198.629Y3
G1 X198.439
G0 X204.776Y2.524
G1 Y2.619
G1 X204.871Y2.81
G1 X204.966Y2.905
G1 X205.157Y3
G1 X205.538
G1 X205.728Y2.905
G1 X205.823Y2.81
G1 X205.919Y2.619
G1 Y2.429
G1 X205.823Y2.238
G1 X205.633Y1.952
G1 X204.681Y1
G1 X206.014
G0 X207.107Y1
G1 Y3
G1 X206.822Y2.714
G1 X206.631Y2.619
G0 X208.582Y3
G1 X208.296Y2.905
G1 X208.105Y2.619
G1 X208.01Y2.143
G1 Y1.857
G1 X208.105Y1.381
G1 X208.296Y1.095
G1 X208.582Y1
G1 X208.772
G1 X209.058Y1.095
G1 X209.248Y1.381
G1 X209.343Y1.857
G1 Y2.143
G1 X209.248Y2.619
G1 X209.058Y2.905
G1 X208.772Y3
G1 X208.582
G0 X214.776Y2.524
G1 Y2.619
G1 X214.871Y2.81
G1 X214.966Y2.905
G1 X215.157Y3
G1 X215.538
G1 X215.728Y2.905
G1 X215.823Y2.81
G1 X215.919Y2.619
G1 Y2.429
G1 X215.823Y2.238
G1 X215.633Y1.952
G1 X214.681Y1
G1 X216.014
G0 X217.679Y1
G1 X216.345
G1 X217.298Y1.952
G1 X217.488Y2.238
G1 X217.583Y2.429
G1 Y2.619
G1 X217.488Y2.81
G1 X217.393Y2.905
G1 X217.202Y3
G1 X216.822
G1 X216.631Y2.905
G1 X216.536Y2.81
G1 X216.441Y2.619
G1 Y2.524
G0 X218.582Y3
G1 X218.296Y2.905
G1 X218.105Y2.619
G1 X218.01Y2.143
G1 Y1.857
G1 X218.105Y1.381
G1 X218.296Y1.095
G1 X218.582Y1
G1 X218.772
G1 X219.058Y1.095
G1 X219.248Y1.381
G1 X219.343Y1.857
G1 Y2.143
G1 X219.248Y2.619
G1 X219.058Y2.905
G1 X218.772Y3
G1 X218.582
G0 X224.776Y2.524
G1 Y2.619
G1 X224.871Y2.81
G1 X224.966Y2.905
G1 X225.157Y3
G1 X225.538
G1 X225.728Y2.905
G1 X225.823Y2.81
G1 X225.919Y2.619
G1 Y2.429
G1 X225.823Y2.238
G1 X225.633Y1.952
G1 X224.681Y1
G1 X226.014
G0 X226.345Y1.381
G1 X226.441Y1.19
G1 X226.536Y1.095
G1 X226.822Y1
G1 X227.107
G1 X227.393Y1.095
G1 X227.583Y1.286
G1 X227.679Y1.571
G1 Y1.762
G1 X227.583Y2.048
G1 X227.488Y2.143
G1 X227.298Y2.238
G1 X227.012
G1 X227.583Y3
G1 X226.536
G0 X228.582Y3
G1 X228.296Y2.905
G1 X228.105Y2.619
G1 X228.01Y2.143
G1 Y1.857
G1 X228.105Y1.381
G1 X228.296Y1.095
G1 X228.582Y1
G1 X228.772
G1 X229.058Y1.095
G1 X229.248Y1.381
G1 X229.343Y1.857
G1 Y2.143
G1 X229.248Y2.619
G1 X229.058Y2.905
G1 X228.772Y3
G1 X228.582
G0 X234.776Y2.524
G1 Y2.619
G1 X234.871Y2.81
G1 X234.966Y2.905
G1 X235.157Y3
G1 X235.538
G1 X235.728Y2.905
G1 X235.823Y2.81
G1 X235.919Y2.619
G1 Y2.429
G1 X235.823Y2.238
G1 X235.633Y1.952
G1 X234.681Y1
G1 X236.014
G0 X237.298Y1
G1 Y3
G0 X237.298Y3
G1 X236.345Y1.667
G1 X237.774
G0 X238.582Y3
G1 X238.296Y2.905
G1 X238.105Y2.619
G1 X238.01Y2.143
G1 Y1.857
G1 X238.105Y1.381
G1 X238.296Y1.095
G1 X238.582Y1
G1 X238.772
G1 X239.058Y1.095
G1 X239.248Y1.381
G1 X239.343Y1.857
G1 Y2.143
G1 X239.248Y2.619
G1 X239.058Y2.905
G1 X238.772Y3
G1 X238.582
G0 X244.764Y2.524
G1 Y2.619
G1 X244.859Y2.81
G1 X244.954Y2.905
G1 X245.145Y3
G1 X245.526
G1 X245.716Y2.905
G1 X245.811Y2.81
G1 X245.907Y2.619
G1 Y2.429
G1 X245.811Y2.238
G1 X245.621Y1.952
G1 X244.669Y1
G1 X246.002
G0 X246.333Y1.381
G1 X246.429Y1.19
G1 X246.524Y1.095
G1 X246.81Y1
G1 X247.095
G1 X247.381Y1.095
G1 X247.571Y1.286
G1 X247.667Y1.571
G1 Y1.762
G1 X247.571Y2.048
G1 X247.381Y2.238
G1 X247.095Y2.333
G1 X246.81
G1 X246.524Y2.238
G1 X246.429Y2.143
G1 X246.524Y3
G1 X247.476
G0 X248.57Y3
G1 X248.284Y2.905
G1 X248.093Y2.619
G1 X247.998Y2.143
G1 Y1.857
G1 X248.093Y1.381
G1 X248.284Y1.095
G1 X248.57Y1
G1 X248.76
G1 X249.046Y1.095
G1 X249.236Y1.381
G1 X249.331Y1.857
G1 Y2.143
G1 X249.236Y2.619
G1 X249.046Y2.905
G1 X248.76Y3
G1 X248.57
G0 X193Y27
G1 X203
G1 Y37
G0 X204.381Y36.727
G1 X204.286Y36.918
G1 X204Y37.204
G1 X206
G0 X204Y38.678
G1 X204.095Y38.392
G1 X204.381Y38.202
G1 X204.857Y38.107
G1 X205.143
G1 X205.619Y38.202
G1 X205.905Y38.392
G1 X206Y38.678
G1 Y38.868
G1 X205.905Y39.154
G1 X205.619Y39.345
G1 X205.143Y39.44
G1 X204.857
G1 X204.381Y39.345
G1 X204.095Y39.154
G1 X204Y38.868
G1 Y38.678
G0 X202Y38
G1 Y28
G1 X192
G0 X191Y29
G1 X201
G1 Y39
G0 X204.476Y46.537
G1 X204.381
G1 X204.191Y46.632
G1 X204.095Y46.727
G1 X204Y46.918
G1 Y47.299
G1 X204.095Y47.489
G1 X204.191Y47.585
G1 X204.381Y47.68
G1 X204.571
G1 X204.762Y47.585
G1 X205.048Y47.394
G1 X206Y46.442
G1 Y47.775
G0 X204Y48.678
G1 X204.095Y48.392
G1 X204.381Y48.202
G1 X204.857Y48.107
G1 X205.143
G1 X205.619Y48.202
G1 X205.905Y48.392
G1 X206Y48.678
G1 Y48.868
G1 X205.905Y49.154
G1 X205.619Y49.345
G1 X205.143Y49.44
G1 X204.857
G1 X204.381Y49.345
G1 X204.095Y49.154
G1 X204Y48.868
G1 Y48.678
G0 X205.619Y56.585
G1 X205.81Y56.68
G1 X205.905Y56.775
G1 X206Y57.061
G1 Y57.347
G1 X205.905Y57.632
G1 X205.714Y57.823
G1 X205.429Y57.918
G1 X205.238
G1 X204.952Y57.823
G1 X204.857Y57.728
G1 X204.762Y57.537
G1 Y57.251
G1 X204Y57.823
G1 Y56.775
G0 X204Y58.821
G1 X204.095Y58.535
G1 X204.381Y58.345
G1 X204.857Y58.249
G1 X205.143
G1 X205.619Y58.345
G1 X205.905Y58.535
G1 X206Y58.821
G1 Y59.011
G1 X205.905Y59.297
G1 X205.619Y59.488
G1 X205.143Y59.583
G1 X204.857
G1 X204.381Y59.488
G1 X204.095Y59.297
G1 X204Y59.011
G1 Y58.821
G0 X204Y67.394
G1 X205.333Y66.442
G1 Y67.87
G0 X206Y67.394
G1 X204
G0 X204Y68.678
G1 X204.095Y68.392
G1 X204.381Y68.202
G1 X204.857Y68.107
G1 X205.143
G1 X205.619Y68.202
G1 X205.905Y68.392
G1 X206Y68.678
G1 Y68.868
G1 X205.905Y69.154
G1 X205.619Y69.345
G1 X205.143Y69.44
G1 X204.857
G1 X204.381Y69.345
G1 X204.095Y69.154
G1 X204Y68.868
G1 Y68.678
G0 X205.619Y76.585
G1 X205.81Y76.68
G1 X205.905Y76.775
G1 X206Y77.061
G1 Y77.347
G1 X205.905Y77.632
G1 X205.714Y77.823
G1 X205.429Y77.918
G1 X205.238
G1 X204.952Y77.823
G1 X204.762Y77.632
G1 X204.667Y77.347
G1 Y77.061
G1 X204.762Y76.775
G1 X204.857Y76.68
G1 X204Y76.775
G1 Y77.728
G0 X204Y78.821
G1 X204.095Y78.535
G1 X204.381Y78.345
G1 X204.857Y78.25
G1 X205.143
G1 X205.619Y78.345
G1 X205.905Y78.535
G1 X206Y78.821
G1 Y79.011
G1 X205.905Y79.297
G1 X205.619Y79.488
G1 X205.143Y79.583
G1 X204.857
G1 X204.381Y79.488
G1 X204.095Y79.297
G1 X204Y79.011
G1 Y78.821
G0 X205.333Y86.537
G1 X205.048Y86.632
G1 X204.857Y86.823
G1 X204.762Y87.108
G1 Y87.204
G1 X204.857Y87.489
G1 X205.048Y87.68
G1 X205.333Y87.775
G1 X205.429
G1 X205.714Y87.68
G1 X205.905Y87.489
G1 X206Y87.204
G1 Y87.108
G1 X205.905Y86.823
G1 X205.714Y86.632
G1 X205.333Y86.537
G1 X204.857
G1 X204.381Y86.632
G1 X204.095Y86.823
G1 X204Y87.108
G1 Y87.299
G1 X204.095Y87.585
G1 X204.286Y87.68
G0 X204Y88.678
G1 X204.095Y88.392
G1 X204.381Y88.202
G1 X204.857Y88.107
G1 X205.143
G1 X205.619Y88.202
G1 X205.905Y88.392
G1 X206Y88.678
G1 Y88.868
G1 X205.905Y89.154
G1 X205.619Y89.345
G1 X205.143Y89.44
G1 X204.857
G1 X204.381Y89.345
G1 X204.095Y89.154
G1 X204Y88.868
G1 Y88.678
G0 X204Y96.442
G1 Y97.775
G0 X204Y97.775
G1 X206Y96.823
G0 X204Y98.678
G1 X204.095Y98.392
G1 X204.381Y98.202
G1 X204.857Y98.107
G1 X205.143
G1 X205.619Y98.202
G1 X205.905Y98.392
G1 X206Y98.678
G1 Y98.868
G1 X205.905Y99.154
G1 X205.619Y99.345
G1 X205.143Y99.44
G1 X204.857
G1 X204.381Y99.345
G1 X204.095Y99.154
G1 X204Y98.868
G1 Y98.678
G0 X204Y107.061
G1 X204.095Y106.775
G1 X204.286Y106.68
G1 X204.476
G1 X204.667Y106.775
G1 X204.762Y106.966
G1 X204.857Y107.347
G1 X204.952Y107.633
G1 X205.143Y107.823
G1 X205.333Y107.918
G1 X205.619
G1 X205.81Y107.823
G1 X205.905Y107.728
G1 X206Y107.442
G1 Y107.061
G1 X205.905Y106.775
G1 X205.81Y106.68
G1 X205.619Y106.585
G1 X205.333
G1 X205.143Y106.68
G1 X204.952Y106.871
G1 X204.857Y107.156
G1 X204.762Y107.537
G1 X204.667Y107.728
G1 X204.476Y107.823
G1 X204.286
G1 X204.095Y107.728
G1 X204Y107.442
G1 Y107.061
G0 X204Y108.821
G1 X204.095Y108.535
G1 X204.381Y108.345
G1 X204.857Y108.25
G1 X205.143
G1 X205.619Y108.345
G1 X205.905Y108.535
G1 X206Y108.821
G1 Y109.012
G1 X205.905Y109.297
G1 X205.619Y109.488
G1 X205.143Y109.583
G1 X204.857
G1 X204.381Y109.488
G1 X204.095Y109.297
G1 X204Y109.012
G1 Y108.821
G0 X205.714Y116.679
G1 X205.905Y116.774
G1 X206Y117.06
G1 Y117.251
G1 X205.905Y117.536
G1 X205.619Y117.727
G1 X205.143Y117.822
G1 X204.667
G1 X204.286Y117.727
G1 X204.095Y117.536
G1 X204Y117.251
G1 Y117.155
G1 X204.095Y116.87
G1 X204.286Y116.679
G1 X204.571Y116.584
G1 X204.667
G1 X204.952Y116.679
G1 X205.143Y116.87
G1 X205.238Y117.155
G1 Y117.251
G1 X205.143Y117.536
G1 X204.952Y117.727
G1 X204.667Y117.822
G0 X204Y118.82
G1 X204.095Y118.534
G1 X204.381Y118.344
G1 X204.857Y118.249
G1 X205.143
G1 X205.619Y118.344
G1 X205.905Y118.534
G1 X206Y118.82
G1 Y119.011
G1 X205.905Y119.296
G1 X205.619Y119.487
G1 X205.143Y119.582
G1 X204.857
G1 X204.381Y119.487
G1 X204.095Y119.296
G1 X204Y119.011
G1 Y118.82
G0 X201Y121
G1 Y131
G0 X201Y131
G1 X191
G0 X192Y132
G1 X202
G1 Y122
G0 X203Y123
G1 Y133
G1 X193
G0 X204Y128.511
G1 X204.095Y128.225
G1 X204.381Y128.034
G1 X204.857Y127.939
G1 X205.143
G1 X205.619Y128.034
G1 X205.905Y128.225
G1 X206Y128.511
G1 Y128.701
G1 X205.905Y128.987
G1 X205.619Y129.177
G1 X205.143Y129.272
G1 X204.857
G1 X204.381Y129.177
G1 X204.095Y128.987
G1 X204Y128.701
G1 Y128.511
G0 X204Y126.846
G1 X204.095Y126.56
G1 X204.381Y126.37
G1 X204.857Y126.274
G1 X205.143
G1 X205.619Y126.37
G1 X205.905Y126.56
G1 X206Y126.846
G1 Y127.036
G1 X205.905Y127.322
G1 X205.619Y127.512
G1 X205.143Y127.608
G1 X204.857
G1 X204.381Y127.512
G1 X204.095Y127.322
G1 X204Y127.036
G1 Y126.846
G0 X204.381Y124.895
G1 X204.286Y125.086
G1 X204Y125.371
G1 X206
G0 X227Y127.654
G1 X227.095Y127.368
G1 X227.381Y127.177
G1 X227.857Y127.082
G1 X228.143
G1 X228.619Y127.177
G1 X228.905Y127.368
G1 X229Y127.654
G1 Y127.844
G1 X228.905Y128.13
G1 X228.619Y128.32
G1 X228.143Y128.415
G1 X227.857
G1 X227.381Y128.32
G1 X227.095Y128.13
G1 X227Y127.844
G1 Y127.654
G0 X227.381Y125.703
G1 X227.286Y125.894
G1 X227Y126.179
G1 X229
G0 X229Y124.514
G1 X227
G1 X227.286Y124.229
G1 X227.381Y124.038
G0 X227Y117.654
G1 X227.095Y117.368
G1 X227.381Y117.177
G1 X227.857Y117.082
G1 X228.143
G1 X228.619Y117.177
G1 X228.905Y117.368
G1 X229Y117.654
G1 Y117.844
G1 X228.905Y118.13
G1 X228.619Y118.32
G1 X228.143Y118.415
G1 X227.857
G1 X227.381Y118.32
G1 X227.095Y118.13
G1 X227Y117.844
G1 Y117.654
G0 X227Y115.989
G1 X227.095Y115.703
G1 X227.381Y115.513
G1 X227.857Y115.417
G1 X228.143
G1 X228.619Y115.513
G1 X228.905Y115.703
G1 X229Y115.989
G1 Y116.179
G1 X228.905Y116.465
G1 X228.619Y116.655
G1 X228.143Y116.751
G1 X227.857
G1 X227.381Y116.655
G1 X227.095Y116.465
G1 X227Y116.179
G1 Y115.989
G0 X227.381Y114.038
G1 X227.286Y114.229
G1 X227Y114.514
G1 X229
G0 X227Y107.964
G1 X227.095Y107.678
G1 X227.381Y107.488
G1 X227.857Y107.393
G1 X228.143
G1 X228.619Y107.488
G1 X228.905Y107.678
G1 X229Y107.964
G1 Y108.155
G1 X228.905Y108.44
G1 X228.619Y108.631
G1 X228.143Y108.726
G1 X227.857
G1 X227.381Y108.631
G1 X227.095Y108.44
G1 X227Y108.155
G1 Y107.964
G0 X227.667Y106.966
G1 X227.952Y106.871
G1 X228.143Y106.68
G1 X228.238Y106.395
G1 Y106.299
G1 X228.143Y106.014
G1 X227.952Y105.823
G1 X227.667Y105.728
G1 X227.571
G1 X227.286Y105.823
G1 X227.095Y106.014
G1 X227Y106.299
G1 Y106.395
G1 X227.095Y106.68
G1 X227.286Y106.871
G1 X227.667Y106.966
G1 X228.143
G1 X228.619Y106.871
G1 X228.905Y106.68
G1 X229Y106.395
G1 Y106.204
G1 X228.905Y105.918
G1 X228.714Y105.823
G0 X227Y97.964
G1 X227.095Y97.678
G1 X227.381Y97.488
G1 X227.857Y97.392
G1 X228.143
G1 X228.619Y97.488
G1 X228.905Y97.678
G1 X229Y97.964
G1 Y98.154
G1 X228.905Y98.44
G1 X228.619Y98.63
G1 X228.143Y98.726
G1 X227.857
G1 X227.381Y98.63
G1 X227.095Y98.44
G1 X227Y98.154
G1 Y97.964
G0 X227Y96.204
G1 X227.095Y95.918
G1 X227.286Y95.823
G1 X227.476
G1 X227.667Y95.918
G1 X227.762Y96.109
G1 X227.857Y96.489
G1 X227.952Y96.775
G1 X228.143Y96.966
G1 X228.333Y97.061
G1 X228.619
G1 X228.81Y96.966
G1 X228.905Y96.87
G1 X229Y96.585
G1 Y96.204
G1 X228.905Y95.918
G1 X228.81Y95.823
G1 X228.619Y95.728
G1 X228.333
G1 X228.143Y95.823
G1 X227.952Y96.013
G1 X227.857Y96.299
G1 X227.762Y96.68
G1 X227.667Y96.87
G1 X227.476Y96.966
G1 X227.286
G1 X227.095Y96.87
G1 X227Y96.585
G1 Y96.204
G0 X227Y87.821
G1 X227.095Y87.535
G1 X227.381Y87.345
G1 X227.857Y87.249
G1 X228.143
G1 X228.619Y87.345
G1 X228.905Y87.535
G1 X229Y87.821
G1 Y88.011
G1 X228.905Y88.297
G1 X228.619Y88.488
G1 X228.143Y88.583
G1 X227.857
G1 X227.381Y88.488
G1 X227.095Y88.297
G1 X227Y88.011
G1 Y87.821
G0 X227Y86.918
G1 X229Y85.966
G0 X227Y85.585
G1 Y86.918
G0 X227Y77.821
G1 X227.095Y77.535
G1 X227.381Y77.345
G1 X227.857Y77.249
G1 X228.143
G1 X228.619Y77.345
G1 X228.905Y77.535
G1 X229Y77.821
G1 Y78.011
G1 X228.905Y78.297
G1 X228.619Y78.488
G1 X228.143Y78.583
G1 X227.857
G1 X227.381Y78.488
G1 X227.095Y78.297
G1 X227Y78.011
G1 Y77.821
G0 X227.286Y76.823
G1 X227.095Y76.728
G1 X227Y76.442
G1 Y76.251
G1 X227.095Y75.966
G1 X227.381Y75.775
G1 X227.857Y75.68
G1 X228.333
G1 X228.714Y75.775
G1 X228.905Y75.966
G1 X229Y76.251
G1 Y76.347
G1 X228.905Y76.632
G1 X228.714Y76.823
G1 X228.429Y76.918
G1 X228.333
G1 X228.048Y76.823
G1 X227.857Y76.632
G1 X227.762Y76.347
G1 Y76.251
G1 X227.857Y75.966
G1 X228.048Y75.775
G1 X228.333Y75.68
G0 X227Y67.964
G1 X227.095Y67.678
G1 X227.381Y67.488
G1 X227.857Y67.392
G1 X228.143
G1 X228.619Y67.488
G1 X228.905Y67.678
G1 X229Y67.964
G1 Y68.154
G1 X228.905Y68.44
G1 X228.619Y68.631
G1 X228.143Y68.726
G1 X227.857
G1 X227.381Y68.631
G1 X227.095Y68.44
G1 X227Y68.154
G1 Y67.964
G0 X227Y66.871
G1 Y65.918
G1 X227.857Y65.823
G1 X227.762Y65.918
G1 X227.667Y66.204
G1 Y66.49
G1 X227.762Y66.775
G1 X227.952Y66.966
G1 X228.238Y67.061
G1 X228.429
G1 X228.714Y66.966
G1 X228.905Y66.775
G1 X229Y66.49
G1 Y66.204
G1 X228.905Y65.918
G1 X228.81Y65.823
G1 X228.619Y65.728
G0 X227Y57.821
G1 X227.095Y57.535
G1 X227.381Y57.345
G1 X227.857Y57.249
G1 X228.143
G1 X228.619Y57.345
G1 X228.905Y57.535
G1 X229Y57.821
G1 Y58.011
G1 X228.905Y58.297
G1 X228.619Y58.488
G1 X228.143Y58.583
G1 X227.857
G1 X227.381Y58.488
G1 X227.095Y58.297
G1 X227Y58.011
G1 Y57.821
G0 X228.333Y57.013
G1 Y55.585
G1 X227Y56.537
G0 X227Y56.537
G1 X229
G0 X227Y47.964
G1 X227.095Y47.678
G1 X227.381Y47.488
G1 X227.857Y47.392
G1 X228.143
G1 X228.619Y47.488
G1 X228.905Y47.678
G1 X229Y47.964
G1 Y48.154
G1 X228.905Y48.44
G1 X228.619Y48.63
G1 X228.143Y48.726
G1 X227.857
G1 X227.381Y48.63
G1 X227.095Y48.44
G1 X227Y48.154
G1 Y47.964
G0 X227Y45.918
G1 Y46.966
G1 X227.762Y46.394
G1 Y46.68
G1 X227.857Y46.87
G1 X227.952Y46.966
G1 X228.238Y47.061
G1 X228.429
G1 X228.714Y46.966
G1 X228.905Y46.775
G1 X229Y46.489
G1 Y46.204
G1 X228.905Y45.918
G1 X228.81Y45.823
G1 X228.619Y45.728
G0 X227Y37.821
G1 X227.095Y37.535
G1 X227.381Y37.345
G1 X227.857Y37.249
G1 X228.143
G1 X228.619Y37.345
G1 X228.905Y37.535
G1 X229Y37.821
G1 Y38.011
G1 X228.905Y38.297
G1 X228.619Y38.488
G1 X228.143Y38.583
G1 X227.857
G1 X227.381Y38.488
G1 X227.095Y38.297
G1 X227Y38.011
G1 Y37.821
G0 X229Y36.918
G1 Y35.585
G1 X228.048Y36.537
G1 X227.762Y36.728
G1 X227.571Y36.823
G1 X227.381
G1 X227.191Y36.728
G1 X227.095Y36.632
G1 X227Y36.442
G1 Y36.061
G1 X227.095Y35.87
G1 X227.191Y35.775
G1 X227.381Y35.68
G1 X227.476
G0 X224Y29
G1 Y19
G0 X224Y19
G1 X214
G0 X215Y18
G1 X225
G1 Y28
G0 X226Y27
G1 Y17
G1 X216
G0 X227.381Y134.038
G1 X227.286Y134.229
G1 X227Y134.514
G1 X229
G0 X227.476Y135.513
G1 X227.381
G1 X227.191Y135.608
G1 X227.095Y135.703
G1 X227Y135.894
G1 Y136.274
G1 X227.095Y136.465
G1 X227.191Y136.56
G1 X227.381Y136.655
G1 X227.571
G1 X227.762Y136.56
G1 X228.048Y136.37
G1 X229Y135.417
G1 Y136.751
G0 X227Y137.654
G1 X227.095Y137.368
G1 X227.381Y137.177
G1 X227.857Y137.082
G1 X228.143
G1 X228.619Y137.177
G1 X228.905Y137.368
G1 X229Y137.654
G1 Y137.844
G1 X228.905Y138.13
G1 X228.619Y138.32
G1 X228.143Y138.415
G1 X227.857
G1 X227.381Y138.32
G1 X227.095Y138.13
G1 X227Y137.844
G1 Y137.654
G0 X227.381Y144.038
G1 X227.286Y144.229
G1 X227Y144.514
G1 X229
G0 X228.619Y145.417
G1 X228.81Y145.513
G1 X228.905Y145.608
G1 X229Y145.894
G1 Y146.179
G1 X228.905Y146.465
G1 X228.714Y146.655
G1 X228.429Y146.751
G1 X228.238
G1 X227.952Y146.655
G1 X227.857Y146.56
G1 X227.762Y146.37
G1 Y146.084
G1 X227Y146.655
G1 Y145.608
G0 X227Y147.654
G1 X227.095Y147.368
G1 X227.381Y147.177
G1 X227.857Y147.082
G1 X228.143
G1 X228.619Y147.177
G1 X228.905Y147.368
G1 X229Y147.654
G1 Y147.844
G1 X228.905Y148.13
G1 X228.619Y148.32
G1 X228.143Y148.415
G1 X227.857
G1 X227.381Y148.32
G1 X227.095Y148.13
G1 X227Y147.844
G1 Y147.654
G0 X227.381Y154.038
G1 X227.286Y154.229
G1 X227Y154.514
G1 X229
G0 X229Y156.37
G1 X227
G0 X227Y156.37
G1 X228.333Y155.417
G1 Y156.846
G0 X227Y157.654
G1 X227.095Y157.368
G1 X227.381Y157.177
G1 X227.857Y157.082
G1 X228.143
G1 X228.619Y157.177
G1 X228.905Y157.368
G1 X229Y157.654
G1 Y157.844
G1 X228.905Y158.13
G1 X228.619Y158.32
G1 X228.143Y158.415
G1 X227.857
G1 X227.381Y158.32
G1 X227.095Y158.13
G1 X227Y157.844
G1 Y157.654
G0 X224Y163
G1 Y173
G0 X224Y173
G1 X214
G0 X215Y174
G1 X225
G1 Y164
G0 X226Y165
G1 Y175
G1 X216
G0 X247Y167.511
G1 X247.095Y167.225
G1 X247.381Y167.034
G1 X247.857Y166.939
G1 X248.143
G1 X248.619Y167.034
G1 X248.905Y167.225
G1 X249Y167.511
G1 Y167.701
G1 X248.905Y167.987
G1 X248.619Y168.177
G1 X248.143Y168.272
G1 X247.857
G1 X247.381Y168.177
G1 X247.095Y167.987
G1 X247Y167.701
G1 Y167.511
G0 X247Y166.608
G1 X249Y165.655
G0 X249Y164.371
G1 X247
G1 X247.286Y164.086
G1 X247.381Y163.895
G0 X247Y165.274
G1 Y166.608
G0 X247Y157.511
G1 X247.095Y157.225
G1 X247.381Y157.034
G1 X247.857Y156.939
G1 X248.143
G1 X248.619Y157.034
G1 X248.905Y157.225
G1 X249Y157.511
G1 Y157.701
G1 X248.905Y157.987
G1 X248.619Y158.177
G1 X248.143Y158.272
G1 X247.857
G1 X247.381Y158.177
G1 X247.095Y157.987
G1 X247Y157.701
G1 Y157.511
G0 X247.286Y156.512
G1 X247.095Y156.417
G1 X247Y156.131
G1 Y155.941
G1 X247.095Y155.655
G1 X247.381Y155.465
G1 X247.857Y155.37
G1 X248.333
G1 X248.714Y155.465
G1 X248.905Y155.655
G1 X249Y155.941
G1 Y156.036
G1 X248.905Y156.322
G1 X248.714Y156.512
G1 X248.429Y156.608
G1 X248.333
G1 X248.048Y156.512
G1 X247.857Y156.322
G1 X247.762Y156.036
G1 Y155.941
G1 X247.857Y155.655
G1 X248.048Y155.465
G1 X248.333Y155.37
G0 X249Y154.371
G1 X247
G1 X247.286Y154.086
G1 X247.381Y153.895
G0 X247Y147.511
G1 X247.095Y147.225
G1 X247.381Y147.034
G1 X247.857Y146.939
G1 X248.143
G1 X248.619Y147.034
G1 X248.905Y147.225
G1 X249Y147.511
G1 Y147.701
G1 X248.905Y147.987
G1 X248.619Y148.177
G1 X248.143Y148.272
G1 X247.857
G1 X247.381Y148.177
G1 X247.095Y147.987
G1 X247Y147.701
G1 Y147.511
G0 X247Y146.417
G1 Y145.465
G1 X247.857Y145.37
G1 X247.762Y145.465
G1 X247.667Y145.751
G1 Y146.036
G1 X247.762Y146.322
G1 X247.952Y146.512
G1 X248.238Y146.608
G1 X248.429
G1 X248.714Y146.512
G1 X248.905Y146.322
G1 X249Y146.036
G1 Y145.751
G1 X248.905Y145.465
G1 X248.81Y145.37
G1 X248.619Y145.274
G0 X249Y144.371
G1 X247
G1 X247.286Y144.086
G1 X247.381Y143.895
G0 X247Y137.511
G1 X247.095Y137.225
G1 X247.381Y137.034
G1 X247.857Y136.939
G1 X248.143
G1 X248.619Y137.034
G1 X248.905Y137.225
G1 X249Y137.511
G1 Y137.701
G1 X248.905Y137.987
G1 X248.619Y138.177
G1 X248.143Y138.272
G1 X247.857
G1 X247.381Y138.177
G1 X247.095Y137.987
G1 X247Y137.701
G1 Y137.511
G0 X248.333Y136.703
G1 Y135.274
G1 X247Y136.227
G0 X247Y136.227
G1 X249
G0 X249Y134.371
G1 X247
G1 X247.286Y134.086
G1 X247.381Y133.895
G0 X247Y127.511
G1 X247.095Y127.225
G1 X247.381Y127.034
G1 X247.857Y126.939
G1 X248.143
G1 X248.619Y127.034
G1 X248.905Y127.225
G1 X249Y127.511
G1 Y127.701
G1 X248.905Y127.987
G1 X248.619Y128.177
G1 X248.143Y128.272
G1 X247.857
G1 X247.381Y128.177
G1 X247.095Y127.987
G1 X247Y127.701
G1 Y127.511
G0 X247Y125.465
G1 Y126.512
G1 X247.762Y125.941
G1 Y126.227
G1 X247.857Y126.417
G1 X247.952Y126.512
G1 X248.238Y126.608
G1 X248.429
G1 X248.714Y126.512
G1 X248.905Y126.322
G1 X249Y126.036
G1 Y125.751
G1 X248.905Y125.465
G1 X248.81Y125.37
G1 X248.619Y125.274
G0 X249Y124.371
G1 X247
G1 X247.286Y124.086
G1 X247.381Y123.895
G0 X247Y117.511
G1 X247.095Y117.225
G1 X247.381Y117.034
G1 X247.857Y116.939
G1 X248.143
G1 X248.619Y117.034
G1 X248.905Y117.225
G1 X249Y117.511
G1 Y117.701
G1 X248.905Y117.987
G1 X248.619Y118.177
G1 X248.143Y118.272
G1 X247.857
G1 X247.381Y118.177
G1 X247.095Y117.987
G1 X247Y117.701
G1 Y117.511
G0 X249Y116.608
G1 Y115.274
G1 X248.048Y116.227
G1 X247.762Y116.417
G1 X247.571Y116.512
G1 X247.381
G1 X247.191Y116.417
G1 X247.095Y116.322
G1 X247Y116.131
G1 Y115.751
G1 X247.095Y115.56
G1 X247.191Y115.465
G1 X247.381Y115.37
G1 X247.476
G0 X249Y114.371
G1 X247
G1 X247.286Y114.086
G1 X247.381Y113.895
G0 X247Y107.511
G1 X247.095Y107.225
G1 X247.381Y107.034
G1 X247.857Y106.939
G1 X248.143
G1 X248.619Y107.034
G1 X248.905Y107.225
G1 X249Y107.511
G1 Y107.701
G1 X248.905Y107.987
G1 X248.619Y108.177
G1 X248.143Y108.272
G1 X247.857
G1 X247.381Y108.177
G1 X247.095Y107.987
G1 X247Y107.701
G1 Y107.511
G0 X247.381Y105.56
G1 X247.286Y105.751
G1 X247Y106.036
G1 X249
G0 X249Y104.371
G1 X247
G1 X247.286Y104.086
G1 X247.381Y103.895
G0 X247Y97.51
G1 X247.095Y97.225
G1 X247.381Y97.034
G1 X247.857Y96.939
G1 X248.143
G1 X248.619Y97.034
G1 X248.905Y97.225
G1 X249Y97.51
G1 Y97.701
G1 X248.905Y97.987
G1 X248.619Y98.177
G1 X248.143Y98.272
G1 X247.857
G1 X247.381Y98.177
G1 X247.095Y97.987
G1 X247Y97.701
G1 Y97.51
G0 X247Y95.846
G1 X247.095Y95.56
G1 X247.381Y95.369
G1 X247.857Y95.274
G1 X248.143
G1 X248.619Y95.369
G1 X248.905Y95.56
G1 X249Y95.846
G1 Y96.036
G1 X248.905Y96.322
G1 X248.619Y96.512
G1 X248.143Y96.608
G1 X247.857
G1 X247.381Y96.512
G1 X247.095Y96.322
G1 X247Y96.036
G1 Y95.846
G0 X247.381Y93.895
G1 X247.286Y94.086
G1 X247Y94.371
G1 X249
G0 X247Y87.821
G1 X247.095Y87.535
G1 X247.381Y87.345
G1 X247.857Y87.25
G1 X248.143
G1 X248.619Y87.345
G1 X248.905Y87.535
G1 X249Y87.821
G1 Y88.011
G1 X248.905Y88.297
G1 X248.619Y88.488
G1 X248.143Y88.583
G1 X247.857
G1 X247.381Y88.488
G1 X247.095Y88.297
G1 X247Y88.011
G1 Y87.821
G0 X247.667Y86.823
G1 X247.952Y86.728
G1 X248.143Y86.537
G1 X248.238Y86.251
G1 Y86.156
G1 X248.143Y85.87
G1 X247.952Y85.68
G1 X247.667Y85.585
G1 X247.571
G1 X247.286Y85.68
G1 X247.095Y85.87
G1 X247Y86.156
G1 Y86.251
G1 X247.095Y86.537
G1 X247.286Y86.728
G1 X247.667Y86.823
G1 X248.143
G1 X248.619Y86.728
G1 X248.905Y86.537
G1 X249Y86.251
G1 Y86.061
G1 X248.905Y85.775
G1 X248.714Y85.68
G0 X247Y77.821
G1 X247.095Y77.535
G1 X247.381Y77.345
G1 X247.857Y77.25
G1 X248.143
G1 X248.619Y77.345
G1 X248.905Y77.535
G1 X249Y77.821
G1 Y78.011
G1 X248.905Y78.297
G1 X248.619Y78.488
G1 X248.143Y78.583
G1 X247.857
G1 X247.381Y78.488
G1 X247.095Y78.297
G1 X247Y78.011
G1 Y77.821
G0 X247Y76.061
G1 X247.095Y75.775
G1 X247.286Y75.68
G1 X247.476
G1 X247.667Y75.775
G1 X247.762Y75.966
G1 X247.857Y76.347
G1 X247.952Y76.632
G1 X248.143Y76.823
G1 X248.333Y76.918
G1 X248.619
G1 X248.81Y76.823
G1 X248.905Y76.728
G1 X249Y76.442
G1 Y76.061
G1 X248.905Y75.775
G1 X248.81Y75.68
G1 X248.619Y75.585
G1 X248.333
G1 X248.143Y75.68
G1 X247.952Y75.87
G1 X247.857Y76.156
G1 X247.762Y76.537
G1 X247.667Y76.728
G1 X247.476Y76.823
G1 X247.286
G1 X247.095Y76.728
G1 X247Y76.442
G1 Y76.061
G0 X247Y67.678
G1 X247.095Y67.392
G1 X247.381Y67.202
G1 X247.857Y67.107
G1 X248.143
G1 X248.619Y67.202
G1 X248.905Y67.392
G1 X249Y67.678
G1 Y67.869
G1 X248.905Y68.154
G1 X248.619Y68.345
G1 X248.143Y68.44
G1 X247.857
G1 X247.381Y68.345
G1 X247.095Y68.154
G1 X247Y67.869
G1 Y67.678
G0 X247Y66.775
G1 X249Y65.823
G0 X247Y65.442
G1 Y66.775
G0 X247Y57.678
G1 X247.095Y57.392
G1 X247.381Y57.202
G1 X247.857Y57.107
G1 X248.143
G1 X248.619Y57.202
G1 X248.905Y57.392
G1 X249Y57.678
G1 Y57.869
G1 X248.905Y58.154
G1 X248.619Y58.345
G1 X248.143Y58.44
G1 X247.857
G1 X247.381Y58.345
G1 X247.095Y58.154
G1 X247Y57.869
G1 Y57.678
G0 X247.286Y56.68
G1 X247.095Y56.585
G1 X247Y56.299
G1 Y56.109
G1 X247.095Y55.823
G1 X247.381Y55.632
G1 X247.857Y55.537
G1 X248.333
G1 X248.714Y55.632
G1 X248.905Y55.823
G1 X249Y56.109
G1 Y56.204
G1 X248.905Y56.489
G1 X248.714Y56.68
G1 X248.429Y56.775
G1 X248.333
G1 X248.048Y56.68
G1 X247.857Y56.489
G1 X247.762Y56.204
G1 Y56.109
G1 X247.857Y55.823
G1 X248.048Y55.632
G1 X248.333Y55.537
G0 X247Y47.821
G1 X247.095Y47.535
G1 X247.381Y47.345
G1 X247.857Y47.25
G1 X248.143
G1 X248.619Y47.345
G1 X248.905Y47.535
G1 X249Y47.821
G1 Y48.012
G1 X248.905Y48.297
G1 X248.619Y48.488
G1 X248.143Y48.583
G1 X247.857
G1 X247.381Y48.488
G1 X247.095Y48.297
G1 X247Y48.012
G1 Y47.821
G0 X247Y46.728
G1 Y45.775
G1 X247.857Y45.68
G1 X247.762Y45.775
G1 X247.667Y46.061
G1 Y46.347
G1 X247.762Y46.632
G1 X247.952Y46.823
G1 X248.238Y46.918
G1 X248.429
G1 X248.714Y46.823
G1 X248.905Y46.632
G1 X249Y46.347
G1 Y46.061
G1 X248.905Y45.775
G1 X248.81Y45.68
G1 X248.619Y45.585
G0 X247Y37.678
G1 X247.095Y37.392
G1 X247.381Y37.202
G1 X247.857Y37.107
G1 X248.143
G1 X248.619Y37.202
G1 X248.905Y37.392
G1 X249Y37.678
G1 Y37.869
G1 X248.905Y38.154
G1 X248.619Y38.345
G1 X248.143Y38.44
G1 X247.857
G1 X247.381Y38.345
G1 X247.095Y38.154
G1 X247Y37.869
G1 Y37.678
G0 X248.333Y36.87
G1 Y35.442
G1 X247Y36.394
G0 X247Y36.394
G1 X249
G0 X247Y27.821
G1 X247.095Y27.535
G1 X247.381Y27.345
G1 X247.857Y27.25
G1 X248.143
G1 X248.619Y27.345
G1 X248.905Y27.535
G1 X249Y27.821
G1 Y28.011
G1 X248.905Y28.297
G1 X248.619Y28.488
G1 X248.143Y28.583
G1 X247.857
G1 X247.381Y28.488
G1 X247.095Y28.297
G1 X247Y28.011
G1 Y27.821
G0 X247Y25.775
G1 Y26.823
G1 X247.762Y26.251
G1 Y26.537
G1 X247.857Y26.728
G1 X247.952Y26.823
G1 X248.238Y26.918
G1 X248.429
G1 X248.714Y26.823
G1 X248.905Y26.632
G1 X249Y26.347
G1 Y26.061
G1 X248.905Y25.775
G1 X248.81Y25.68
G1 X248.619Y25.585
G0 X247Y17.678
G1 X247.095Y17.392
G1 X247.381Y17.202
G1 X247.857Y17.107
G1 X248.143
G1 X248.619Y17.202
G1 X248.905Y17.392
G1 X249Y17.678
G1 Y17.869
G1 X248.905Y18.154
G1 X248.619Y18.345
G1 X248.143Y18.44
G1 X247.857
G1 X247.381Y18.345
G1 X247.095Y18.154
G1 X247Y17.869
G1 Y17.678
G0 X249Y16.775
G1 Y15.442
G1 X248.048Y16.394
G1 X247.762Y16.585
G1 X247.571Y16.68
G1 X247.381
G1 X247.191Y16.585
G1 X247.095Y16.489
G1 X247Y16.299
G1 Y15.918
G1 X247.095Y15.728
G1 X247.191Y15.632
G1 X247.381Y15.537
G1 X247.476
G0 X247Y7.678
G1 X247.095Y7.392
G1 X247.381Y7.202
G1 X247.857Y7.107
G1 X248.143
G1 X248.619Y7.202
G1 X248.905Y7.392
G1 X249Y7.678
G1 Y7.869
G1 X248.905Y8.154
G1 X248.619Y8.345
G1 X248.143Y8.44
G1 X247.857
G1 X247.381Y8.345
G1 X247.095Y8.154
G1 X247Y7.869
G1 Y7.678
G0 X247.381Y5.728
G1 X247.286Y5.918
G1 X247Y6.204
G1 X249
; Cut @ 300 mm/min, 80% power
M8
G0 X10Y-0
; Layer lines
G1 Y178
G0 X20Y178
G1 Y-0
G0 X30Y-0
G1 Y178
G0 X40Y178
G1 Y-0
G0 X50Y-0
G1 Y178
G0 X60Y178
G1 Y-0
G0 X70Y-0
G1 Y178
G0 X80Y178
G1 Y-0
G0 X90Y-0
G1 Y178
G0 X100Y178
G1 Y-0
G0 X110Y-0
G1 Y178
G0 X120Y178
G1 Y-0
G0 X130Y-0
G1 Y178
G0 X140Y178
G1 Y-0
G0 X150Y-0
G1 Y178
G0 X160Y178
G1 Y-0
G0 X170Y-0
G1 Y178
G0 X180Y178
G1 Y-0
G0 X190Y-0
G1 Y178
G0 X200Y178
G1 Y-0
G0 X210Y-0
G1 Y178
G0 X220Y178
G1 Y-0
G0 X230Y-0
G1 Y178
G0 X240Y178
G1 Y-0
G0 X250Y10
G1 X0
G0 X0Y20
G1 X250
G0 X250Y30
G1 X0
G0 X0Y40
G1 X250
G0 X250Y50
G1 X0
G0 X0Y60
G1 X250
G0 X250Y70
G1 X0
G0 X0Y80
G1 X250
G0 X250Y90
G1 X0
G0 X0Y100
G1 X250
G0 X250Y110
G1 X0
G0 X0Y120
G1 X250
G0 X250Y130
G1 X0
G0 X0Y140
G1 X250
G0 X250Y150
G1 X0
G0 X0Y160
G1 X250
G0 X250Y170
G1 X0
M9
G1 S0
M5
G90
; return to user-defined finish pos
G0 X0 Y0
M2
