; LightBurn 1.2.01
; GRBL device profile, absolute coords
; Bounds: X21.36 Y17.58 to X219 Y141
G00 G17 G40 G21 G54
G90
M4
; Cut @ 200 mm/min, 80% power
M9
G0 X56.601Y134.6
; Layer 4x6_fix
G1 X43.399S800F200
G0 X43.399Y133.6
G1 X56.601
G0 X56.201Y132.6
G1 X43
G0 X115Y132.6
G1 X133
G0 X133Y133.6
G1 X115
G0 X115Y134.6
G1 X133
G0 X191Y134.6
G1 X212
G0 X212Y133.6
G1 X191
G0 X191Y132.6
G1 X212
G0 X205.4Y137.869
G1 Y124.131
G0 X204.4Y124.131
G1 Y137.869
G0 X203.4Y138
G1 Y124.263
G0 X202.4Y115
G1 Y141
G0 X219Y131.6
G1 X21.361
G0 X202.4Y45.768
G1 Y17.582
G0 X203.4Y22
G1 Y42
G0 X204.4Y42
G1 Y22
G0 X205.4Y22
G1 Y42
M9
G1 S0
M5
G90
; return to user-defined finish pos
G0 X0 Y0
M2
