; LightBurn 1.2.01
; GRBL device profile, absolute coords
; Bounds: X1 Y-0 to X298 Y178
G00 G17 G40 G21 G54
G90
M4
; Cut @ 200 mm/min, 80% power
M9
G0 X7.12Y1
; Layer words
G1 Y3S800F200
G1 X6.834Y2.714
G1 X6.644Y2.619
G0 X3Y6.204
G1 X1
G1 X1.286Y5.918
G1 X1.381Y5.728
G0 X8.594Y3
G1 X8.309Y2.905
G1 X8.118Y2.619
G1 X8.023Y2.143
G1 Y1.857
G1 X8.118Y1.381
G1 X8.309Y1.095
G1 X8.594Y1
G1 X8.785
G1 X9.07Y1.095
G1 X9.261Y1.381
G1 X9.356Y1.857
G1 Y2.143
G1 X9.261Y2.619
G1 X9.07Y2.905
G1 X8.785Y3
G1 X8.594
G0 X16.453Y2.524
G1 Y2.619
G1 X16.549Y2.81
G1 X16.644Y2.905
G1 X16.834Y3
G1 X17.215
G1 X17.406Y2.905
G1 X17.501Y2.81
G1 X17.596Y2.619
G1 Y2.429
G1 X17.501Y2.238
G1 X17.31Y1.952
G1 X16.358Y1
G1 X17.691
G0 X18.594Y3
G1 X18.309Y2.905
G1 X18.118Y2.619
G1 X18.023Y2.143
G1 Y1.857
G1 X18.118Y1.381
G1 X18.309Y1.095
G1 X18.594Y1
G1 X18.785
G1 X19.07Y1.095
G1 X19.261Y1.381
G1 X19.356Y1.857
G1 Y2.143
G1 X19.261Y2.619
G1 X19.07Y2.905
G1 X18.785Y3
G1 X18.594
G0 X19Y4
G1 Y20
G0 X18Y20
G1 Y4
G0 X17Y4
G1 Y20
G0 X3Y16.775
G1 Y15.442
G1 X2.048Y16.394
G1 X1.762Y16.585
G1 X1.571Y16.68
G1 X1.381
G1 X1.19Y16.585
G1 X1.095Y16.49
G1 X1Y16.299
G1 Y15.918
G1 X1.095Y15.728
G1 X1.19Y15.632
G1 X1.381Y15.537
G1 X1.476
G0 X1Y17.678
G1 X1.095Y17.392
G1 X1.381Y17.202
G1 X1.857Y17.107
G1 X2.143
G1 X2.619Y17.202
G1 X2.905Y17.392
G1 X3Y17.678
G1 Y17.869
G1 X2.905Y18.154
G1 X2.619Y18.345
G1 X2.143Y18.44
G1 X1.857
G1 X1.381Y18.345
G1 X1.095Y18.154
G1 X1Y17.869
G1 Y17.678
G0 X1Y7.678
G1 X1.095Y7.392
G1 X1.381Y7.202
G1 X1.857Y7.107
G1 X2.143
G1 X2.619Y7.202
G1 X2.905Y7.392
G1 X3Y7.678
G1 Y7.869
G1 X2.905Y8.154
G1 X2.619Y8.345
G1 X2.143Y8.44
G1 X1.857
G1 X1.381Y8.345
G1 X1.095Y8.154
G1 X1Y7.869
G1 Y7.678
G0 X26.691Y3
G1 X27.739
G1 X27.168Y2.238
G1 X27.453
G1 X27.644Y2.143
G1 X27.739Y2.048
G1 X27.834Y1.762
G1 Y1.571
G1 X27.739Y1.286
G1 X27.549Y1.095
G1 X27.263Y1
G1 X26.977
G1 X26.691Y1.095
G1 X26.596Y1.19
G1 X26.501Y1.381
G0 X28.737Y3
G1 X28.451Y2.905
G1 X28.261Y2.619
G1 X28.166Y2.143
G1 Y1.857
G1 X28.261Y1.381
G1 X28.451Y1.095
G1 X28.737Y1
G1 X28.928
G1 X29.213Y1.095
G1 X29.404Y1.381
G1 X29.499Y1.857
G1 Y2.143
G1 X29.404Y2.619
G1 X29.213Y2.905
G1 X28.928Y3
G1 X28.737
G0 X37.31Y3
G1 X36.358Y1.667
G1 X37.787
G0 X37.31Y1
G1 Y3
G0 X38.594Y3
G1 X38.309Y2.905
G1 X38.118Y2.619
G1 X38.023Y2.143
G1 Y1.857
G1 X38.118Y1.381
G1 X38.309Y1.095
G1 X38.594Y1
G1 X38.785
G1 X39.07Y1.095
G1 X39.261Y1.381
G1 X39.356Y1.857
G1 Y2.143
G1 X39.261Y2.619
G1 X39.07Y2.905
G1 X38.785Y3
G1 X38.594
G0 X46.501Y1.381
G1 X46.596Y1.19
G1 X46.691Y1.095
G1 X46.977Y1
G1 X47.263
G1 X47.549Y1.095
G1 X47.739Y1.286
G1 X47.834Y1.571
G1 Y1.762
G1 X47.739Y2.048
G1 X47.549Y2.238
G1 X47.263Y2.333
G1 X46.977
G1 X46.691Y2.238
G1 X46.596Y2.143
G1 X46.691Y3
G1 X47.644
G0 X48.737Y3
G1 X48.451Y2.905
G1 X48.261Y2.619
G1 X48.166Y2.143
G1 Y1.857
G1 X48.261Y1.381
G1 X48.451Y1.095
G1 X48.737Y1
G1 X48.928
G1 X49.213Y1.095
G1 X49.404Y1.381
G1 X49.499Y1.857
G1 Y2.143
G1 X49.404Y2.619
G1 X49.213Y2.905
G1 X48.928Y3
G1 X48.737
G0 X56.453Y1.667
G1 X56.549Y1.952
G1 X56.739Y2.143
G1 X57.025Y2.238
G1 X57.12
G1 X57.406Y2.143
G1 X57.596Y1.952
G1 X57.691Y1.667
G1 Y1.571
G1 X57.596Y1.286
G1 X57.406Y1.095
G1 X57.12Y1
G1 X57.025
G1 X56.739Y1.095
G1 X56.549Y1.286
G1 X56.453Y1.667
G1 Y2.143
G1 X56.549Y2.619
G1 X56.739Y2.905
G1 X57.025Y3
G1 X57.215
G1 X57.501Y2.905
G1 X57.596Y2.714
G0 X58.594Y3
G1 X58.309Y2.905
G1 X58.118Y2.619
G1 X58.023Y2.143
G1 Y1.857
G1 X58.118Y1.381
G1 X58.309Y1.095
G1 X58.594Y1
G1 X58.785
G1 X59.07Y1.095
G1 X59.261Y1.381
G1 X59.356Y1.857
G1 Y2.143
G1 X59.261Y2.619
G1 X59.07Y2.905
G1 X58.785Y3
G1 X58.594
G0 X57Y7
G1 X47
G1 Y17
G0 X48Y18
G1 Y8
G1 X58
G0 X59Y9
G1 X49
G1 Y19
G0 X66.358Y3
G1 X67.691
G0 X67.691Y3
G1 X66.739Y1
G0 X68.594Y3
G1 X68.309Y2.905
G1 X68.118Y2.619
G1 X68.023Y2.143
G1 Y1.857
G1 X68.118Y1.381
G1 X68.309Y1.095
G1 X68.594Y1
G1 X68.785
G1 X69.07Y1.095
G1 X69.261Y1.381
G1 X69.356Y1.857
G1 Y2.143
G1 X69.261Y2.619
G1 X69.07Y2.905
G1 X68.785Y3
G1 X68.594
G0 X76.977Y3
G1 X76.691Y2.905
G1 X76.596Y2.714
G1 Y2.524
G1 X76.691Y2.333
G1 X76.882Y2.238
G1 X77.263Y2.143
G1 X77.549Y2.048
G1 X77.739Y1.857
G1 X77.834Y1.667
G1 Y1.381
G1 X77.739Y1.19
G1 X77.644Y1.095
G1 X77.358Y1
G1 X76.977
G1 X76.691Y1.095
G1 X76.596Y1.19
G1 X76.501Y1.381
G1 Y1.667
G1 X76.596Y1.857
G1 X76.787Y2.048
G1 X77.072Y2.143
G1 X77.453Y2.238
G1 X77.644Y2.333
G1 X77.739Y2.524
G1 Y2.714
G1 X77.644Y2.905
G1 X77.358Y3
G1 X76.977
G0 X78.737Y3
G1 X78.451Y2.905
G1 X78.261Y2.619
G1 X78.166Y2.143
G1 Y1.857
G1 X78.261Y1.381
G1 X78.451Y1.095
G1 X78.737Y1
G1 X78.928
G1 X79.213Y1.095
G1 X79.404Y1.381
G1 X79.499Y1.857
G1 Y2.143
G1 X79.404Y2.619
G1 X79.213Y2.905
G1 X78.928Y3
G1 X78.737
G0 X86.596Y1.286
G1 X86.691Y1.095
G1 X86.977Y1
G1 X87.168
G1 X87.453Y1.095
G1 X87.644Y1.381
G1 X87.739Y1.857
G1 Y2.333
G1 X87.644Y2.714
G1 X87.453Y2.905
G1 X87.168Y3
G1 X87.072
G1 X86.787Y2.905
G1 X86.596Y2.714
G1 X86.501Y2.429
G1 Y2.333
G1 X86.596Y2.048
G1 X86.787Y1.857
G1 X87.072Y1.762
G1 X87.168
G1 X87.453Y1.857
G1 X87.644Y2.048
G1 X87.739Y2.333
G0 X88.737Y3
G1 X88.451Y2.905
G1 X88.261Y2.619
G1 X88.166Y2.143
G1 Y1.857
G1 X88.261Y1.381
G1 X88.451Y1.095
G1 X88.737Y1
G1 X88.928
G1 X89.213Y1.095
G1 X89.404Y1.381
G1 X89.499Y1.857
G1 Y2.143
G1 X89.404Y2.619
G1 X89.213Y2.905
G1 X88.928Y3
G1 X88.737
G0 X94.811Y2.619
G1 X95.002Y2.714
G1 X95.288Y3
G1 Y1
G0 X104.811Y2.619
G1 X105.002Y2.714
G1 X105.287Y3
G1 Y1
G0 X106.952Y1
G1 Y3
G1 X106.667Y2.714
G1 X106.476Y2.619
G0 X98.427Y3
G1 X98.141Y2.905
G1 X97.95Y2.619
G1 X97.855Y2.143
G1 Y1.857
G1 X97.95Y1.381
G1 X98.141Y1.095
G1 X98.427Y1
G1 X98.617
G1 X98.903Y1.095
G1 X99.093Y1.381
G1 X99.189Y1.857
G1 Y2.143
G1 X99.093Y2.619
G1 X98.903Y2.905
G1 X98.617Y3
G1 X98.427
G0 X96.762Y3
G1 X96.476Y2.905
G1 X96.286Y2.619
G1 X96.19Y2.143
G1 Y1.857
G1 X96.286Y1.381
G1 X96.476Y1.095
G1 X96.762Y1
G1 X96.952
G1 X97.238Y1.095
G1 X97.429Y1.381
G1 X97.524Y1.857
G1 Y2.143
G1 X97.429Y2.619
G1 X97.238Y2.905
G1 X96.952Y3
G1 X96.762
G0 X114.811Y2.619
G1 X115.002Y2.714
G1 X115.287Y3
G1 Y1
G0 X117.524Y1
G1 X116.19
G1 X117.143Y1.952
G1 X117.333Y2.238
G1 X117.428Y2.429
G1 Y2.619
G1 X117.333Y2.81
G1 X117.238Y2.905
G1 X117.047Y3
G1 X116.667
G1 X116.476Y2.905
G1 X116.381Y2.81
G1 X116.286Y2.619
G1 Y2.524
G0 X108.427Y3
G1 X108.141Y2.905
G1 X107.95Y2.619
G1 X107.855Y2.143
G1 Y1.857
G1 X107.95Y1.381
G1 X108.141Y1.095
G1 X108.427Y1
G1 X108.617
G1 X108.903Y1.095
G1 X109.093Y1.381
G1 X109.188Y1.857
G1 Y2.143
G1 X109.093Y2.619
G1 X108.903Y2.905
G1 X108.617Y3
G1 X108.427
G0 X124.811Y2.619
G1 X125.002Y2.714
G1 X125.287Y3
G1 Y1
G0 X126.19Y1.381
G1 X126.286Y1.19
G1 X126.381Y1.095
G1 X126.667Y1
G1 X126.952
G1 X127.238Y1.095
G1 X127.428Y1.286
G1 X127.524Y1.571
G1 Y1.762
G1 X127.428Y2.048
G1 X127.333Y2.143
G1 X127.143Y2.238
G1 X126.857
G1 X127.428Y3
G1 X126.381
G0 X118.427Y3
G1 X118.141Y2.905
G1 X117.95Y2.619
G1 X117.855Y2.143
G1 Y1.857
G1 X117.95Y1.381
G1 X118.141Y1.095
G1 X118.427Y1
G1 X118.617
G1 X118.903Y1.095
G1 X119.093Y1.381
G1 X119.188Y1.857
G1 Y2.143
G1 X119.093Y2.619
G1 X118.903Y2.905
G1 X118.617Y3
G1 X118.427
G0 X134.811Y2.619
G1 X135.002Y2.714
G1 X135.287Y3
G1 Y1
G0 X137.143Y1
G1 Y3
G0 X137.143Y3
G1 X136.19Y1.667
G1 X137.619
G0 X138.427Y3
G1 X138.141Y2.905
G1 X137.95Y2.619
G1 X137.855Y2.143
G1 Y1.857
G1 X137.95Y1.381
G1 X138.141Y1.095
G1 X138.427Y1
G1 X138.617
G1 X138.903Y1.095
G1 X139.093Y1.381
G1 X139.188Y1.857
G1 Y2.143
G1 X139.093Y2.619
G1 X138.903Y2.905
G1 X138.617Y3
G1 X138.427
G0 X128.427Y3
G1 X128.141Y2.905
G1 X127.95Y2.619
G1 X127.855Y2.143
G1 Y1.857
G1 X127.95Y1.381
G1 X128.141Y1.095
G1 X128.427Y1
G1 X128.617
G1 X128.903Y1.095
G1 X129.093Y1.381
G1 X129.188Y1.857
G1 Y2.143
G1 X129.093Y2.619
G1 X128.903Y2.905
G1 X128.617Y3
G1 X128.427
G0 X144.811Y2.619
G1 X145.002Y2.714
G1 X145.287Y3
G1 Y1
G0 X146.19Y1.381
G1 X146.286Y1.19
G1 X146.381Y1.095
G1 X146.667Y1
G1 X146.952
G1 X147.238Y1.095
G1 X147.428Y1.286
G1 X147.524Y1.571
G1 Y1.762
G1 X147.428Y2.048
G1 X147.238Y2.238
G1 X146.952Y2.333
G1 X146.667
G1 X146.381Y2.238
G1 X146.286Y2.143
G1 X146.381Y3
G1 X147.333
G0 X148.427Y3
G1 X148.141Y2.905
G1 X147.95Y2.619
G1 X147.855Y2.143
G1 Y1.857
G1 X147.95Y1.381
G1 X148.141Y1.095
G1 X148.427Y1
G1 X148.617
G1 X148.903Y1.095
G1 X149.093Y1.381
G1 X149.188Y1.857
G1 Y2.143
G1 X149.093Y2.619
G1 X148.903Y2.905
G1 X148.617Y3
G1 X148.427
G0 X154.811Y2.619
G1 X155.002Y2.714
G1 X155.287Y3
G1 Y1
G0 X156.286Y1.667
G1 X156.381Y1.952
G1 X156.571Y2.143
G1 X156.857Y2.238
G1 X156.952
G1 X157.238Y2.143
G1 X157.428Y1.952
G1 X157.524Y1.667
G1 Y1.571
G1 X157.428Y1.286
G1 X157.238Y1.095
G1 X156.952Y1
G1 X156.857
G1 X156.571Y1.095
G1 X156.381Y1.286
G1 X156.286Y1.667
G1 Y2.143
G1 X156.381Y2.619
G1 X156.571Y2.905
G1 X156.857Y3
G1 X157.047
G1 X157.333Y2.905
G1 X157.428Y2.714
G0 X158.427Y3
G1 X158.141Y2.905
G1 X157.95Y2.619
G1 X157.855Y2.143
G1 Y1.857
G1 X157.95Y1.381
G1 X158.141Y1.095
G1 X158.427Y1
G1 X158.617
G1 X158.903Y1.095
G1 X159.093Y1.381
G1 X159.188Y1.857
G1 Y2.143
G1 X159.093Y2.619
G1 X158.903Y2.905
G1 X158.617Y3
G1 X158.427
G0 X164.811Y2.619
G1 X165.002Y2.714
G1 X165.287Y3
G1 Y1
G0 X166.571Y1
G1 X167.524Y3
G0 X167.524Y3
G1 X166.19
G0 X168.427Y3
G1 X168.141Y2.905
G1 X167.95Y2.619
G1 X167.855Y2.143
G1 Y1.857
G1 X167.95Y1.381
G1 X168.141Y1.095
G1 X168.427Y1
G1 X168.617
G1 X168.903Y1.095
G1 X169.093Y1.381
G1 X169.188Y1.857
G1 Y2.143
G1 X169.093Y2.619
G1 X168.903Y2.905
G1 X168.617Y3
G1 X168.427
G0 X174.811Y2.619
G1 X175.002Y2.714
G1 X175.287Y3
G1 Y1
G0 X176.667Y3
G1 X176.381Y2.905
G1 X176.286Y2.714
G1 Y2.524
G1 X176.381Y2.333
G1 X176.571Y2.238
G1 X176.952Y2.143
G1 X177.238Y2.048
G1 X177.428Y1.857
G1 X177.524Y1.667
G1 Y1.381
G1 X177.428Y1.19
G1 X177.333Y1.095
G1 X177.047Y1
G1 X176.667
G1 X176.381Y1.095
G1 X176.286Y1.19
G1 X176.19Y1.381
G1 Y1.667
G1 X176.286Y1.857
G1 X176.476Y2.048
G1 X176.762Y2.143
G1 X177.143Y2.238
G1 X177.333Y2.333
G1 X177.428Y2.524
G1 Y2.714
G1 X177.333Y2.905
G1 X177.047Y3
G1 X176.667
G0 X184.811Y2.619
G1 X185.002Y2.714
G1 X185.287Y3
G1 Y1
G0 X186.286Y1.286
G1 X186.381Y1.095
G1 X186.667Y1
G1 X186.857
G1 X187.143Y1.095
G1 X187.333Y1.381
G1 X187.428Y1.857
G1 Y2.333
G1 X187.333Y2.714
G1 X187.143Y2.905
G1 X186.857Y3
G1 X186.762
G1 X186.476Y2.905
G1 X186.286Y2.714
G1 X186.19Y2.429
G1 Y2.333
G1 X186.286Y2.048
G1 X186.476Y1.857
G1 X186.762Y1.762
G1 X186.857
G1 X187.143Y1.857
G1 X187.333Y2.048
G1 X187.428Y2.333
G0 X188.427Y3
G1 X188.141Y2.905
G1 X187.95Y2.619
G1 X187.855Y2.143
G1 Y1.857
G1 X187.95Y1.381
G1 X188.141Y1.095
G1 X188.427Y1
G1 X188.617
G1 X188.903Y1.095
G1 X189.093Y1.381
G1 X189.188Y1.857
G1 Y2.143
G1 X189.093Y2.619
G1 X188.903Y2.905
G1 X188.617Y3
G1 X188.427
G0 X178.427Y3
G1 X178.141Y2.905
G1 X177.95Y2.619
G1 X177.855Y2.143
G1 Y1.857
G1 X177.95Y1.381
G1 X178.141Y1.095
G1 X178.427Y1
G1 X178.617
G1 X178.903Y1.095
G1 X179.093Y1.381
G1 X179.188Y1.857
G1 Y2.143
G1 X179.093Y2.619
G1 X178.903Y2.905
G1 X178.617Y3
G1 X178.427
G0 X194.621Y2.524
G1 Y2.619
G1 X194.716Y2.81
G1 X194.811Y2.905
G1 X195.002Y3
G1 X195.383
G1 X195.573Y2.905
G1 X195.668Y2.81
G1 X195.764Y2.619
G1 Y2.429
G1 X195.668Y2.238
G1 X195.478Y1.952
G1 X194.526Y1
G1 X195.859
G0 X196.762Y3
G1 X196.476Y2.905
G1 X196.286Y2.619
G1 X196.19Y2.143
G1 Y1.857
G1 X196.286Y1.381
G1 X196.476Y1.095
G1 X196.762Y1
G1 X196.952
G1 X197.238Y1.095
G1 X197.428Y1.381
G1 X197.524Y1.857
G1 Y2.143
G1 X197.428Y2.619
G1 X197.238Y2.905
G1 X196.952Y3
G1 X196.762
G0 X204.764Y2.524
G1 Y2.619
G1 X204.859Y2.81
G1 X204.954Y2.905
G1 X205.145Y3
G1 X205.526
G1 X205.716Y2.905
G1 X205.811Y2.81
G1 X205.907Y2.619
G1 Y2.429
G1 X205.811Y2.238
G1 X205.621Y1.952
G1 X204.669Y1
G1 X206.002
G0 X207.095Y1
G1 Y3
G1 X206.81Y2.714
G1 X206.619Y2.619
G0 X198.427Y3
G1 X198.141Y2.905
G1 X197.95Y2.619
G1 X197.855Y2.143
G1 Y1.857
G1 X197.95Y1.381
G1 X198.141Y1.095
G1 X198.427Y1
G1 X198.617
G1 X198.903Y1.095
G1 X199.093Y1.381
G1 X199.188Y1.857
G1 Y2.143
G1 X199.093Y2.619
G1 X198.903Y2.905
G1 X198.617Y3
G1 X198.427
G0 X214.764Y2.524
G1 Y2.619
G1 X214.859Y2.81
G1 X214.954Y2.905
G1 X215.145Y3
G1 X215.526
G1 X215.716Y2.905
G1 X215.811Y2.81
G1 X215.907Y2.619
G1 Y2.429
G1 X215.811Y2.238
G1 X215.621Y1.952
G1 X214.669Y1
G1 X216.002
G0 X217.667Y1
G1 X216.333
G1 X217.286Y1.952
G1 X217.476Y2.238
G1 X217.571Y2.429
G1 Y2.619
G1 X217.476Y2.81
G1 X217.381Y2.905
G1 X217.19Y3
G1 X216.81
G1 X216.619Y2.905
G1 X216.524Y2.81
G1 X216.429Y2.619
G1 Y2.524
G0 X208.57Y3
G1 X208.284Y2.905
G1 X208.093Y2.619
G1 X207.998Y2.143
G1 Y1.857
G1 X208.093Y1.381
G1 X208.284Y1.095
G1 X208.57Y1
G1 X208.76
G1 X209.046Y1.095
G1 X209.236Y1.381
G1 X209.331Y1.857
G1 Y2.143
G1 X209.236Y2.619
G1 X209.046Y2.905
G1 X208.76Y3
G1 X208.57
G0 X224.764Y2.524
G1 Y2.619
G1 X224.859Y2.81
G1 X224.954Y2.905
G1 X225.145Y3
G1 X225.526
G1 X225.716Y2.905
G1 X225.811Y2.81
G1 X225.907Y2.619
G1 Y2.429
G1 X225.811Y2.238
G1 X225.621Y1.952
G1 X224.669Y1
G1 X226.002
G0 X226.333Y1.381
G1 X226.429Y1.19
G1 X226.524Y1.095
G1 X226.81Y1
G1 X227.095
G1 X227.381Y1.095
G1 X227.571Y1.286
G1 X227.667Y1.571
G1 Y1.762
G1 X227.571Y2.048
G1 X227.476Y2.143
G1 X227.286Y2.238
G1 X227
G1 X227.571Y3
G1 X226.524
G0 X218.57Y3
G1 X218.284Y2.905
G1 X218.093Y2.619
G1 X217.998Y2.143
G1 Y1.857
G1 X218.093Y1.381
G1 X218.284Y1.095
G1 X218.57Y1
G1 X218.76
G1 X219.046Y1.095
G1 X219.236Y1.381
G1 X219.331Y1.857
G1 Y2.143
G1 X219.236Y2.619
G1 X219.046Y2.905
G1 X218.76Y3
G1 X218.57
G0 X231Y9
G1 X241
G1 Y19
G0 X242Y18
G1 Y8
G1 X232
G0 X228.57Y3
G1 X228.284Y2.905
G1 X228.093Y2.619
G1 X227.998Y2.143
G1 Y1.857
G1 X228.093Y1.381
G1 X228.284Y1.095
G1 X228.57Y1
G1 X228.76
G1 X229.046Y1.095
G1 X229.236Y1.381
G1 X229.331Y1.857
G1 Y2.143
G1 X229.236Y2.619
G1 X229.046Y2.905
G1 X228.76Y3
G1 X228.57
G0 X234.764Y2.524
G1 Y2.619
G1 X234.859Y2.81
G1 X234.954Y2.905
G1 X235.145Y3
G1 X235.526
G1 X235.716Y2.905
G1 X235.811Y2.81
G1 X235.907Y2.619
G1 Y2.429
G1 X235.811Y2.238
G1 X235.621Y1.952
G1 X234.669Y1
G1 X236.002
G0 X237.286Y1
G1 Y3
G0 X237.286Y3
G1 X236.333Y1.667
G1 X237.762
G0 X238.57Y3
G1 X238.284Y2.905
G1 X238.093Y2.619
G1 X237.998Y2.143
G1 Y1.857
G1 X238.093Y1.381
G1 X238.284Y1.095
G1 X238.57Y1
G1 X238.76
G1 X239.046Y1.095
G1 X239.236Y1.381
G1 X239.331Y1.857
G1 Y2.143
G1 X239.236Y2.619
G1 X239.046Y2.905
G1 X238.76Y3
G1 X238.57
G0 X244.764Y2.524
G1 Y2.619
G1 X244.859Y2.81
G1 X244.954Y2.905
G1 X245.145Y3
G1 X245.526
G1 X245.716Y2.905
G1 X245.811Y2.81
G1 X245.907Y2.619
G1 Y2.429
G1 X245.811Y2.238
G1 X245.621Y1.952
G1 X244.669Y1
G1 X246.002
G0 X246.333Y1.381
G1 X246.429Y1.19
G1 X246.524Y1.095
G1 X246.81Y1
G1 X247.095
G1 X247.381Y1.095
G1 X247.571Y1.286
G1 X247.667Y1.571
G1 Y1.762
G1 X247.571Y2.048
G1 X247.381Y2.238
G1 X247.095Y2.333
G1 X246.81
G1 X246.524Y2.238
G1 X246.429Y2.143
G1 X246.524Y3
G1 X247.476
G0 X248.57Y3
G1 X248.284Y2.905
G1 X248.093Y2.619
G1 X247.998Y2.143
G1 Y1.857
G1 X248.093Y1.381
G1 X248.284Y1.095
G1 X248.57Y1
G1 X248.76
G1 X249.046Y1.095
G1 X249.236Y1.381
G1 X249.331Y1.857
G1 Y2.143
G1 X249.236Y2.619
G1 X249.046Y2.905
G1 X248.76Y3
G1 X248.57
G0 X254.764Y2.524
G1 Y2.619
G1 X254.859Y2.81
G1 X254.954Y2.905
G1 X255.145Y3
G1 X255.526
G1 X255.716Y2.905
G1 X255.811Y2.81
G1 X255.907Y2.619
G1 Y2.429
G1 X255.811Y2.238
G1 X255.621Y1.952
G1 X254.669Y1
G1 X256.002
G0 X256.429Y1.667
G1 X256.524Y1.952
G1 X256.714Y2.143
G1 X257Y2.238
G1 X257.095
G1 X257.381Y2.143
G1 X257.571Y1.952
G1 X257.667Y1.667
G1 Y1.571
G1 X257.571Y1.286
G1 X257.381Y1.095
G1 X257.095Y1
G1 X257
G1 X256.714Y1.095
G1 X256.524Y1.286
G1 X256.429Y1.667
G1 Y2.143
G1 X256.524Y2.619
G1 X256.714Y2.905
G1 X257Y3
G1 X257.19
G1 X257.476Y2.905
G1 X257.571Y2.714
G0 X258.57Y3
G1 X258.284Y2.905
G1 X258.093Y2.619
G1 X257.998Y2.143
G1 Y1.857
G1 X258.093Y1.381
G1 X258.284Y1.095
G1 X258.57Y1
G1 X258.76
G1 X259.046Y1.095
G1 X259.236Y1.381
G1 X259.331Y1.857
G1 Y2.143
G1 X259.236Y2.619
G1 X259.046Y2.905
G1 X258.76Y3
G1 X258.57
G0 X264.764Y2.524
G1 Y2.619
G1 X264.859Y2.81
G1 X264.954Y2.905
G1 X265.145Y3
G1 X265.526
G1 X265.716Y2.905
G1 X265.811Y2.81
G1 X265.907Y2.619
G1 Y2.429
G1 X265.811Y2.238
G1 X265.621Y1.952
G1 X264.669Y1
G1 X266.002
G0 X266.714Y1
G1 X267.667Y3
G0 X267.667Y3
G1 X266.333
G0 X271Y0
G1 Y20
G0 X272Y20
G1 Y0
G0 X273Y0
G1 Y20
G0 X274.764Y2.524
G1 Y2.619
G1 X274.859Y2.81
G1 X274.954Y2.905
G1 X275.145Y3
G1 X275.526
G1 X275.716Y2.905
G1 X275.811Y2.81
G1 X275.907Y2.619
G1 Y2.429
G1 X275.811Y2.238
G1 X275.621Y1.952
G1 X274.669Y1
G1 X276.002
G0 X276.81Y3
G1 X276.524Y2.905
G1 X276.429Y2.714
G1 Y2.524
G1 X276.524Y2.333
G1 X276.714Y2.238
G1 X277.095Y2.143
G1 X277.381Y2.048
G1 X277.571Y1.857
G1 X277.667Y1.667
G1 Y1.381
G1 X277.571Y1.19
G1 X277.476Y1.095
G1 X277.19Y1
G1 X276.81
G1 X276.524Y1.095
G1 X276.429Y1.19
G1 X276.333Y1.381
G1 Y1.667
G1 X276.429Y1.857
G1 X276.619Y2.048
G1 X276.905Y2.143
G1 X277.286Y2.238
G1 X277.476Y2.333
G1 X277.571Y2.524
G1 Y2.714
G1 X277.476Y2.905
G1 X277.19Y3
G1 X276.81
G0 X268.57Y3
G1 X268.284Y2.905
G1 X268.093Y2.619
G1 X267.998Y2.143
G1 Y1.857
G1 X268.093Y1.381
G1 X268.284Y1.095
G1 X268.57Y1
G1 X268.76
G1 X269.046Y1.095
G1 X269.236Y1.381
G1 X269.331Y1.857
G1 Y2.143
G1 X269.236Y2.619
G1 X269.046Y2.905
G1 X268.76Y3
G1 X268.57
G0 X284.764Y2.524
G1 Y2.619
G1 X284.859Y2.81
G1 X284.954Y2.905
G1 X285.145Y3
G1 X285.526
G1 X285.716Y2.905
G1 X285.811Y2.81
G1 X285.907Y2.619
G1 Y2.429
G1 X285.811Y2.238
G1 X285.621Y1.952
G1 X284.669Y1
G1 X286.002
G0 X286.429Y1.286
G1 X286.524Y1.095
G1 X286.81Y1
G1 X287
G1 X287.286Y1.095
G1 X287.476Y1.381
G1 X287.571Y1.857
G1 Y2.333
G1 X287.476Y2.714
G1 X287.286Y2.905
G1 X287Y3
G1 X286.905
G1 X286.619Y2.905
G1 X286.429Y2.714
G1 X286.333Y2.429
G1 Y2.333
G1 X286.429Y2.048
G1 X286.619Y1.857
G1 X286.905Y1.762
G1 X287
G1 X287.286Y1.857
G1 X287.476Y2.048
G1 X287.571Y2.333
G0 X288.57Y3
G1 X288.284Y2.905
G1 X288.093Y2.619
G1 X287.998Y2.143
G1 Y1.857
G1 X288.093Y1.381
G1 X288.284Y1.095
G1 X288.57Y1
G1 X288.76
G1 X289.046Y1.095
G1 X289.236Y1.381
G1 X289.331Y1.857
G1 Y2.143
G1 X289.236Y2.619
G1 X289.046Y2.905
G1 X288.76Y3
G1 X288.57
G0 X278.57Y3
G1 X278.284Y2.905
G1 X278.093Y2.619
G1 X277.998Y2.143
G1 Y1.857
G1 X278.093Y1.381
G1 X278.284Y1.095
G1 X278.57Y1
G1 X278.76
G1 X279.046Y1.095
G1 X279.236Y1.381
G1 X279.331Y1.857
G1 Y2.143
G1 X279.236Y2.619
G1 X279.046Y2.905
G1 X278.76Y3
G1 X278.57
G0 X243Y17
G1 Y7
G1 X233
G0 X188.439Y93
G1 X188.153Y92.905
G1 X187.962Y92.619
G1 X187.867Y92.143
G1 Y91.857
G1 X187.962Y91.381
G1 X188.153Y91.095
G1 X188.439Y91
G1 X188.629
G1 X188.915Y91.095
G1 X189.105Y91.381
G1 X189.2Y91.857
G1 Y92.143
G1 X189.105Y92.619
G1 X188.915Y92.905
G1 X188.629Y93
G1 X188.439
G0 X187.44Y92.333
G1 X187.345Y92.048
G1 X187.155Y91.857
G1 X186.869Y91.762
G1 X186.774
G1 X186.488Y91.857
G1 X186.298Y92.048
G1 X186.202Y92.333
G1 Y92.429
G1 X186.298Y92.714
G1 X186.488Y92.905
G1 X186.774Y93
G1 X186.869
G1 X187.155Y92.905
G1 X187.345Y92.714
G1 X187.44Y92.333
G1 Y91.857
G1 X187.345Y91.381
G1 X187.155Y91.095
G1 X186.869Y91
G1 X186.679
G1 X186.393Y91.095
G1 X186.298Y91.286
G0 X185.299Y91
G1 Y93
G1 X185.014Y92.714
G1 X184.823Y92.619
G0 X178.439Y93
G1 X178.153Y92.905
G1 X177.962Y92.619
G1 X177.867Y92.143
G1 Y91.857
G1 X177.962Y91.381
G1 X178.153Y91.095
G1 X178.439Y91
G1 X178.629
G1 X178.915Y91.095
G1 X179.105Y91.381
G1 X179.2Y91.857
G1 Y92.143
G1 X179.105Y92.619
G1 X178.915Y92.905
G1 X178.629Y93
G1 X178.439
G0 X176.679Y93
G1 X176.393Y92.905
G1 X176.298Y92.714
G1 Y92.524
G1 X176.393Y92.333
G1 X176.583Y92.238
G1 X176.964Y92.143
G1 X177.25Y92.048
G1 X177.44Y91.857
G1 X177.536Y91.667
G1 Y91.381
G1 X177.44Y91.191
G1 X177.345Y91.095
G1 X177.059Y91
G1 X176.679
G1 X176.393Y91.095
G1 X176.298Y91.191
G1 X176.202Y91.381
G1 Y91.667
G1 X176.298Y91.857
G1 X176.488Y92.048
G1 X176.774Y92.143
G1 X177.155Y92.238
G1 X177.345Y92.333
G1 X177.44Y92.524
G1 Y92.714
G1 X177.345Y92.905
G1 X177.059Y93
G1 X176.679
G0 X168.439Y93
G1 X168.153Y92.905
G1 X167.962Y92.619
G1 X167.867Y92.143
G1 Y91.857
G1 X167.962Y91.381
G1 X168.153Y91.095
G1 X168.439Y91
G1 X168.629
G1 X168.915Y91.095
G1 X169.105Y91.381
G1 X169.2Y91.857
G1 Y92.143
G1 X169.105Y92.619
G1 X168.915Y92.905
G1 X168.629Y93
G1 X168.439
G0 X167.536Y93
G1 X166.583Y91
G0 X165.299Y91
G1 Y93
G1 X165.014Y92.714
G1 X164.823Y92.619
G0 X158.439Y93
G1 X158.153Y92.905
G1 X157.962Y92.619
G1 X157.867Y92.143
G1 Y91.857
G1 X157.962Y91.381
G1 X158.153Y91.095
G1 X158.439Y91
G1 X158.629
G1 X158.915Y91.095
G1 X159.105Y91.381
G1 X159.2Y91.857
G1 Y92.143
G1 X159.105Y92.619
G1 X158.915Y92.905
G1 X158.629Y93
G1 X158.439
G0 X157.44Y92.714
G1 X157.345Y92.905
G1 X157.059Y93
G1 X156.869
G1 X156.583Y92.905
G1 X156.393Y92.619
G1 X156.298Y92.143
G1 Y91.667
G1 X156.393Y91.286
G1 X156.583Y91.095
G1 X156.869Y91
G1 X156.964
G1 X157.25Y91.095
G1 X157.44Y91.286
G1 X157.536Y91.571
G1 Y91.667
G1 X157.44Y91.952
G1 X157.25Y92.143
G1 X156.964Y92.238
G1 X156.869
G1 X156.583Y92.143
G1 X156.393Y91.952
G1 X156.298Y91.667
G0 X155.299Y91
G1 Y93
G1 X155.014Y92.714
G1 X154.823Y92.619
G0 X148.439Y93
G1 X148.153Y92.905
G1 X147.962Y92.619
G1 X147.867Y92.143
G1 Y91.857
G1 X147.962Y91.381
G1 X148.153Y91.095
G1 X148.439Y91
G1 X148.629
G1 X148.915Y91.095
G1 X149.105Y91.381
G1 X149.2Y91.857
G1 Y92.143
G1 X149.105Y92.619
G1 X148.915Y92.905
G1 X148.629Y93
G1 X148.439
G0 X147.345Y93
G1 X146.393
G1 X146.298Y92.143
G1 X146.393Y92.238
G1 X146.679Y92.333
G1 X146.964
G1 X147.25Y92.238
G1 X147.44Y92.048
G1 X147.536Y91.762
G1 Y91.571
G1 X147.44Y91.286
G1 X147.25Y91.095
G1 X146.964Y91
G1 X146.679
G1 X146.393Y91.095
G1 X146.298Y91.191
G1 X146.202Y91.381
G0 X145.299Y91
G1 Y93
G1 X145.014Y92.714
G1 X144.823Y92.619
G0 X138.439Y93
G1 X138.153Y92.905
G1 X137.962Y92.619
G1 X137.867Y92.143
G1 Y91.857
G1 X137.962Y91.381
G1 X138.153Y91.095
G1 X138.439Y91
G1 X138.629
G1 X138.915Y91.095
G1 X139.105Y91.381
G1 X139.2Y91.857
G1 Y92.143
G1 X139.105Y92.619
G1 X138.915Y92.905
G1 X138.629Y93
G1 X138.439
G0 X137.155Y93
G1 X136.202Y91.667
G1 X137.631
G0 X137.155Y91
G1 Y93
G0 X134.823Y92.619
G1 X135.014Y92.714
G1 X135.299Y93
G1 Y91
G0 X128.439Y93
G1 X128.153Y92.905
G1 X127.962Y92.619
G1 X127.867Y92.143
G1 Y91.857
G1 X127.962Y91.381
G1 X128.153Y91.095
G1 X128.439Y91
G1 X128.629
G1 X128.915Y91.095
G1 X129.105Y91.381
G1 X129.2Y91.857
G1 Y92.143
G1 X129.105Y92.619
G1 X128.915Y92.905
G1 X128.629Y93
G1 X128.439
G0 X126.393Y93
G1 X127.44
G1 X126.869Y92.238
G1 X127.155
G1 X127.345Y92.143
G1 X127.44Y92.048
G1 X127.536Y91.762
G1 Y91.571
G1 X127.44Y91.286
G1 X127.25Y91.095
G1 X126.964Y91
G1 X126.679
G1 X126.393Y91.095
G1 X126.298Y91.191
G1 X126.202Y91.381
G0 X125.299Y91
G1 Y93
G1 X125.014Y92.714
G1 X124.823Y92.619
G0 X118.439Y93
G1 X118.153Y92.905
G1 X117.962Y92.619
G1 X117.867Y92.143
G1 Y91.857
G1 X117.962Y91.381
G1 X118.153Y91.095
G1 X118.439Y91
G1 X118.629
G1 X118.915Y91.095
G1 X119.105Y91.381
G1 X119.2Y91.857
G1 Y92.143
G1 X119.105Y92.619
G1 X118.915Y92.905
G1 X118.629Y93
G1 X118.439
G0 X108.439Y93
G1 X108.153Y92.905
G1 X107.962Y92.619
G1 X107.867Y92.143
G1 Y91.857
G1 X107.962Y91.381
G1 X108.153Y91.095
G1 X108.439Y91
G1 X108.629
G1 X108.915Y91.095
G1 X109.105Y91.381
G1 X109.2Y91.857
G1 Y92.143
G1 X109.105Y92.619
G1 X108.915Y92.905
G1 X108.629Y93
G1 X108.439
G0 X106.488Y92.619
G1 X106.679Y92.714
G1 X106.964Y93
G1 Y91
G0 X105.299Y91
G1 Y93
G1 X105.014Y92.714
G1 X104.823Y92.619
G0 X98.439Y93
G1 X98.153Y92.905
G1 X97.963Y92.619
G1 X97.868Y92.143
G1 Y91.857
G1 X97.963Y91.381
G1 X98.153Y91.095
G1 X98.439Y91
G1 X98.629
G1 X98.915Y91.095
G1 X99.106Y91.381
G1 X99.201Y91.857
G1 Y92.143
G1 X99.106Y92.619
G1 X98.915Y92.905
G1 X98.629Y93
G1 X98.439
G0 X96.774Y93
G1 X96.489Y92.905
G1 X96.298Y92.619
G1 X96.203Y92.143
G1 Y91.857
G1 X96.298Y91.381
G1 X96.489Y91.095
G1 X96.774Y91
G1 X96.965
G1 X97.25Y91.095
G1 X97.441Y91.381
G1 X97.536Y91.857
G1 Y92.143
G1 X97.441Y92.619
G1 X97.25Y92.905
G1 X96.965Y93
G1 X96.774
G0 X88.75Y93
G1 X88.464Y92.905
G1 X88.273Y92.619
G1 X88.178Y92.143
G1 Y91.857
G1 X88.273Y91.381
G1 X88.464Y91.095
G1 X88.75Y91
G1 X88.94
G1 X89.226Y91.095
G1 X89.416Y91.381
G1 X89.511Y91.857
G1 Y92.143
G1 X89.416Y92.619
G1 X89.226Y92.905
G1 X88.94Y93
G1 X88.75
G0 X87.751Y92.333
G1 X87.656Y92.048
G1 X87.466Y91.857
G1 X87.18Y91.762
G1 X87.085
G1 X86.799Y91.857
G1 X86.609Y92.048
G1 X86.513Y92.333
G1 Y92.429
G1 X86.609Y92.714
G1 X86.799Y92.905
G1 X87.085Y93
G1 X87.18
G1 X87.466Y92.905
G1 X87.656Y92.714
G1 X87.751Y92.333
G1 Y91.857
G1 X87.656Y91.381
G1 X87.466Y91.095
G1 X87.18Y91
G1 X86.99
G1 X86.704Y91.095
G1 X86.609Y91.286
G0 X78.75Y93
G1 X78.464Y92.905
G1 X78.273Y92.619
G1 X78.178Y92.143
G1 Y91.857
G1 X78.273Y91.381
G1 X78.464Y91.095
G1 X78.75Y91
G1 X78.94
G1 X79.226Y91.095
G1 X79.416Y91.381
G1 X79.511Y91.857
G1 Y92.143
G1 X79.416Y92.619
G1 X79.226Y92.905
G1 X78.94Y93
G1 X78.75
G0 X76.99Y93
G1 X76.704Y92.905
G1 X76.609Y92.714
G1 Y92.524
G1 X76.704Y92.333
G1 X76.894Y92.238
G1 X77.275Y92.143
G1 X77.561Y92.048
G1 X77.751Y91.857
G1 X77.847Y91.667
G1 Y91.381
G1 X77.751Y91.191
G1 X77.656Y91.095
G1 X77.37Y91
G1 X76.99
G1 X76.704Y91.095
G1 X76.609Y91.191
G1 X76.513Y91.381
G1 Y91.667
G1 X76.609Y91.857
G1 X76.799Y92.048
G1 X77.085Y92.143
G1 X77.466Y92.238
G1 X77.656Y92.333
G1 X77.751Y92.524
G1 Y92.714
G1 X77.656Y92.905
G1 X77.37Y93
G1 X76.99
G0 X68.607Y93
G1 X68.321Y92.905
G1 X68.13Y92.619
G1 X68.035Y92.143
G1 Y91.857
G1 X68.13Y91.381
G1 X68.321Y91.095
G1 X68.607Y91
G1 X68.797
G1 X69.083Y91.095
G1 X69.273Y91.381
G1 X69.369Y91.857
G1 Y92.143
G1 X69.273Y92.619
G1 X69.083Y92.905
G1 X68.797Y93
G1 X68.607
G0 X67.704Y93
G1 X66.751Y91
G0 X66.37Y93
G1 X67.704
G0 X58.607Y93
G1 X58.321Y92.905
G1 X58.13Y92.619
G1 X58.035Y92.143
G1 Y91.857
G1 X58.13Y91.381
G1 X58.321Y91.095
G1 X58.607Y91
G1 X58.797
G1 X59.083Y91.095
G1 X59.273Y91.381
G1 X59.369Y91.857
G1 Y92.143
G1 X59.273Y92.619
G1 X59.083Y92.905
G1 X58.797Y93
G1 X58.607
G0 X57.609Y92.714
G1 X57.513Y92.905
G1 X57.228Y93
G1 X57.037
G1 X56.751Y92.905
G1 X56.561Y92.619
G1 X56.466Y92.143
G1 Y91.667
G1 X56.561Y91.286
G1 X56.751Y91.095
G1 X57.037Y91
G1 X57.132
G1 X57.418Y91.095
G1 X57.609Y91.286
G1 X57.704Y91.571
G1 Y91.667
G1 X57.609Y91.952
G1 X57.418Y92.143
G1 X57.132Y92.238
G1 X57.037
G1 X56.751Y92.143
G1 X56.561Y91.952
G1 X56.466Y91.667
G0 X48.75Y93
G1 X48.464Y92.905
G1 X48.273Y92.619
G1 X48.178Y92.143
G1 Y91.857
G1 X48.273Y91.381
G1 X48.464Y91.095
G1 X48.75Y91
G1 X48.94
G1 X49.226Y91.095
G1 X49.416Y91.381
G1 X49.511Y91.857
G1 Y92.143
G1 X49.416Y92.619
G1 X49.226Y92.905
G1 X48.94Y93
G1 X48.75
G0 X47.656Y93
G1 X46.704
G1 X46.609Y92.143
G1 X46.704Y92.238
G1 X46.99Y92.333
G1 X47.275
G1 X47.561Y92.238
G1 X47.751Y92.048
G1 X47.847Y91.762
G1 Y91.571
G1 X47.751Y91.286
G1 X47.561Y91.095
G1 X47.275Y91
G1 X46.99
G1 X46.704Y91.095
G1 X46.609Y91.191
G1 X46.513Y91.381
G0 X38.607Y93
G1 X38.321Y92.905
G1 X38.13Y92.619
G1 X38.035Y92.143
G1 Y91.857
G1 X38.13Y91.381
G1 X38.321Y91.095
G1 X38.607Y91
G1 X38.797
G1 X39.083Y91.095
G1 X39.273Y91.381
G1 X39.369Y91.857
G1 Y92.143
G1 X39.273Y92.619
G1 X39.083Y92.905
G1 X38.797Y93
G1 X38.607
G0 X37.323Y93
G1 X36.37Y91.667
G1 X37.799
G0 X37.323Y91
G1 Y93
G0 X28.75Y93
G1 X28.464Y92.905
G1 X28.273Y92.619
G1 X28.178Y92.143
G1 Y91.857
G1 X28.273Y91.381
G1 X28.464Y91.095
G1 X28.75Y91
G1 X28.94
G1 X29.226Y91.095
G1 X29.416Y91.381
G1 X29.511Y91.857
G1 Y92.143
G1 X29.416Y92.619
G1 X29.226Y92.905
G1 X28.94Y93
G1 X28.75
G0 X26.704Y93
G1 X27.751
G1 X27.18Y92.238
G1 X27.466
G1 X27.656Y92.143
G1 X27.751Y92.048
G1 X27.847Y91.762
G1 Y91.571
G1 X27.751Y91.286
G1 X27.561Y91.095
G1 X27.275Y91
G1 X26.99
G1 X26.704Y91.095
G1 X26.609Y91.191
G1 X26.513Y91.381
G0 X18.607Y93
G1 X18.321Y92.905
G1 X18.13Y92.619
G1 X18.035Y92.143
G1 Y91.857
G1 X18.13Y91.381
G1 X18.321Y91.095
G1 X18.607Y91
G1 X18.797
G1 X19.083Y91.095
G1 X19.273Y91.381
G1 X19.369Y91.857
G1 Y92.143
G1 X19.273Y92.619
G1 X19.083Y92.905
G1 X18.797Y93
G1 X18.607
G0 X8.607Y93
G1 X8.321Y92.905
G1 X8.13Y92.619
G1 X8.035Y92.143
G1 Y91.857
G1 X8.13Y91.381
G1 X8.321Y91.095
G1 X8.607Y91
G1 X8.797
G1 X9.083Y91.095
G1 X9.273Y91.381
G1 X9.369Y91.857
G1 Y92.143
G1 X9.273Y92.619
G1 X9.083Y92.905
G1 X8.797Y93
G1 X8.607
G0 X6.656Y92.619
G1 X6.847Y92.714
G1 X7.132Y93
G1 Y91
G0 X1Y87.821
G1 X1.095Y87.535
G1 X1.381Y87.345
G1 X1.857Y87.25
G1 X2.143
G1 X2.619Y87.345
G1 X2.905Y87.535
G1 X3Y87.821
G1 Y88.012
G1 X2.905Y88.297
G1 X2.619Y88.488
G1 X2.143Y88.583
G1 X1.857
G1 X1.381Y88.488
G1 X1.095Y88.297
G1 X1Y88.012
G1 Y87.821
G0 X1.667Y86.823
G1 X1.952Y86.728
G1 X2.143Y86.537
G1 X2.238Y86.252
G1 Y86.156
G1 X2.143Y85.871
G1 X1.952Y85.68
G1 X1.667Y85.585
G1 X1.571
G1 X1.286Y85.68
G1 X1.095Y85.871
G1 X1Y86.156
G1 Y86.252
G1 X1.095Y86.537
G1 X1.286Y86.728
G1 X1.667Y86.823
G1 X2.143
G1 X2.619Y86.728
G1 X2.905Y86.537
G1 X3Y86.252
G1 Y86.061
G1 X2.905Y85.775
G1 X2.714Y85.68
G0 X1Y77.821
G1 X1.095Y77.535
G1 X1.381Y77.345
G1 X1.857Y77.25
G1 X2.143
G1 X2.619Y77.345
G1 X2.905Y77.535
G1 X3Y77.821
G1 Y78.012
G1 X2.905Y78.297
G1 X2.619Y78.488
G1 X2.143Y78.583
G1 X1.857
G1 X1.381Y78.488
G1 X1.095Y78.297
G1 X1Y78.012
G1 Y77.821
G0 X1Y76.061
G1 X1.095Y75.775
G1 X1.286Y75.68
G1 X1.476
G1 X1.667Y75.775
G1 X1.762Y75.966
G1 X1.857Y76.347
G1 X1.952Y76.632
G1 X2.143Y76.823
G1 X2.333Y76.918
G1 X2.619
G1 X2.81Y76.823
G1 X2.905Y76.728
G1 X3Y76.442
G1 Y76.061
G1 X2.905Y75.775
G1 X2.81Y75.68
G1 X2.619Y75.585
G1 X2.333
G1 X2.143Y75.68
G1 X1.952Y75.871
G1 X1.857Y76.156
G1 X1.762Y76.537
G1 X1.667Y76.728
G1 X1.476Y76.823
G1 X1.286
G1 X1.095Y76.728
G1 X1Y76.442
G1 Y76.061
G0 X1Y67.678
G1 X1.095Y67.392
G1 X1.381Y67.202
G1 X1.857Y67.107
G1 X2.143
G1 X2.619Y67.202
G1 X2.905Y67.392
G1 X3Y67.678
G1 Y67.869
G1 X2.905Y68.154
G1 X2.619Y68.345
G1 X2.143Y68.44
G1 X1.857
G1 X1.381Y68.345
G1 X1.095Y68.154
G1 X1Y67.869
G1 Y67.678
G0 X1Y66.775
G1 X3Y65.823
G0 X1Y65.442
G1 Y66.775
G0 X1Y57.678
G1 X1.095Y57.392
G1 X1.381Y57.202
G1 X1.857Y57.107
G1 X2.143
G1 X2.619Y57.202
G1 X2.905Y57.392
G1 X3Y57.678
G1 Y57.869
G1 X2.905Y58.154
G1 X2.619Y58.345
G1 X2.143Y58.44
G1 X1.857
G1 X1.381Y58.345
G1 X1.095Y58.154
G1 X1Y57.869
G1 Y57.678
G0 X1.286Y56.68
G1 X1.095Y56.585
G1 X1Y56.299
G1 Y56.109
G1 X1.095Y55.823
G1 X1.381Y55.632
G1 X1.857Y55.537
G1 X2.333
G1 X2.714Y55.632
G1 X2.905Y55.823
G1 X3Y56.109
G1 Y56.204
G1 X2.905Y56.49
G1 X2.714Y56.68
G1 X2.429Y56.775
G1 X2.333
G1 X2.048Y56.68
G1 X1.857Y56.49
G1 X1.762Y56.204
G1 Y56.109
G1 X1.857Y55.823
G1 X2.048Y55.632
G1 X2.333Y55.537
G0 X1Y47.821
G1 X1.095Y47.535
G1 X1.381Y47.345
G1 X1.857Y47.25
G1 X2.143
G1 X2.619Y47.345
G1 X2.905Y47.535
G1 X3Y47.821
G1 Y48.012
G1 X2.905Y48.297
G1 X2.619Y48.488
G1 X2.143Y48.583
G1 X1.857
G1 X1.381Y48.488
G1 X1.095Y48.297
G1 X1Y48.012
G1 Y47.821
G0 X1Y46.728
G1 Y45.775
G1 X1.857Y45.68
G1 X1.762Y45.775
G1 X1.667Y46.061
G1 Y46.347
G1 X1.762Y46.632
G1 X1.952Y46.823
G1 X2.238Y46.918
G1 X2.429
G1 X2.714Y46.823
G1 X2.905Y46.632
G1 X3Y46.347
G1 Y46.061
G1 X2.905Y45.775
G1 X2.81Y45.68
G1 X2.619Y45.585
G0 X1Y37.678
G1 X1.095Y37.392
G1 X1.381Y37.202
G1 X1.857Y37.107
G1 X2.143
G1 X2.619Y37.202
G1 X2.905Y37.392
G1 X3Y37.678
G1 Y37.869
G1 X2.905Y38.154
G1 X2.619Y38.345
G1 X2.143Y38.44
G1 X1.857
G1 X1.381Y38.345
G1 X1.095Y38.154
G1 X1Y37.869
G1 Y37.678
G0 X2.333Y36.871
G1 Y35.442
G1 X1Y36.394
G0 X1Y36.394
G1 X3
G0 X1Y27.821
G1 X1.095Y27.535
G1 X1.381Y27.345
G1 X1.857Y27.25
G1 X2.143
G1 X2.619Y27.345
G1 X2.905Y27.535
G1 X3Y27.821
G1 Y28.012
G1 X2.905Y28.297
G1 X2.619Y28.488
G1 X2.143Y28.583
G1 X1.857
G1 X1.381Y28.488
G1 X1.095Y28.297
G1 X1Y28.012
G1 Y27.821
G0 X1Y25.775
G1 Y26.823
G1 X1.762Y26.252
G1 Y26.537
G1 X1.857Y26.728
G1 X1.952Y26.823
G1 X2.238Y26.918
G1 X2.429
G1 X2.714Y26.823
G1 X2.905Y26.632
G1 X3Y26.347
G1 Y26.061
G1 X2.905Y25.775
G1 X2.81Y25.68
G1 X2.619Y25.585
G0 X17.704Y91
G1 X16.37
G1 X17.323Y91.952
G1 X17.513Y92.238
G1 X17.609Y92.429
G1 Y92.619
G1 X17.513Y92.81
G1 X17.418Y92.905
G1 X17.228Y93
G1 X16.847
G1 X16.656Y92.905
G1 X16.561Y92.81
G1 X16.466Y92.619
G1 Y92.524
G0 X3Y94.371
G1 X1
G1 X1.286Y94.086
G1 X1.381Y93.895
G0 X1Y95.846
G1 X1.095Y95.56
G1 X1.381Y95.37
G1 X1.857Y95.274
G1 X2.143
G1 X2.619Y95.37
G1 X2.905Y95.56
G1 X3Y95.846
G1 Y96.036
G1 X2.905Y96.322
G1 X2.619Y96.512
G1 X2.143Y96.608
G1 X1.857
G1 X1.381Y96.512
G1 X1.095Y96.322
G1 X1Y96.036
G1 Y95.846
G0 X1Y97.511
G1 X1.095Y97.225
G1 X1.381Y97.034
G1 X1.857Y96.939
G1 X2.143
G1 X2.619Y97.034
G1 X2.905Y97.225
G1 X3Y97.511
G1 Y97.701
G1 X2.905Y97.987
G1 X2.619Y98.177
G1 X2.143Y98.272
G1 X1.857
G1 X1.381Y98.177
G1 X1.095Y97.987
G1 X1Y97.701
G1 Y97.511
G0 X1.381Y103.895
G1 X1.286Y104.086
G1 X1Y104.371
G1 X3
G0 X1.381Y105.56
G1 X1.286Y105.751
G1 X1Y106.036
G1 X3
G0 X1Y107.511
G1 X1.095Y107.225
G1 X1.381Y107.034
G1 X1.857Y106.939
G1 X2.143
G1 X2.619Y107.034
G1 X2.905Y107.225
G1 X3Y107.511
G1 Y107.701
G1 X2.905Y107.987
G1 X2.619Y108.177
G1 X2.143Y108.272
G1 X1.857
G1 X1.381Y108.177
G1 X1.095Y107.987
G1 X1Y107.701
G1 Y107.511
G0 X1.381Y113.895
G1 X1.286Y114.086
G1 X1Y114.371
G1 X3
G0 X1.476Y115.37
G1 X1.381
G1 X1.19Y115.465
G1 X1.095Y115.56
G1 X1Y115.751
G1 Y116.131
G1 X1.095Y116.322
G1 X1.19Y116.417
G1 X1.381Y116.512
G1 X1.571
G1 X1.762Y116.417
G1 X2.048Y116.227
G1 X3Y115.274
G1 Y116.608
G0 X1Y117.511
G1 X1.095Y117.225
G1 X1.381Y117.034
G1 X1.857Y116.939
G1 X2.143
G1 X2.619Y117.034
G1 X2.905Y117.225
G1 X3Y117.511
G1 Y117.701
G1 X2.905Y117.987
G1 X2.619Y118.177
G1 X2.143Y118.272
G1 X1.857
G1 X1.381Y118.177
G1 X1.095Y117.987
G1 X1Y117.701
G1 Y117.511
G0 X1.381Y123.895
G1 X1.286Y124.086
G1 X1Y124.371
G1 X3
G0 X2.619Y125.274
G1 X2.81Y125.37
G1 X2.905Y125.465
G1 X3Y125.751
G1 Y126.036
G1 X2.905Y126.322
G1 X2.714Y126.512
G1 X2.429Y126.608
G1 X2.238
G1 X1.952Y126.512
G1 X1.857Y126.417
G1 X1.762Y126.227
G1 Y125.941
G1 X1Y126.512
G1 Y125.465
G0 X1Y127.511
G1 X1.095Y127.225
G1 X1.381Y127.034
G1 X1.857Y126.939
G1 X2.143
G1 X2.619Y127.034
G1 X2.905Y127.225
G1 X3Y127.511
G1 Y127.701
G1 X2.905Y127.987
G1 X2.619Y128.177
G1 X2.143Y128.272
G1 X1.857
G1 X1.381Y128.177
G1 X1.095Y127.987
G1 X1Y127.701
G1 Y127.511
G0 X1.381Y133.895
G1 X1.286Y134.086
G1 X1Y134.371
G1 X3
G0 X3Y136.227
G1 X1
G0 X1Y136.227
G1 X2.333Y135.274
G1 Y136.703
G0 X1Y137.511
G1 X1.095Y137.225
G1 X1.381Y137.034
G1 X1.857Y136.939
G1 X2.143
G1 X2.619Y137.034
G1 X2.905Y137.225
G1 X3Y137.511
G1 Y137.701
G1 X2.905Y137.987
G1 X2.619Y138.177
G1 X2.143Y138.272
G1 X1.857
G1 X1.381Y138.177
G1 X1.095Y137.987
G1 X1Y137.701
G1 Y137.511
G0 X1.381Y143.895
G1 X1.286Y144.086
G1 X1Y144.371
G1 X3
G0 X2.619Y145.274
G1 X2.81Y145.37
G1 X2.905Y145.465
G1 X3Y145.751
G1 Y146.036
G1 X2.905Y146.322
G1 X2.714Y146.512
G1 X2.429Y146.608
G1 X2.238
G1 X1.952Y146.512
G1 X1.762Y146.322
G1 X1.667Y146.036
G1 Y145.751
G1 X1.762Y145.465
G1 X1.857Y145.37
G1 X1Y145.465
G1 Y146.417
G0 X1Y147.511
G1 X1.095Y147.225
G1 X1.381Y147.034
G1 X1.857Y146.939
G1 X2.143
G1 X2.619Y147.034
G1 X2.905Y147.225
G1 X3Y147.511
G1 Y147.701
G1 X2.905Y147.987
G1 X2.619Y148.177
G1 X2.143Y148.272
G1 X1.857
G1 X1.381Y148.177
G1 X1.095Y147.987
G1 X1Y147.701
G1 Y147.511
G0 X1.381Y153.895
G1 X1.286Y154.086
G1 X1Y154.371
G1 X3
G0 X2.333Y155.37
G1 X2.048Y155.465
G1 X1.857Y155.655
G1 X1.762Y155.941
G1 Y156.036
G1 X1.857Y156.322
G1 X2.048Y156.512
G1 X2.333Y156.608
G1 X2.429
G1 X2.714Y156.512
G1 X2.905Y156.322
G1 X3Y156.036
G1 Y155.941
G1 X2.905Y155.655
G1 X2.714Y155.465
G1 X2.333Y155.37
G1 X1.857
G1 X1.381Y155.465
G1 X1.095Y155.655
G1 X1Y155.941
G1 Y156.131
G1 X1.095Y156.417
G1 X1.286Y156.512
G0 X1Y157.511
G1 X1.095Y157.225
G1 X1.381Y157.034
G1 X1.857Y156.939
G1 X2.143
G1 X2.619Y157.034
G1 X2.905Y157.225
G1 X3Y157.511
G1 Y157.701
G1 X2.905Y157.987
G1 X2.619Y158.177
G1 X2.143Y158.272
G1 X1.857
G1 X1.381Y158.177
G1 X1.095Y157.987
G1 X1Y157.701
G1 Y157.511
G0 X1.381Y163.895
G1 X1.286Y164.086
G1 X1Y164.371
G1 X3
G0 X3Y165.655
G1 X1Y166.608
G0 X1Y166.608
G1 Y165.274
G0 X1Y167.511
G1 X1.095Y167.225
G1 X1.381Y167.034
G1 X1.857Y166.939
G1 X2.143
G1 X2.619Y167.034
G1 X2.905Y167.225
G1 X3Y167.511
G1 Y167.701
G1 X2.905Y167.987
G1 X2.619Y168.177
G1 X2.143Y168.272
G1 X1.857
G1 X1.381Y168.177
G1 X1.095Y167.987
G1 X1Y167.701
G1 Y167.511
G0 X17Y160
G1 Y176
G0 X18Y176
G1 Y160
G0 X19Y160
G1 Y176
G0 X57Y163
G1 X47
G1 Y153
G0 X48Y152
G1 Y162
G1 X58
G0 X59Y161
G1 X49
G1 Y151
G0 X94.824Y92.619
G1 X95.014Y92.714
G1 X95.3Y93
G1 Y91
G0 X114.823Y92.619
G1 X115.014Y92.714
G1 X115.299Y93
G1 Y91
G0 X117.536Y91
G1 X116.202
G1 X117.155Y91.952
G1 X117.345Y92.238
G1 X117.44Y92.429
G1 Y92.619
G1 X117.345Y92.81
G1 X117.25Y92.905
G1 X117.059Y93
G1 X116.679
G1 X116.488Y92.905
G1 X116.393Y92.81
G1 X116.298Y92.619
G1 Y92.524
G0 X166.202Y93
G1 X167.536
G0 X174.823Y92.619
G1 X175.014Y92.714
G1 X175.299Y93
G1 Y91
G0 X194.633Y92.524
G1 Y92.619
G1 X194.728Y92.81
G1 X194.823Y92.905
G1 X195.014Y93
G1 X195.395
G1 X195.585Y92.905
G1 X195.68Y92.81
G1 X195.776Y92.619
G1 Y92.429
G1 X195.68Y92.238
G1 X195.49Y91.952
G1 X194.538Y91
G1 X195.871
G0 X196.774Y93
G1 X196.488Y92.905
G1 X196.298Y92.619
G1 X196.202Y92.143
G1 Y91.857
G1 X196.298Y91.381
G1 X196.488Y91.095
G1 X196.774Y91
G1 X196.964
G1 X197.25Y91.095
G1 X197.44Y91.381
G1 X197.536Y91.857
G1 Y92.143
G1 X197.44Y92.619
G1 X197.25Y92.905
G1 X196.964Y93
G1 X196.774
G0 X204.776Y92.524
G1 Y92.619
G1 X204.871Y92.81
G1 X204.966Y92.905
G1 X205.157Y93
G1 X205.538
G1 X205.728Y92.905
G1 X205.823Y92.81
G1 X205.919Y92.619
G1 Y92.429
G1 X205.823Y92.238
G1 X205.633Y91.952
G1 X204.681Y91
G1 X206.014
G0 X207.107Y91
G1 Y93
G1 X206.822Y92.714
G1 X206.631Y92.619
G0 X198.439Y93
G1 X198.153Y92.905
G1 X197.962Y92.619
G1 X197.867Y92.143
G1 Y91.857
G1 X197.962Y91.381
G1 X198.153Y91.095
G1 X198.439Y91
G1 X198.629
G1 X198.915Y91.095
G1 X199.105Y91.381
G1 X199.2Y91.857
G1 Y92.143
G1 X199.105Y92.619
G1 X198.915Y92.905
G1 X198.629Y93
G1 X198.439
G0 X214.776Y92.524
G1 Y92.619
G1 X214.871Y92.81
G1 X214.966Y92.905
G1 X215.157Y93
G1 X215.538
G1 X215.728Y92.905
G1 X215.823Y92.81
G1 X215.919Y92.619
G1 Y92.429
G1 X215.823Y92.238
G1 X215.633Y91.952
G1 X214.681Y91
G1 X216.014
G0 X217.679Y91
G1 X216.345
G1 X217.298Y91.952
G1 X217.488Y92.238
G1 X217.583Y92.429
G1 Y92.619
G1 X217.488Y92.81
G1 X217.393Y92.905
G1 X217.202Y93
G1 X216.822
G1 X216.631Y92.905
G1 X216.536Y92.81
G1 X216.441Y92.619
G1 Y92.524
G0 X208.582Y93
G1 X208.296Y92.905
G1 X208.105Y92.619
G1 X208.01Y92.143
G1 Y91.857
G1 X208.105Y91.381
G1 X208.296Y91.095
G1 X208.582Y91
G1 X208.772
G1 X209.058Y91.095
G1 X209.248Y91.381
G1 X209.343Y91.857
G1 Y92.143
G1 X209.248Y92.619
G1 X209.058Y92.905
G1 X208.772Y93
G1 X208.582
G0 X224.776Y92.524
G1 Y92.619
G1 X224.871Y92.81
G1 X224.966Y92.905
G1 X225.157Y93
G1 X225.538
G1 X225.728Y92.905
G1 X225.823Y92.81
G1 X225.919Y92.619
G1 Y92.429
G1 X225.823Y92.238
G1 X225.633Y91.952
G1 X224.681Y91
G1 X226.014
G0 X226.345Y91.381
G1 X226.441Y91.191
G1 X226.536Y91.095
G1 X226.822Y91
G1 X227.107
G1 X227.393Y91.095
G1 X227.583Y91.286
G1 X227.679Y91.571
G1 Y91.762
G1 X227.583Y92.048
G1 X227.488Y92.143
G1 X227.298Y92.238
G1 X227.012
G1 X227.583Y93
G1 X226.536
G0 X218.582Y93
G1 X218.296Y92.905
G1 X218.105Y92.619
G1 X218.01Y92.143
G1 Y91.857
G1 X218.105Y91.381
G1 X218.296Y91.095
G1 X218.582Y91
G1 X218.772
G1 X219.058Y91.095
G1 X219.248Y91.381
G1 X219.343Y91.857
G1 Y92.143
G1 X219.248Y92.619
G1 X219.058Y92.905
G1 X218.772Y93
G1 X218.582
G0 X234.776Y92.524
G1 Y92.619
G1 X234.871Y92.81
G1 X234.966Y92.905
G1 X235.157Y93
G1 X235.538
G1 X235.728Y92.905
G1 X235.823Y92.81
G1 X235.919Y92.619
G1 Y92.429
G1 X235.823Y92.238
G1 X235.633Y91.952
G1 X234.681Y91
G1 X236.014
G0 X237.298Y91
G1 Y93
G0 X237.298Y93
G1 X236.345Y91.667
G1 X237.774
G0 X238.582Y93
G1 X238.296Y92.905
G1 X238.105Y92.619
G1 X238.01Y92.143
G1 Y91.857
G1 X238.105Y91.381
G1 X238.296Y91.095
G1 X238.582Y91
G1 X238.772
G1 X239.058Y91.095
G1 X239.248Y91.381
G1 X239.343Y91.857
G1 Y92.143
G1 X239.248Y92.619
G1 X239.058Y92.905
G1 X238.772Y93
G1 X238.582
G0 X228.582Y93
G1 X228.296Y92.905
G1 X228.105Y92.619
G1 X228.01Y92.143
G1 Y91.857
G1 X228.105Y91.381
G1 X228.296Y91.095
G1 X228.582Y91
G1 X228.772
G1 X229.058Y91.095
G1 X229.248Y91.381
G1 X229.343Y91.857
G1 Y92.143
G1 X229.248Y92.619
G1 X229.058Y92.905
G1 X228.772Y93
G1 X228.582
G0 X244.776Y92.524
G1 Y92.619
G1 X244.871Y92.81
G1 X244.966Y92.905
G1 X245.157Y93
G1 X245.538
G1 X245.728Y92.905
G1 X245.823Y92.81
G1 X245.919Y92.619
G1 Y92.429
G1 X245.823Y92.238
G1 X245.633Y91.952
G1 X244.681Y91
G1 X246.014
G0 X246.345Y91.381
G1 X246.441Y91.191
G1 X246.536Y91.095
G1 X246.822Y91
G1 X247.107
G1 X247.393Y91.095
G1 X247.583Y91.286
G1 X247.679Y91.571
G1 Y91.762
G1 X247.583Y92.048
G1 X247.393Y92.238
G1 X247.107Y92.333
G1 X246.822
G1 X246.536Y92.238
G1 X246.441Y92.143
G1 X246.536Y93
G1 X247.488
G0 X248.582Y93
G1 X248.296Y92.905
G1 X248.105Y92.619
G1 X248.01Y92.143
G1 Y91.857
G1 X248.105Y91.381
G1 X248.296Y91.095
G1 X248.582Y91
G1 X248.772
G1 X249.058Y91.095
G1 X249.248Y91.381
G1 X249.343Y91.857
G1 Y92.143
G1 X249.248Y92.619
G1 X249.058Y92.905
G1 X248.772Y93
G1 X248.582
G0 X254.776Y92.524
G1 Y92.619
G1 X254.871Y92.81
G1 X254.966Y92.905
G1 X255.157Y93
G1 X255.538
G1 X255.728Y92.905
G1 X255.823Y92.81
G1 X255.919Y92.619
G1 Y92.429
G1 X255.823Y92.238
G1 X255.633Y91.952
G1 X254.681Y91
G1 X256.014
G0 X256.441Y91.667
G1 X256.536Y91.952
G1 X256.726Y92.143
G1 X257.012Y92.238
G1 X257.107
G1 X257.393Y92.143
G1 X257.583Y91.952
G1 X257.679Y91.667
G1 Y91.571
G1 X257.583Y91.286
G1 X257.393Y91.095
G1 X257.107Y91
G1 X257.012
G1 X256.726Y91.095
G1 X256.536Y91.286
G1 X256.441Y91.667
G1 Y92.143
G1 X256.536Y92.619
G1 X256.726Y92.905
G1 X257.012Y93
G1 X257.202
G1 X257.488Y92.905
G1 X257.583Y92.714
G0 X258.582Y93
G1 X258.296Y92.905
G1 X258.105Y92.619
G1 X258.01Y92.143
G1 Y91.857
G1 X258.105Y91.381
G1 X258.296Y91.095
G1 X258.582Y91
G1 X258.772
G1 X259.058Y91.095
G1 X259.248Y91.381
G1 X259.343Y91.857
G1 Y92.143
G1 X259.248Y92.619
G1 X259.058Y92.905
G1 X258.772Y93
G1 X258.582
G0 X264.776Y92.524
G1 Y92.619
G1 X264.871Y92.81
G1 X264.966Y92.905
G1 X265.157Y93
G1 X265.538
G1 X265.728Y92.905
G1 X265.823Y92.81
G1 X265.919Y92.619
G1 Y92.429
G1 X265.823Y92.238
G1 X265.633Y91.952
G1 X264.681Y91
G1 X266.014
G0 X266.726Y91
G1 X267.679Y93
G0 X267.679Y93
G1 X266.345
G0 X268.582Y93
G1 X268.296Y92.905
G1 X268.105Y92.619
G1 X268.01Y92.143
G1 Y91.857
G1 X268.105Y91.381
G1 X268.296Y91.095
G1 X268.582Y91
G1 X268.772
G1 X269.058Y91.095
G1 X269.248Y91.381
G1 X269.343Y91.857
G1 Y92.143
G1 X269.248Y92.619
G1 X269.058Y92.905
G1 X268.772Y93
G1 X268.582
G0 X274.776Y92.524
G1 Y92.619
G1 X274.871Y92.81
G1 X274.966Y92.905
G1 X275.157Y93
G1 X275.538
G1 X275.728Y92.905
G1 X275.823Y92.81
G1 X275.919Y92.619
G1 Y92.429
G1 X275.823Y92.238
G1 X275.633Y91.952
G1 X274.681Y91
G1 X276.014
G0 X276.822Y93
G1 X276.536Y92.905
G1 X276.441Y92.714
G1 Y92.524
G1 X276.536Y92.333
G1 X276.726Y92.238
G1 X277.107Y92.143
G1 X277.393Y92.048
G1 X277.583Y91.857
G1 X277.679Y91.667
G1 Y91.381
G1 X277.583Y91.191
G1 X277.488Y91.095
G1 X277.202Y91
G1 X276.822
G1 X276.536Y91.095
G1 X276.441Y91.191
G1 X276.345Y91.381
G1 Y91.667
G1 X276.441Y91.857
G1 X276.631Y92.048
G1 X276.917Y92.143
G1 X277.298Y92.238
G1 X277.488Y92.333
G1 X277.583Y92.524
G1 Y92.714
G1 X277.488Y92.905
G1 X277.202Y93
G1 X276.822
G0 X284.776Y92.524
G1 Y92.619
G1 X284.871Y92.81
G1 X284.966Y92.905
G1 X285.157Y93
G1 X285.538
G1 X285.728Y92.905
G1 X285.823Y92.81
G1 X285.919Y92.619
G1 Y92.429
G1 X285.823Y92.238
G1 X285.633Y91.952
G1 X284.681Y91
G1 X286.014
G0 X286.441Y91.286
G1 X286.536Y91.095
G1 X286.822Y91
G1 X287.012
G1 X287.298Y91.095
G1 X287.488Y91.381
G1 X287.583Y91.857
G1 Y92.333
G1 X287.488Y92.714
G1 X287.298Y92.905
G1 X287.012Y93
G1 X286.917
G1 X286.631Y92.905
G1 X286.441Y92.714
G1 X286.345Y92.429
G1 Y92.333
G1 X286.441Y92.048
G1 X286.631Y91.857
G1 X286.917Y91.762
G1 X287.012
G1 X287.298Y91.857
G1 X287.488Y92.048
G1 X287.583Y92.333
G0 X288.582Y93
G1 X288.296Y92.905
G1 X288.105Y92.619
G1 X288.01Y92.143
G1 Y91.857
G1 X288.105Y91.381
G1 X288.296Y91.095
G1 X288.582Y91
G1 X288.772
G1 X289.058Y91.095
G1 X289.248Y91.381
G1 X289.343Y91.857
G1 Y92.143
G1 X289.248Y92.619
G1 X289.058Y92.905
G1 X288.772Y93
G1 X288.582
G0 X278.582Y93
G1 X278.296Y92.905
G1 X278.105Y92.619
G1 X278.01Y92.143
G1 Y91.857
G1 X278.105Y91.381
G1 X278.296Y91.095
G1 X278.582Y91
G1 X278.772
G1 X279.058Y91.095
G1 X279.248Y91.381
G1 X279.343Y91.857
G1 Y92.143
G1 X279.248Y92.619
G1 X279.058Y92.905
G1 X278.772Y93
G1 X278.582
G0 X241Y151
G1 Y161
G1 X231
G0 X232Y162
G1 X242
G1 Y152
G0 X243Y153
G1 Y163
G1 X233
G0 X271Y160
G1 Y176
G0 X272Y176
G1 Y160
G0 X273Y160
G1 Y176
; Cut @ 200 mm/min, 80% power
M8
G0 X270Y178
; Layer lines
G1 Y-0
G0 X260Y-0
G1 Y178
G0 X250Y178
G1 Y-0
G0 X240Y-0
G1 Y178
G0 X230Y178
G1 Y-0
G0 X220Y-0
G1 Y178
G0 X210Y178
G1 Y-0
G0 X200Y-0
G1 Y178
G0 X190Y178
G1 Y-0
G0 X180Y-0
G1 Y178
G0 X170Y178
G1 Y-0
G0 X160Y-0
G1 Y178
G0 X150Y178
G1 Y-0
G0 X140Y-0
G1 Y178
G0 X130Y178
G1 Y-0
G0 X120Y-0
G1 Y178
G0 X110Y178
G1 Y-0
G0 X100Y-0
G1 Y178
G0 X90Y178
G1 Y-0
G0 X80Y-0
G1 Y178
G0 X70Y178
G1 Y-0
G0 X60Y-0
G1 Y178
G0 X50Y178
G1 Y-0
G0 X40Y-0
G1 Y178
G0 X30Y178
G1 Y-0
G0 X20Y-0
G1 Y178
G0 X10Y178
G1 Y-0
G0 X2Y10
G1 X298
G0 X298Y20
G1 X2
G0 X2Y30
G1 X298
G0 X298Y40
G1 X2
G0 X2Y50
G1 X298
G0 X298Y60
G1 X2
G0 X2Y70
G1 X298
G0 X298Y80
G1 X2
G0 X2Y90
G1 X298
G0 X298Y100
G1 X2
G0 X2Y110
G1 X298
G0 X298Y120
G1 X2
G0 X2Y130
G1 X298
G0 X298Y140
G1 X2
G0 X2Y150
G1 X298
G0 X298Y160
G1 X2
G0 X2Y170
G1 X298
G0 X290Y178
G1 Y-0
G0 X280Y-0
G1 Y178
M9
G1 S0
M5
G90
; return to user-defined finish pos
G0 X0 Y0
M2
