; generated by PrusaSlicer 2.8.0+win64 on 2025-02-16 at 14:53:00 UTC


;
;
; 

; external perimeters extrusion width = 0.60mm
; perimeters extrusion width = 0.50mm
; infill extrusion width = 0.50mm
; solid infill extrusion width = 0.50mm
; top infill extrusion width = 0.45mm
; first layer extrusion width = 0.42mm

M73 P0 R103
M73 Q0 S104
M201 X1000 Y1000 Z200 E5000 ; sets maximum accelerations, mm/sec^2
M203 X200 Y200 Z12 E120 ; sets maximum feedrates, mm / sec
M204 S1250 T1250 ; sets acceleration (S) and retract acceleration (R), mm/sec^2
M205 X8.00 Y8.00 Z0.40 E4.50 ; sets the jerk limits, mm/sec
M205 S0 T0 ; sets the minimum extruding and travel feed rate, mm/sec

; printing object 300w_controller_top.stl id:0 copy 0
; stop printing object 300w_controller_top.stl id:0 copy 0

;TYPE:Custom
M862.3 P "MK3S" ; printer model check
M862.1 P0.4 ; nozzle diameter check
M115 U3.13.3 ; tell printer latest fw version
G90 ; use absolute coordinates
M83 ; extruder relative mode
M104 S200 ; set extruder temp
M140 S67 ; set bed temp
M190 S67 ; wait for bed temp
M109 S200 ; wait for extruder temp
G28 W ; home all without mesh bed level
G80 X129.435 Y16.3869 W107 H84 ; mesh bed levelling

G1 Z0.2 F720
G1 Y-3 F1000 ; go outside print area
G92 E0
G1 X60 E9 F1000 ; intro line
G1 X100 E12.5 F1000 ; intro line

G92 E0
M221 S95

; Don't change E values below. Excessive value can damage the printer.

G21 ; set units to millimeters
G90 ; use absolute coordinates
M83 ; use relative distances for extrusion
M900 K0.05 ; Filament gcode LA 1.5
M900 K30 ; Filament gcode LA 1.0
M107
;LAYER_CHANGE
;Z:0.2
;HEIGHT:0.2
G1 E-1.2 F2100
G1 Z.6 F720
; printing object 300w_controller_top.stl id:0 copy 0
G1 X194.126 Y52.68 F10800
G1 Z.2 F720
G1 E1.2 F2100
M204 S800
;TYPE:Perimeter
;WIDTH:0.419999
G1 F1200
G1 X194.467 Y52.257 E.01704
G1 X194.961 Y51.779 E.02155
G1 X195.501 Y51.352 E.02159
G1 X196.081 Y50.983 E.02155
G1 X196.696 Y50.674 E.02158
G1 X197.338 Y50.429 E.02155
G1 X198.002 Y50.25 E.02156
G1 X198.681 Y50.139 E.02157
G1 X199.344 Y50.098 E.02083
G1 X200.05 Y50.125 E.02215
G1 X200.736 Y50.223 E.02173
G1 X201.403 Y50.388 E.02154
G1 X202.051 Y50.621 E.02159
G1 X202.671 Y50.918 E.02155
G1 X203.259 Y51.276 E.02158
G1 X203.807 Y51.692 E.02157
G1 X204.31 Y52.161 E.02156
G1 X204.763 Y52.678 E.02155
G1 X205.161 Y53.239 E.02157
G1 X205.501 Y53.837 E.02157
G1 X205.779 Y54.466 E.02156
G1 X205.991 Y55.12 E.02156
G1 X206.136 Y55.793 E.02159
G1 X206.212 Y56.476 E.02155
G1 X206.219 Y57.164 E.02157
G1 X206.156 Y57.849 E.02157
G1 X206.024 Y58.524 E.02156
G1 X205.825 Y59.182 E.02155
G1 X205.56 Y59.817 E.02157
G1 X205.232 Y60.422 E.02158
G1 X204.845 Y60.99 E.02155
G1 X204.402 Y61.516 E.02156
G1 X203.908 Y61.995 E.02157
G1 X203.368 Y62.422 E.02159
G1 X202.788 Y62.791 E.02155
G1 X202.174 Y63.1 E.02155
G1 X201.531 Y63.345 E.02157
G1 X200.867 Y63.524 E.02156
G1 X200.188 Y63.635 E.02157
G1 X199.501 Y63.677 E.02158
G1 X198.814 Y63.649 E.02156
G1 X198.133 Y63.551 E.02157
G1 X197.466 Y63.385 E.02155
G1 X196.84 Y63.161 E.02085
G1 X196.203 Y62.858 E.02212
G1 X195.611 Y62.498 E.02172
G1 X195.063 Y62.082 E.02157
G1 X194.559 Y61.613 E.02159
G1 X194.106 Y61.096 E.02155
G1 X193.708 Y60.535 E.02157
G1 X193.369 Y59.939 E.0215
G1 X193.091 Y59.308 E.02162
G1 X192.878 Y58.654 E.02157
G1 X192.733 Y57.981 E.02159
G1 X192.657 Y57.298 E.02155
G1 X192.65 Y56.776 E.01637
G1 X192.68 Y56.254 E.01639
G1 X192.845 Y55.25 E.0319
G1 X193.044 Y54.591 E.02158
G1 X193.309 Y53.957 E.02155
G1 X193.637 Y53.352 E.02158
G1 X193.918 Y52.936 E.01574
G1 X194.088 Y52.726 E.00847
M204 S1000
G1 X194.088 Y52.726 F10800
G1 X194.403 Y52.918
M204 S800
G1 F1200
G1 X194.753 Y52.503 E.01702
G1 X195.221 Y52.052 E.02038
G1 X195.732 Y51.65 E.02039
G1 X196.281 Y51.303 E.02036
G1 X196.862 Y51.012 E.02037
G1 X197.469 Y50.782 E.02035
G1 X198.097 Y50.615 E.02037
G1 X198.738 Y50.511 E.02036
G1 X199.363 Y50.475 E.01963
G1 X200.032 Y50.502 E.02099
G1 X200.679 Y50.595 E.02049
G1 X201.309 Y50.754 E.02037
G1 X201.92 Y50.975 E.02037
G1 X202.505 Y51.256 E.02035
G1 X203.059 Y51.596 E.02038
G1 X203.576 Y51.99 E.02038
G1 X204.05 Y52.434 E.02036
G1 X204.477 Y52.924 E.02038
G1 X204.852 Y53.454 E.02036
G1 X205.171 Y54.02 E.02037
G1 X205.432 Y54.615 E.02037
G1 X205.631 Y55.233 E.02036
G1 X205.767 Y55.869 E.02039
G1 X205.837 Y56.514 E.02034
G1 X205.842 Y57.164 E.02038
G1 X205.781 Y57.811 E.02038
G1 X205.655 Y58.448 E.02036
G1 X205.465 Y59.07 E.02039
G1 X205.213 Y59.668 E.02035
G1 X204.902 Y60.239 E.02039
G1 X204.535 Y60.775 E.02037
G1 X204.116 Y61.271 E.02036
G1 X203.648 Y61.722 E.02038
G1 X203.137 Y62.123 E.02037
G1 X202.589 Y62.471 E.02035
G1 X202.008 Y62.762 E.02037
G1 X201.4 Y62.992 E.02038
G1 X200.772 Y63.159 E.02037
G1 X200.131 Y63.262 E.02036
G1 X199.482 Y63.3 E.02038
G1 X198.833 Y63.272 E.02037
G1 X198.19 Y63.179 E.02037
G1 X197.56 Y63.02 E.02037
G1 X196.971 Y62.807 E.01964
G1 X196.368 Y62.519 E.02095
G1 X195.81 Y62.178 E.0205
G1 X195.293 Y61.784 E.02038
G1 X194.819 Y61.34 E.02036
G1 X194.392 Y60.85 E.02038
G1 X194.017 Y60.32 E.02036
G1 X193.699 Y59.756 E.0203
G1 X193.437 Y59.159 E.02044
G1 X193.238 Y58.541 E.02036
G1 X193.103 Y57.905 E.02039
G1 X193.032 Y57.259 E.02038
G1 X193.027 Y56.61 E.02035
G1 X193.088 Y55.963 E.02038
G1 X193.214 Y55.326 E.02036
G1 X193.404 Y54.704 E.02039
G1 X193.656 Y54.105 E.02038
G1 X193.967 Y53.535 E.02036
G1 X194.334 Y52.999 E.02037
G1 X194.364 Y52.964 E.00145
M204 S1000
G1 X194.364 Y52.964 F10800
G1 X194.688 Y53.162
M204 S800
G1 F1200
G1 X195.04 Y52.749 E.01701
G1 X195.481 Y52.325 E.01918
G1 X195.963 Y51.949 E.01917
G1 X196.48 Y51.623 E.01916
G1 X197.028 Y51.351 E.01918
G1 X197.6 Y51.136 E.01916
G1 X198.191 Y50.98 E.01917
G1 X198.795 Y50.884 E.01918
G1 X199.383 Y50.852 E.01846
G1 X200.014 Y50.878 E.0198
G1 X200.622 Y50.968 E.01927
G1 X201.214 Y51.119 E.01916
G1 X201.789 Y51.328 E.01918
G1 X202.339 Y51.595 E.01917
G1 X202.86 Y51.916 E.01919
G1 X203.345 Y52.288 E.01916
G1 X203.79 Y52.707 E.01916
G1 X204.191 Y53.169 E.01918
G1 X204.542 Y53.669 E.01915
G1 X204.842 Y54.203 E.0192
G1 X205.086 Y54.764 E.01918
G1 X205.271 Y55.346 E.01915
G1 X205.397 Y55.944 E.01916
G1 X205.462 Y56.553 E.0192
G1 X205.465 Y57.164 E.01916
G1 X205.406 Y57.773 E.01918
G1 X205.286 Y58.372 E.01915
G1 X205.105 Y58.957 E.0192
G1 X204.867 Y59.52 E.01916
G1 X204.573 Y60.056 E.01917
G1 X204.226 Y60.559 E.01916
G1 X203.83 Y61.025 E.01917
G1 X203.388 Y61.449 E.0192
G1 X202.907 Y61.825 E.01914
G1 X202.389 Y62.151 E.01919
G1 X201.842 Y62.423 E.01915
G1 X201.269 Y62.638 E.01919
G1 X200.678 Y62.794 E.01917
G1 X200.074 Y62.89 E.01918
G1 X199.463 Y62.924 E.01919
G1 X198.852 Y62.896 E.01918
G1 X198.248 Y62.806 E.01915
G1 X197.655 Y62.655 E.01919
G1 X197.102 Y62.454 E.01845
G1 X196.532 Y62.18 E.01983
G1 X196.01 Y61.858 E.01923
G1 X195.524 Y61.486 E.01919
G1 X195.079 Y61.067 E.01916
G1 X194.679 Y60.605 E.01916
G1 X194.327 Y60.104 E.0192
G1 X194.029 Y59.573 E.01909
G1 X193.784 Y59.01 E.01925
G1 X193.598 Y58.428 E.01916
G1 X193.472 Y57.829 E.01919
G1 X193.407 Y57.221 E.01917
G1 X193.404 Y56.61 E.01916
G1 X193.463 Y56.001 E.01918
G1 X193.584 Y55.402 E.01916
G1 X193.764 Y54.817 E.01919
G1 X194.002 Y54.254 E.01916
G1 X194.297 Y53.718 E.01918
G1 X194.643 Y53.215 E.01914
G1 X194.649 Y53.208 E.00029
M204 S1000
G1 X194.973 Y53.407 F10800
M204 S800
;TYPE:External perimeter
G1 F1200
G1 X195.326 Y52.994 E.01703
G1 X195.741 Y52.599 E.01796
G1 X196.193 Y52.247 E.01796
G1 X196.679 Y51.943 E.01797
G1 X197.194 Y51.689 E.018
G1 X197.731 Y51.489 E.01797
G1 X198.286 Y51.345 E.01798
G1 X198.853 Y51.257 E.01799
G1 X199.402 Y51.228 E.01724
G1 X199.997 Y51.255 E.01867
G1 X200.565 Y51.341 E.01801
G1 X201.12 Y51.484 E.01797
G1 X201.658 Y51.682 E.01797
G1 X202.173 Y51.933 E.01796
G1 X202.66 Y52.236 E.01798
G1 X203.114 Y52.586 E.01797
G1 X203.53 Y52.98 E.01796
G1 X203.905 Y53.415 E.01801
G1 X204.233 Y53.885 E.01797
G1 X204.512 Y54.386 E.01798
G1 X204.739 Y54.912 E.01796
G1 X204.912 Y55.459 E.01799
G1 X205.028 Y56.02 E.01796
G1 X205.087 Y56.591 E.018
G1 X205.088 Y57.164 E.01797
G1 X205.031 Y57.735 E.01799
G1 X204.916 Y58.296 E.01796
G1 X204.746 Y58.844 E.01799
G1 X204.52 Y59.371 E.01798
G1 X204.243 Y59.873 E.01798
G1 X203.916 Y60.344 E.01798
G1 X203.544 Y60.78 E.01797
G1 X203.129 Y61.175 E.01796
G1 X202.676 Y61.527 E.01799
G1 X202.19 Y61.831 E.01797
G1 X201.675 Y62.085 E.018
G1 X201.138 Y62.285 E.01797
G1 X200.583 Y62.429 E.01798
G1 X200.017 Y62.517 E.01796
G1 X199.444 Y62.547 E.01799
G1 X198.872 Y62.519 E.01796
G1 X198.305 Y62.433 E.01798
G1 X197.749 Y62.29 E.018
G1 X197.233 Y62.1 E.01724
G1 X196.697 Y61.841 E.01867
G1 X196.209 Y61.538 E.01801
G1 X195.755 Y61.188 E.01797
G1 X195.339 Y60.793 E.01799
G1 X194.965 Y60.359 E.01796
G1 X194.636 Y59.889 E.01799
G1 X194.358 Y59.39 E.01791
G1 X194.13 Y58.862 E.01803
G1 X193.958 Y58.315 E.01798
G1 X193.841 Y57.753 E.018
G1 X193.782 Y57.183 E.01797
G1 X193.781 Y56.61 E.01797
G1 X193.838 Y56.039 E.01799
G1 X193.953 Y55.478 E.01796
G1 X194.124 Y54.93 E.018
G1 X194.349 Y54.403 E.01797
G1 X194.626 Y53.901 E.01798
G1 X194.936 Y53.454 E.01706
M204 S1000
;WIPE_START
G1 F8640
G1 X194.973 Y53.407 E-.01381
G1 X195.326 Y52.994 E-.12545
G1 X195.741 Y52.599 E-.13229
G1 X196.193 Y52.247 E-.13228
G1 X196.679 Y51.943 E-.13236
G1 X197.194 Y51.689 E-.13259
G1 X197.731 Y51.489 E-.13232
G1 X198.286 Y51.345 E-.13239
G1 X198.853 Y51.257 E-.13249
G1 X199.402 Y51.228 E-.12694
G1 X199.433 Y51.229 E-.00708
;WIPE_END
G1 Z.6 F720
G1 X196.541 Y44.532 F10800
G1 Z.2 F720
G1 E1.2 F2100
M204 S800
;TYPE:Perimeter
G1 F1200
G1 X196.413 Y44.408 E.00559
G1 X196.22 Y44.052 E.0127
G1 X196.143 Y43.608 E.01413
G1 X196.143 Y42.161 E.04537
G1 X196.217 Y41.731 E.01368
G1 X196.405 Y41.376 E.0126
G1 X196.669 Y41.111 E.01173
G1 X197.034 Y40.917 E.01296
G1 X197.463 Y40.846 E.01363
G1 X201.406 Y40.846 E.12363
G1 X201.832 Y40.916 E.01354
G1 X202.194 Y41.107 E.01283
G1 X202.458 Y41.369 E.01166
G1 X202.649 Y41.721 E.01256
G1 X202.726 Y42.165 E.01413
G1 X202.726 Y43.608 E.04524
G1 X202.669 Y43.993 E.0122
G1 X202.52 Y44.317 E.01118
G1 X202.225 Y44.644 E.01381
G1 X201.92 Y44.824 E.0111
G1 X201.63 Y44.909 E.00948
G1 X198.683 Y44.928 E.0924
G1 X197.463 Y44.928 E.03825
G1 X197.109 Y44.88 E.0112
G1 X196.7 Y44.685 E.01421
G1 X196.585 Y44.574 E.00501
M204 S1000
G1 X196.585 Y44.574 F10800
G1 X196.797 Y44.26
M204 S800
G1 F1200
G1 X196.621 Y44.031 E.00906
G1 X196.524 Y43.693 E.01103
G1 X196.52 Y42.162 E.048
G1 X196.592 Y41.805 E.01142
G1 X196.792 Y41.503 E.01136
G1 X197.086 Y41.302 E.01117
G1 X197.384 Y41.226 E.00964
G1 X197.463 Y41.223 E.00248
G1 X201.406 Y41.223 E.12363
G1 X201.71 Y41.273 E.00966
G1 X202.023 Y41.453 E.01132
G1 X202.251 Y41.748 E.01169
G1 X202.345 Y42.078 E.01076
G1 X202.349 Y42.165 E.00273
G1 X202.349 Y43.608 E.04524
G1 X202.275 Y43.973 E.01168
G1 X202.094 Y44.252 E.01043
G1 X201.818 Y44.457 E.01078
G1 X201.566 Y44.537 E.00829
G1 X198.683 Y44.551 E.0904
G1 X197.463 Y44.551 E.03825
G1 X197.096 Y44.477 E.01174
G1 X196.843 Y44.318 E.00937
G1 X196.834 Y44.307 E.00045
M204 S1000
G1 X196.834 Y44.307 F10800
G1 X197.077 Y43.998
M204 S800
G1 F1200
G1 X196.986 Y43.912 E.00393
G1 X196.899 Y43.642 E.00889
G1 X196.898 Y42.164 E.04634
G1 X196.97 Y41.888 E.00894
G1 X197.158 Y41.689 E.00858
G1 X197.463 Y41.6 E.00996
G1 X201.406 Y41.6 E.12363
G1 X201.671 Y41.666 E.00856
G1 X201.878 Y41.854 E.00877
G1 X201.969 Y42.113 E.00861
G1 X201.972 Y43.608 E.04687
G1 X201.899 Y43.886 E.00901
G1 X201.733 Y44.07 E.00777
G1 X201.502 Y44.166 E.00784
G1 X198.683 Y44.174 E.08839
G1 X197.463 Y44.174 E.03825
G1 X197.191 Y44.104 E.00881
G1 X197.121 Y44.039 E.003
M204 S1000
G1 X197.121 Y44.039 F10800
G1 X197.361 Y43.749
M204 S800
;TYPE:External perimeter
G1 F1200
G1 X197.319 Y43.73 E.00145
G1 X197.275 Y43.608 E.00407
G1 X197.275 Y42.165 E.04524
G1 X197.339 Y42.024 E.00486
G1 X197.463 Y41.977 E.00416
G1 X201.406 Y41.977 E.12363
G1 X201.548 Y42.042 E.0049
G1 X201.595 Y42.165 E.00413
G1 X201.595 Y43.608 E.04524
G1 X201.53 Y43.75 E.0049
G1 X201.406 Y43.797 E.00416
G1 X198.683 Y43.797 E.08538
G1 X197.463 Y43.797 E.03825
G1 X197.415 Y43.775 E.00166
M204 S1000
;WIPE_START
G1 F8640
G1 X197.361 Y43.749 E-.01384
G1 X197.319 Y43.73 E-.01064
G1 X197.275 Y43.608 E-.02995
G1 X197.275 Y42.165 E-.33319
G1 X197.339 Y42.024 E-.03575
G1 X197.463 Y41.977 E-.03062
G1 X200.694 Y41.977 E-.74601
;WIPE_END
G1 Z.6 F720
G1 X202.328 Y69.242 F10800
G1 Z.2 F720
G1 E1.2 F2100
M204 S800
;TYPE:Perimeter
G1 F1200
G1 X202.456 Y69.366 E.00559
G1 X202.649 Y69.722 E.0127
G1 X202.687 Y69.847 E.0041
G1 X202.726 Y70.165 E.01005
G1 X202.726 Y71.608 E.04524
G1 X202.668 Y71.995 E.01227
G1 X202.484 Y72.37 E.0131
G1 X202.197 Y72.665 E.0129
G1 X201.878 Y72.841 E.01142
G1 X201.504 Y72.925 E.01202
G1 X201.406 Y72.928 E.00307
G1 X197.463 Y72.928 E.12363
G1 X197.089 Y72.874 E.01185
G1 X196.686 Y72.675 E.01409
G1 X196.399 Y72.389 E.0127
G1 X196.209 Y72.021 E.01299
G1 X196.143 Y71.608 E.01311
G1 X196.143 Y70.165 E.04524
G1 X196.201 Y69.781 E.01218
G1 X196.35 Y69.457 E.01118
G1 X196.647 Y69.129 E.01387
G1 X196.956 Y68.947 E.01124
G1 X197.239 Y68.865 E.00924
G1 X198.284 Y68.846 E.03277
G1 X201.406 Y68.846 E.09789
G1 X201.761 Y68.894 E.01123
G1 X202.169 Y69.089 E.01418
G1 X202.285 Y69.2 E.00503
M204 S1000
G1 X202.285 Y69.2 F10800
G1 X202.072 Y69.514
M204 S800
G1 F1200
G1 X202.249 Y69.743 E.00907
G1 X202.321 Y69.938 E.00652
G1 X202.349 Y70.165 E.00717
G1 X202.349 Y71.608 E.04524
G1 X202.276 Y71.972 E.01164
G1 X202.064 Y72.283 E.0118
G1 X201.805 Y72.463 E.00989
G1 X201.476 Y72.549 E.01066
G1 X201.406 Y72.551 E.0022
G1 X197.463 Y72.551 E.12363
G1 X197.133 Y72.491 E.01052
G1 X196.815 Y72.293 E.01175
G1 X196.601 Y71.989 E.01166
G1 X196.521 Y71.634 E.01141
G1 X196.52 Y70.165 E.04606
G1 X196.594 Y69.801 E.01165
G1 X196.775 Y69.521 E.01045
G1 X197.058 Y69.314 E.01099
G1 X197.431 Y69.223 E.01204
G1 X201.406 Y69.223 E.12463
G1 X201.773 Y69.297 E.01174
G1 X202.026 Y69.456 E.00937
G1 X202.035 Y69.467 E.00045
M204 S1000
G1 X202.035 Y69.467 F10800
G1 X201.792 Y69.776
M204 S800
G1 F1200
G1 X201.883 Y69.862 E.00393
G1 X201.955 Y70.029 E.0057
G1 X201.972 Y70.165 E.0043
G1 X201.972 Y71.608 E.04524
G1 X201.902 Y71.881 E.00884
G1 X201.714 Y72.083 E.00865
G1 X201.406 Y72.174 E.01007
G1 X197.463 Y72.174 E.12363
G1 X197.194 Y72.106 E.0087
G1 X196.989 Y71.917 E.00874
G1 X196.899 Y71.654 E.00872
G1 X196.898 Y70.159 E.04687
G1 X196.97 Y69.888 E.00879
G1 X197.138 Y69.703 E.00784
G1 X197.367 Y69.608 E.00777
G1 X201.406 Y69.6 E.12664
G1 X201.678 Y69.669 E.0088
G1 X201.748 Y69.735 E.00302
M204 S1000
G1 X201.748 Y69.735 F10800
G1 X201.508 Y70.025
M204 S800
;TYPE:External perimeter
G1 F1200
G1 X201.55 Y70.044 E.00145
G1 X201.589 Y70.12 E.00268
G1 X201.595 Y71.608 E.04666
G1 X201.529 Y71.752 E.00497
G1 X201.406 Y71.797 E.00411
G1 X197.463 Y71.797 E.12363
G1 X197.318 Y71.729 E.00502
G1 X197.275 Y71.608 E.00403
G1 X197.275 Y70.163 E.04531
G1 X197.347 Y70.017 E.0051
G1 X197.463 Y69.977 E.00385
G1 X201.406 Y69.977 E.12363
G1 X201.454 Y69.999 E.00166
M204 S1000
;WIPE_START
G1 F8640
G1 X201.508 Y70.025 E-.01384
G1 X201.55 Y70.044 E-.01064
G1 X201.589 Y70.12 E-.01972
G1 X201.595 Y71.608 E-.34359
G1 X201.529 Y71.752 E-.03658
G1 X201.406 Y71.797 E-.03024
G1 X198.178 Y71.797 E-.74539
;WIPE_END
G1 Z.6 F720
G1 X174.166 Y56.221 F10800
G1 Z.2 F720
G1 E1.2 F2100
M204 S800
;TYPE:Perimeter
G1 F1200
G1 X174.218 Y56.649 E.01352
G1 X174.21 Y57.263 E.01925
G1 X174.122 Y57.87 E.01923
G1 X173.958 Y58.462 E.01926
G1 X173.72 Y59.027 E.01922
G1 X173.412 Y59.555 E.01917
G1 X173.037 Y60.044 E.01932
G1 X172.603 Y60.479 E.01927
G1 X172.118 Y60.854 E.01922
G1 X171.589 Y61.165 E.01924
G1 X171.024 Y61.405 E.01925
G1 X170.433 Y61.571 E.01925
G1 X169.826 Y61.661 E.01924
G1 X169.212 Y61.672 E.01925
G1 X168.602 Y61.604 E.01924
G1 X168.006 Y61.459 E.01923
G1 X167.433 Y61.238 E.01926
G1 X166.893 Y60.947 E.01923
G1 X166.395 Y60.588 E.01925
G1 X165.946 Y60.169 E.01926
G1 X165.555 Y59.696 E.01924
G1 X165.228 Y59.177 E.01923
G1 X164.97 Y58.62 E.01925
G1 X164.785 Y58.035 E.01924
G1 X164.676 Y57.431 E.01924
G1 X164.645 Y56.818 E.01924
G1 X164.694 Y56.206 E.01925
G1 X164.82 Y55.605 E.01925
G1 X165.021 Y55.026 E.01922
