; generated by PrusaSlicer 2.8.0+win64 on 2025-02-20 at 18:24:57 UTC


;
;
; 

; external perimeters extrusion width = 0.45mm
; perimeters extrusion width = 0.45mm
; infill extrusion width = 0.45mm
; solid infill extrusion width = 0.45mm
; top infill extrusion width = 0.40mm
; support material extrusion width = 0.35mm
; first layer extrusion width = 0.42mm

M73 P0 R12
M73 Q0 S12
M201 X1000 Y1000 Z200 E5000 ; sets maximum accelerations, mm/sec^2
M203 X200 Y200 Z12 E120 ; sets maximum feedrates, mm / sec
M204 S1250 T1250 ; sets acceleration (S) and retract acceleration (R), mm/sec^2
M205 X8.00 Y8.00 Z0.40 E4.50 ; sets the jerk limits, mm/sec
M205 S0 T0 ; sets the minimum extruding and travel feed rate, mm/sec

; printing object 5mm_t_nut_holder.stl id:0 copy 0
; stop printing object 5mm_t_nut_holder.stl id:0 copy 0

;TYPE:Custom
M862.3 P "MK3S" ; printer model check
M862.1 P0.4 ; nozzle diameter check
M115 U3.13.3 ; tell printer latest fw version
G90 ; use absolute coordinates
M83 ; extruder relative mode
M104 S200 ; set extruder temp
M140 S67 ; set bed temp
M190 S67 ; wait for bed temp
M109 S200 ; wait for extruder temp
G28 W ; home all without mesh bed level
G80 X112.1 Y94.3921 W25.8 H21.2159 ; mesh bed levelling

G1 Z0.2 F720
G1 Y-3 F1000 ; go outside print area
G92 E0
G1 X60 E9 F1000 ; intro line
G1 X100 E12.5 F1000 ; intro line

G92 E0
M221 S95

; Don't change E values below. Excessive value can damage the printer.

M907 E538 ; set extruder motor current
G21 ; set units to millimeters
G90 ; use absolute coordinates
M83 ; use relative distances for extrusion
M900 K0.05 ; Filament gcode LA 1.5
M900 K30 ; Filament gcode LA 1.0
M107
;LAYER_CHANGE
;Z:0.2
;HEIGHT:0.2
G1 E-1.2 F2100
G1 Z.6 F720
G1 X113.091 Y97.048 F10800
G1 Z.2 F720
G1 E1.2 F2100
M73 Q1 S12
M204 S800
;TYPE:Skirt/Brim
;WIDTH:0.42
G1 F1200
G1 X114.729 Y95.441 E.07195
G1 X115.587 Y95.05 E.02956
G1 X116.49 Y94.827 E.02916
G1 X123.407 Y94.784 E.21688
G1 X125.247 Y94.681 E.05778
M73 P1 R12
G1 X126.286 Y94.776 E.03271
G1 X133.548 Y94.834 E.2277
G1 X135.222 Y95.413 E.05554
G1 X135.904 Y95.92 E.02665
G1 X136.841 Y96.95 E.04366
G1 X137.299 Y97.87 E.03222
G1 X137.613 Y99.182 E.0423
G1 X137.613 Y110.819 E.36487
G1 X137.297 Y112.131 E.04231
G1 X136.908 Y112.953 E.02851
G1 X135.243 Y114.575 E.07288
G1 X134.229 Y115.01 E.0346
G1 X133.143 Y115.213 E.03464
G1 X126.572 Y115.216 E.20603
G1 X125.008 Y115.321 E.04915
G1 X123.427 Y115.216 E.04968
G1 X116.779 Y115.213 E.20844
G1 X115.469 Y114.897 E.04225
G1 X114.704 Y114.538 E.0265
G1 X113.736 Y113.747 E.0392
G1 X113.117 Y112.996 E.03051
G1 X112.387 Y110.865 E.07063
G1 X112.387 Y99.181 E.36634
G1 X112.703 Y97.869 E.04231
G1 X113.066 Y97.102 E.02661
M204 S1000
G1 X113.066 Y97.102 F10800
G1 X113.405 Y97.264
M204 S800
G1 F1200
G1 X113.417 Y97.24 E.00084
G1 X114.916 Y95.77 E.06583
G1 X115.695 Y95.412 E.02688
G1 X116.559 Y95.198 E.02791
G1 X123.419 Y95.161 E.21509
G1 X125.227 Y95.058 E.05678
G1 X126.565 Y95.161 E.04208
G1 X133.455 Y95.201 E.21603
G1 X135.023 Y95.735 E.05194
G1 X135.64 Y96.189 E.02402
G1 X136.516 Y97.144 E.04063
G1 X136.938 Y97.981 E.02939
G1 X137.236 Y99.205 E.0395
G1 X137.236 Y110.796 E.36343
G1 X136.936 Y112.022 E.03957
G1 X136.583 Y112.76 E.02565
G1 X135.061 Y114.243 E.06663
G1 X134.137 Y114.644 E.03158
G1 X133.125 Y114.836 E.0323
G1 X126.56 Y114.839 E.20584
G1 X124.995 Y114.944 E.04918
G1 X123.44 Y114.839 E.04887
G1 X116.802 Y114.836 E.20813
G1 X115.578 Y114.536 E.03951
G1 X114.888 Y114.208 E.02395
G1 X113.991 Y113.468 E.03646
G1 X113.431 Y112.784 E.02772
G1 X112.764 Y110.834 E.06462
M73 Q2 S12
G1 X112.764 Y99.204 E.36465
G1 X113.064 Y97.978 E.03957
M73 P2 R12
G1 X113.38 Y97.319 E.02292
M204 S1000
G1 X113.38 Y97.319 F10800
G1 X113.719 Y97.483
M204 S800
G1 F1200
G1 X113.742 Y97.434 E.0017
G1 X115.103 Y96.099 E.05978
G1 X115.836 Y95.762 E.0253
G1 X116.626 Y95.57 E.02549
G1 X123.431 Y95.538 E.21337
G1 X125.207 Y95.435 E.05578
G1 X126.241 Y95.529 E.03255
G1 X133.365 Y95.568 E.22337
G1 X134.825 Y96.057 E.04828
G1 X135.376 Y96.459 E.02139
G1 X136.193 Y97.339 E.03765
G1 X136.577 Y98.094 E.02656
G1 X136.859 Y99.229 E.03667
G1 X136.859 Y110.772 E.36192
G1 X136.575 Y111.911 E.03681
G1 X136.258 Y112.566 E.02282
G1 X134.88 Y113.911 E.06038
G1 X134.007 Y114.289 E.02983
G1 X133.108 Y114.459 E.02869
G1 X126.558 Y114.462 E.20537
G1 X125.01 Y114.567 E.04865
G1 X123.442 Y114.462 E.04927
G1 X116.826 Y114.459 E.20744
G1 X115.689 Y114.175 E.03675
G1 X115.073 Y113.879 E.02143
G1 X114.247 Y113.191 E.03371
G1 X113.745 Y112.573 E.02496
G1 X113.141 Y110.803 E.05864
G1 X113.141 Y99.228 E.36293
G1 X113.425 Y98.089 E.03681
G1 X113.692 Y97.537 E.01923
M204 S1000
G1 X113.692 Y97.537 F10800
G1 X114.03 Y97.702
M204 S800
G1 F1200
G1 X114.066 Y97.629 E.00255
G1 X115.29 Y96.428 E.05377
G1 X115.976 Y96.113 E.02367
G1 X116.692 Y95.942 E.02308
G1 X123.443 Y95.915 E.21167
G1 X125.186 Y95.811 E.05475
G1 X126.553 Y95.915 E.04299
G1 X133.276 Y95.936 E.2108
G1 X134.628 Y96.38 E.04462
G1 X135.114 Y96.731 E.0188
G1 X135.87 Y97.536 E.03463
G1 X136.217 Y98.208 E.02371
G1 X136.482 Y99.252 E.03377
G1 X136.482 Y110.748 E.36045
G1 X136.214 Y111.798 E.03398
G1 X135.934 Y112.371 E.02
G1 X134.697 Y113.58 E.05423
G1 X133.914 Y113.923 E.0268
G1 X133.089 Y114.082 E.02634
G1 X126.553 Y114.085 E.20493
G1 X124.995 Y114.19 E.04896
G1 X123.447 Y114.085 E.04865
G1 X116.85 Y114.082 E.20684
G1 X115.802 Y113.814 E.03392
M73 Q3 S12
G1 X115.26 Y113.55 E.0189
G1 X114.504 Y112.915 E.03096
M73 P3 R12
G1 X114.059 Y112.362 E.02226
G1 X113.518 Y110.772 E.05266
G1 X113.518 Y99.252 E.3612
G1 X113.786 Y98.202 E.03398
G1 X114.004 Y97.756 E.01557
M204 S1000
G1 X114.341 Y97.923 F10800
M204 S800
G1 F1200
G1 X114.389 Y97.826 E.00339
G1 X115.479 Y96.756 E.04789
G1 X116.082 Y96.475 E.02086
G1 X116.758 Y96.314 E.02179
G1 X123.455 Y96.292 E.20998
G1 X125.167 Y96.188 E.05378
G1 X126.196 Y96.282 E.0324
G1 X133.189 Y96.304 E.21926
G1 X134.434 Y96.704 E.041
G1 X134.854 Y97.005 E.0162
G1 X135.549 Y97.735 E.0316
G1 X135.858 Y98.325 E.02088
G1 X136.105 Y99.277 E.03084
G1 X136.105 Y110.724 E.35891
G1 X135.855 Y111.683 E.03107
G1 X135.611 Y112.174 E.01719
G1 X134.512 Y113.249 E.0482
G1 X133.82 Y113.558 E.02376
G1 X133.07 Y113.705 E.02396
G1 X126.547 Y113.708 E.20452
G1 X125.01 Y113.813 E.0483
G1 X123.453 Y113.708 E.04893
G1 X116.875 Y113.705 E.20625
G1 X115.917 Y113.455 E.03104
M73 P3 R11
G1 X115.448 Y113.223 E.01641
G1 X114.763 Y112.64 E.0282
G1 X114.375 Y112.153 E.01952
G1 X113.895 Y110.741 E.04676
G1 X113.895 Y99.276 E.35948
G1 X114.145 Y98.317 E.03107
G1 X114.314 Y97.977 E.0119
M204 S1000
G1 X114.649 Y98.147 F10800
M204 S800
G1 F1200
G1 X114.712 Y98.024 E.00433
G1 X115.667 Y97.084 E.04202
G1 X116.223 Y96.826 E.01922
G1 X116.823 Y96.686 E.01932
G1 X123.458 Y96.669 E.20804
G1 X125.148 Y96.565 E.05309
G1 X126.542 Y96.669 E.04383
G1 X133.104 Y96.672 E.20575
G1 X134.242 Y97.03 E.03741
G1 X134.596 Y97.28 E.01359
G1 X135.229 Y97.937 E.02861
G1 X135.5 Y98.444 E.01803
G1 X135.728 Y99.302 E.02784
G1 X135.728 Y110.698 E.35731
G1 X135.496 Y111.566 E.02817
G1 X135.288 Y111.976 E.01441
G1 X134.328 Y112.919 E.04219
G1 X133.686 Y113.204 E.02202
G1 X133.052 Y113.328 E.02026
G1 X126.542 Y113.331 E.20412
G1 X124.995 Y113.436 E.04862
M73 Q3 S11
G1 X123.458 Y113.331 E.0483
G1 X116.901 Y113.328 E.20559
G1 X116.034 Y113.096 E.02814
M73 Q4 S11
G1 X115.64 Y112.897 E.01384
G1 X115.023 Y112.367 E.0255
G1 X114.691 Y111.946 E.01681
G1 X114.272 Y110.71 E.04092
G1 X114.272 Y99.302 E.35769
M73 P4 R11
G1 X114.504 Y98.434 E.02817
G1 X114.622 Y98.2 E.00822
M204 S1000
G1 X114.622 Y98.2 F10800
G1 X114.956 Y98.372
M204 S800
G1 F1200
G1 X115.032 Y98.223 E.00524
G1 X115.858 Y97.411 E.03632
G1 X116.329 Y97.188 E.01634
G1 X116.887 Y97.058 E.01796
G1 X123.463 Y97.046 E.20619
G1 X125.13 Y96.942 E.05237
G1 X126.151 Y97.036 E.03215
G1 X133.075 Y97.049 E.2171
G1 X134.051 Y97.356 E.03208
G1 X134.912 Y98.141 E.03653
G1 X135.142 Y98.566 E.01515
G1 X135.351 Y99.328 E.02477
G1 X135.351 Y110.672 E.35568
G1 X135.138 Y111.445 E.02514
G1 X134.968 Y111.776 E.01167
G1 X134.141 Y112.589 E.03636
G1 X133.59 Y112.839 E.01897
G1 X133.033 Y112.951 E.01781
G1 X126.537 Y112.954 E.20368
G1 X125.01 Y113.058 E.04799
G1 X123.463 Y112.954 E.04861
G1 X116.927 Y112.951 E.20493
G1 X116.154 Y112.738 E.02514
G1 X115.833 Y112.573 E.01132
G1 X115.286 Y112.095 E.02278
G1 X115.008 Y111.739 E.01416
G1 X114.649 Y110.679 E.03509
G1 X114.649 Y99.328 E.3559
G1 X114.862 Y98.555 E.02514
G1 X114.928 Y98.425 E.00457
M204 S1000
G1 X114.928 Y98.425 F10800
G1 X115.306 Y98.558
M204 S800
G1 F1200
G1 X115.352 Y98.426 E.00438
G1 X116.048 Y97.738 E.03068
G1 X116.471 Y97.538 E.01467
G1 X116.949 Y97.43 E.01537
G1 X123.469 Y97.423 E.20443
G1 X125.111 Y97.319 E.05159
G1 X126.531 Y97.423 E.04464
G1 X133.046 Y97.426 E.20427
G1 X133.862 Y97.683 E.02682
G1 X134.596 Y98.349 E.03108
G1 X134.786 Y98.691 E.01227
G1 X134.974 Y99.355 E.02164
G1 X134.974 Y110.645 E.35399
G1 X134.648 Y111.574 E.03087
G1 X133.953 Y112.261 E.03064
G1 X133.491 Y112.475 E.01596
G1 X133.013 Y112.574 E.01531
G1 X126.531 Y112.577 E.20324
G1 X124.995 Y112.681 E.04827
G1 X123.469 Y112.577 E.04796
G1 X116.954 Y112.574 E.20427
G1 X116.03 Y112.251 E.03069
G1 X115.326 Y111.535 E.03148
G1 X115.026 Y110.648 E.02936
G1 X115.026 Y99.355 E.35408
G1 X115.286 Y98.614 E.02462
M73 P5 R11
M73 Q5 S11
M204 S1000
G1 X115.286 Y98.614 F10800
G1 X115.632 Y98.737
M204 S800
G1 F1200
G1 X115.669 Y98.63 E.00355
G1 X116.238 Y98.065 E.02514
G1 X117.008 Y97.803 E.0255
G1 X123.474 Y97.801 E.20274
G1 X125.093 Y97.696 E.05087
G1 X126.106 Y97.789 E.0319
G1 X133.017 Y97.803 E.21669
G1 X133.675 Y98.012 E.02165
G1 X134.282 Y98.56 E.02564
G1 X134.597 Y99.383 E.02763
G1 X134.597 Y110.617 E.35223
G1 X134.331 Y111.37 E.02504
G1 X133.762 Y111.935 E.02514
G1 X132.992 Y112.197 E.0255
G1 X126.526 Y112.199 E.20274
G1 X125.01 Y112.304 E.04765
G1 X123.474 Y112.199 E.04827
G1 X116.982 Y112.197 E.20355
G1 X116.231 Y111.931 E.02498
G1 X115.645 Y111.332 E.02627
G1 X115.403 Y110.617 E.02367
G1 X115.403 Y99.383 E.35223
G1 X115.612 Y98.793 E.01963
M204 S1000
G1 X115.612 Y98.793 F10800
G1 X115.957 Y98.916
M204 S800
G1 F1200
G1 X115.984 Y98.839 E.00256
G1 X116.43 Y98.392 E.0198
G1 X117.028 Y98.18 E.01989
G1 X123.48 Y98.178 E.2023
G1 X125.075 Y98.073 E.05012
G1 X126.52 Y98.178 E.04543
G1 X132.987 Y98.18 E.20277
G1 X133.493 Y98.343 E.01667
G1 X133.972 Y98.775 E.02022
G1 X134.22 Y99.412 E.02143
G1 X134.22 Y110.588 E.35042
G1 X134.016 Y111.161 E.01907
G1 X133.57 Y111.608 E.0198
G1 X132.972 Y111.82 E.01989
G1 X126.52 Y111.822 E.2023
G1 X124.994 Y111.927 E.04796
G1 X123.48 Y111.822 E.04758
G1 X117.012 Y111.82 E.2028
G1 X116.437 Y111.615 E.01914
G1 X115.966 Y111.133 E.02113
G1 X115.78 Y110.586 E.01812
G1 X115.78 Y99.412 E.35035
G1 X115.937 Y98.972 E.01465
M204 S1000
G1 X115.937 Y98.972 F10800
G1 X116.28 Y99.092
M204 S800
G1 F1200
G1 X116.294 Y99.054 E.00127
G1 X116.622 Y98.718 E.01472
G1 X117.047 Y98.557 E.01425
G1 X123.485 Y98.555 E.20186
G1 X125.057 Y98.45 E.0494
G1 X126.061 Y98.542 E.03161
G1 X132.956 Y98.557 E.21619
G1 X133.347 Y98.694 E.01299
G1 X133.729 Y99.098 E.01743
M73 Q6 S11
G1 X133.843 Y99.444 E.01142
G1 X133.843 Y110.556 E.34841
G1 X133.706 Y110.946 E.01296
M73 P6 R11
G1 X133.378 Y111.282 E.01472
G1 X132.953 Y111.443 E.01425
G1 X126.515 Y111.445 E.20186
G1 X124.979 Y111.55 E.04827
G1 X123.485 Y111.445 E.04696
G1 X117.044 Y111.443 E.20195
G1 X116.652 Y111.305 E.01303
G1 X116.289 Y110.937 E.01621
G1 X116.157 Y110.554 E.0127
G1 X116.157 Y99.444 E.34835
G1 X116.26 Y99.149 E.0098
M204 S1000
G1 X116.26 Y99.149 F10800
G1 X116.608 Y99.274
M204 S800
G1 F1200
G1 X116.611 Y99.266 E.00027
G1 X116.818 Y99.042 E.00956
G1 X117.065 Y98.934 E.00845
G1 X123.49 Y98.932 E.20145
G1 X125.04 Y98.827 E.04871
G1 X126.51 Y98.932 E.04621
G1 X132.921 Y98.934 E.20101
G1 X133.134 Y99.011 E.0071
G1 X133.368 Y99.228 E.01001
G1 X133.466 Y99.479 E.00845
G1 X133.466 Y110.521 E.34621
G1 X133.389 Y110.734 E.0071
G1 X133.182 Y110.958 E.00956
G1 X132.935 Y111.066 E.00845
G1 X126.51 Y111.068 E.20145
G1 X124.995 Y111.173 E.04762
G1 X123.49 Y111.068 E.0473
G1 X117.079 Y111.066 E.20101
G1 X116.866 Y110.989 E.0071
G1 X116.632 Y110.772 E.01001
G1 X116.534 Y110.521 E.00845
G1 X116.534 Y99.479 E.34621
G1 X116.588 Y99.33 E.00497
M204 S1000
G1 X116.588 Y99.33 F10800
G1 X116.94 Y99.452
M204 S800
G1 F1200
G1 X117.121 Y99.311 E.00719
G1 X123.496 Y99.309 E.19988
G1 X125.022 Y99.204 E.04796
G1 X126.016 Y99.295 E.0313
G1 X132.879 Y99.311 E.21519
G1 X133.06 Y99.452 E.00719
G1 X133.06 Y110.548 E.34791
G1 X132.879 Y110.689 E.00719
G1 X126.504 Y110.691 E.19988
G1 X125.011 Y110.796 E.04693
G1 X123.496 Y110.691 E.04762
G1 X117.052 Y110.66 E.20205
G1 X116.911 Y110.479 E.00719
G1 X116.94 Y99.512 E.34386
M204 S1000
;WIPE_START
G1 F8640
M73 P7 R11
M73 Q7 S11
G1 X116.94 Y99.452 E-.01385
G1 X117.121 Y99.311 E-.05298
G1 X122.028 Y99.309 E-1.13317
;WIPE_END
G1 Z.6 F720
; printing object 5mm_t_nut_holder.stl id:0 copy 0
G1 X128.29 Y103.101 F10800
G1 Z.2 F720
G1 E1.2 F2100
M204 S800
;TYPE:Support material
G1 F1200
G1 X128.29 Y106.899 E.11908
G1 X125 Y108.799 E.11912
G1 X121.71 Y106.899 E.11912
G1 X121.71 Y103.101 E.11908
G1 X125 Y101.201 E.11912
G1 X128.241 Y103.072 E.11734
M204 S1000
G1 X128.241 Y103.072 F10800
G1 X127.933 Y106.91
M204 S800
G1 F1200
G1 X127.933 Y103.286 E.11363
G1 X127.514 Y103.044 E.01517
G1 X127.514 Y106.956 E.12266
G1 X127.095 Y107.198 E.01517
G1 X127.095 Y102.802 E.13783
G1 X126.676 Y102.56 E.01517
G1 X126.676 Y107.44 E.15301
G1 X126.257 Y107.681 E.01516
G1 X126.257 Y102.319 E.16812
G1 X125.838 Y102.077 E.01517
G1 X125.838 Y107.923 E.1833
G1 X125.419 Y108.165 E.01517
G1 X125.419 Y101.835 E.19847
G1 X125 Y101.593 E.01517
G1 X125 Y108.407 E.21365
G1 X124.581 Y108.165 E.01517
G1 X124.581 Y101.835 E.19847
G1 X124.162 Y102.077 E.01517
G1 X124.162 Y107.923 E.1833
G1 X123.743 Y107.681 E.01517
G1 X123.743 Y102.319 E.16812
G1 X123.324 Y102.56 E.01516
G1 X123.324 Y107.44 E.15301
G1 X122.905 Y107.198 E.01517
G1 X122.905 Y102.802 E.13783
G1 X122.486 Y103.044 E.01517
G1 X122.486 Y106.956 E.12266
G1 X122.067 Y106.714 E.01517
G1 X122.067 Y103.09 E.11363
M204 S1000
;WIPE_START
G1 F8640
G1 X122.067 Y106.714 E-.83679
G1 X122.486 Y106.956 E-.11173
G1 X122.486 Y105.867 E-.25148
;WIPE_END
G1 Z.6 F720
G1 X129.385 Y107.523 F10800
G1 Z.2 F720
G1 E1.2 F2100
M204 S800
;TYPE:External perimeter
;WIDTH:0.419999
G1 F1200
G1 X129.381 Y107.537 E.00046
G1 X129.315 Y107.601 E.00288
G1 X126.001 Y109.507 E.11987
G1 X125.07 Y109.922 E.03196
;WIDTH:0.420541
G1 X124.923 Y109.921 E.00462
G1 X124.15 Y109.576 E.02658
;WIDTH:0.419999
G1 X123.726 Y109.35 E.01506
G1 X120.685 Y107.601 E.10999
G1 X120.593 Y107.47 E.00502
M73 Q8 S11
G1 X120.59 Y107.437 E.00104
G1 X120.59 Y102.563 E.15282
G1 X120.619 Y102.463 E.00326
M73 P8 R11
G1 X120.684 Y102.399 E.00286
G1 X123.626 Y100.702 E.10649
G1 X124.17 Y100.415 E.01928
G1 X124.931 Y100.08 E.02607
;WIDTH:0.417075
G1 X125.07 Y100.078 E.00432
;WIDTH:0.419999
G1 X125.562 Y100.276 E.01663
G1 X126.404 Y100.719 E.02983
G1 X129.316 Y102.399 E.10541
G1 X129.381 Y102.463 E.00286
G1 X129.41 Y102.563 E.00326
G1 X129.41 Y107.437 E.15282
G1 X129.402 Y107.465 E.00091
M204 S1000
;WIPE_START
G1 F8640
G1 X129.385 Y107.523 E-.01396
G1 X129.381 Y107.537 E-.00336
G1 X129.315 Y107.601 E-.02123
G1 X126.001 Y109.507 E-.88274
G1 X125.07 Y109.922 E-.23536
G1 X124.923 Y109.921 E-.03394
G1 X124.886 Y109.904 E-.00941
;WIPE_END
G1 Z.6 F720
G1 X131 Y102.563 F10800
G1 Z.2 F720
G1 E1.2 F2100
M204 S800
;TYPE:Perimeter
;WIDTH:0.583368
G1 F1200
G1 X130.893 Y102.26 E.01444
;WIDTH:0.541842
G1 X130.785 Y101.957 E.01334
;WIDTH:0.500315
G1 X130.678 Y101.655 E.01219
;WIDTH:0.458788
G1 X130.349 Y101.337 E.01582
G1 X131.062 Y101.337 E.02466
G1 X131.062 Y101.545 E.00719
;WIDTH:0.500315
G1 X131.042 Y101.884 E.01292
;WIDTH:0.541842
G1 X131.021 Y102.223 E.01409
;WIDTH:0.583368
G1 X131.004 Y102.503 E.01261
M204 S1000
;WIPE_START
G1 F8640
G1 X131 Y102.563 E-.01388
G1 X130.893 Y102.26 E-.0742
G1 X130.785 Y101.957 E-.07428
G1 X130.678 Y101.655 E-.07398
G1 X130.349 Y101.337 E-.10565
G1 X131.062 Y101.337 E-.16463
G1 X131.062 Y101.545 E-.04803
