; generated by PrusaSlicer 2.8.0+win64 on 2025-02-15 at 18:16:47 UTC


;
;
; 

; external perimeters extrusion width = 0.60mm
; perimeters extrusion width = 0.50mm
; infill extrusion width = 0.50mm
; solid infill extrusion width = 0.50mm
; top infill extrusion width = 0.45mm
; first layer extrusion width = 0.42mm

M73 P0 R31
M73 Q0 S31
M201 X1000 Y1000 Z200 E5000 ; sets maximum accelerations, mm/sec^2
M203 X200 Y200 Z12 E120 ; sets maximum feedrates, mm / sec
M204 S1250 T1250 ; sets acceleration (S) and retract acceleration (R), mm/sec^2
M205 X8.00 Y8.00 Z0.40 E4.50 ; sets the jerk limits, mm/sec
M205 S0 T0 ; sets the minimum extruding and travel feed rate, mm/sec

; printing object 775_to_300W_ring_adapter.stl id:0 copy 0
; stop printing object 775_to_300W_ring_adapter.stl id:0 copy 0

;TYPE:Custom
M862.3 P "MK3S" ; printer model check
M862.1 P0.4 ; nozzle diameter check
M115 U3.13.3 ; tell printer latest fw version
G90 ; use absolute coordinates
M83 ; extruder relative mode
M104 S200 ; set extruder temp
M140 S67 ; set bed temp
M190 S67 ; wait for bed temp
M109 S200 ; wait for extruder temp
G28 W ; home all without mesh bed level
G80 X152.008 Y15.388 W52.7997 H51.8 ; mesh bed levelling

G1 Z0.2 F720
G1 Y-3 F1000 ; go outside print area
G92 E0
G1 X60 E9 F1000 ; intro line
G1 X100 E12.5 F1000 ; intro line

G92 E0
M221 S95

; Don't change E values below. Excessive value can damage the printer.

G21 ; set units to millimeters
G90 ; use absolute coordinates
M83 ; use relative distances for extrusion
M900 K0.05 ; Filament gcode LA 1.5
M900 K30 ; Filament gcode LA 1.0
M107
;LAYER_CHANGE
;Z:0.2
;HEIGHT:0.2
G1 E-1.2 F2100
G1 Z.6 F720
G1 X153.13 Y35.518 F10800
G1 Z.2 F720
G1 E1.2 F2100
M204 S800
;TYPE:Skirt/Brim
;WIDTH:0.42
G1 F1200
G1 X153.569 Y33.625 E.06093
G1 X154.146 Y31.863 E.05813
G1 X154.846 Y30.153 E.05793
G1 X156.104 Y27.718 E.08593
G1 X157.094 Y26.159 E.0579
G1 X158.202 Y24.663 E.05837
G1 X160.014 Y22.624 E.08553
G1 X161.357 Y21.358 E.05787
G1 X162.784 Y20.192 E.05778
G1 X165.058 Y18.651 E.08613
G1 X166.696 Y17.742 E.05874
G1 X169.194 Y16.635 E.08567
G1 X171.236 Y15.974 E.0673
G1 X174.78 Y15.948 E.11112
G1 X175.301 Y16.06 E.01671
G1 X175.946 Y16.382 E.0226
G1 X176.501 Y16.906 E.02393
G1 X176.879 Y17.57 E.02396
G1 X177.238 Y19.465 E.06047
G1 X177.222 Y20.034 E.01785
G1 X177.071 Y20.614 E.01879
G1 X176.459 Y21.518 E.03423
G1 X176.127 Y21.782 E.0133
G1 X175.463 Y22.109 E.02321
G1 X173.231 Y22.612 E.07174
G1 X171.227 Y23.307 E.06651
G1 X169.312 Y24.222 E.06655
G1 X167.513 Y25.346 E.06651
G1 X165.851 Y26.664 E.06651
G1 X164.347 Y28.161 E.06653
G1 X163.02 Y29.816 E.06651
G1 X162.243 Y30.998 E.04435
G1 X161.563 Y32.221 E.04388
G1 X160.698 Y34.192 E.06749
G1 X160.258 Y35.521 E.04389
G1 X159.782 Y37.588 E.06651
G1 X159.595 Y38.99 E.04435
G1 X159.512 Y41.11 E.06652
G1 X159.629 Y42.874 E.05543
G1 X159.902 Y44.621 E.05544
G1 X160.241 Y45.995 E.04437
G1 X160.939 Y47.998 E.06651
G1 X161.857 Y49.911 E.06653
G1 X162.984 Y51.708 E.06651
G1 X164.295 Y53.357 E.06605
G1 X165.815 Y54.88 E.06747
G1 X167.462 Y56.194 E.06606
G1 X169.257 Y57.324 E.0665
G1 X171.168 Y58.245 E.06651
G1 X173.171 Y58.946 E.06654
G1 X175.239 Y59.419 E.06652
G1 X177.347 Y59.657 E.06651
G1 X179.469 Y59.657 E.06653
G1 X181.577 Y59.419 E.06651
G1 X183.645 Y58.946 E.06652
G1 X185.647 Y58.245 E.06651
G1 X187.558 Y57.324 E.06651
G1 X188.77 Y56.593 E.04438
G1 X189.923 Y55.773 E.04436
G1 X191.53 Y54.388 E.06652
G1 X192.511 Y53.368 E.04437
G1 X193.412 Y52.278 E.04434
G1 X194.23 Y51.123 E.04438
G1 X194.959 Y49.911 E.04435
G1 X195.595 Y48.647 E.04437
G1 X196.134 Y47.339 E.04436
G1 X196.575 Y45.995 E.04435
G1 X196.913 Y44.621 E.04437
G1 X197.227 Y42.523 E.06651
G1 X197.304 Y41.11 E.04437
G1 X197.275 Y39.696 E.04434
G1 X197.033 Y37.588 E.06653
G1 X196.742 Y36.204 E.04434
G1 X196.347 Y34.845 E.04437
G1 X195.853 Y33.519 E.04437
G1 X195.26 Y32.235 E.04435
G1 X194.573 Y30.998 E.04437
G1 X193.795 Y29.816 E.04437
G1 X192.479 Y28.172 E.06603
G1 X190.427 Y26.204 E.08915
G1 X189.303 Y25.346 E.04434
G1 X188.117 Y24.574 E.04437
G1 X186.877 Y23.893 E.04436
G1 X184.93 Y23.05 E.06652
G1 X183.585 Y22.612 E.04435
G1 X181.056 Y21.996 E.08161
G1 X180.337 Y21.499 E.02741
G1 X179.837 Y20.809 E.02672
G1 X179.648 Y20.299 E.01705
G1 X179.568 Y19.618 E.0215
G1 X179.853 Y17.814 E.05726
G1 X180.236 Y17.01 E.02792
G1 X180.917 Y16.356 E.0296
G1 X181.271 Y16.159 E.0127
G1 X182.078 Y15.937 E.02624
G1 X185.389 Y15.945 E.10381
G1 X187.628 Y16.637 E.07348
G1 X190.218 Y17.794 E.08894
G1 X192.537 Y19.14 E.08407
G1 X194.735 Y20.745 E.08533
G1 X196.143 Y21.98 E.05872
G1 X198.047 Y23.978 E.08654
G1 X199.725 Y26.164 E.08641
G1 X201.155 Y28.507 E.08606
G1 X202.333 Y30.997 E.08637
G1 X203.238 Y33.597 E.08632
G1 X203.694 Y35.415 E.05877
G1 X204.12 Y38.115 E.0857
G1 X204.246 Y39.986 E.0588
G1 X204.185 Y42.74 E.08637
G1 X203.835 Y45.449 E.08564
G1 X203.195 Y48.127 E.08633
G1 X202.595 Y49.911 E.05901
G1 X201.482 Y52.444 E.08675
G1 X200.115 Y54.827 E.08614
G1 X198.511 Y57.04 E.0857
G1 X196.664 Y59.091 E.08654
G1 X195.283 Y60.371 E.05904
G1 X193.104 Y62.055 E.08635
G1 X190.775 Y63.489 E.08576
G1 X188.321 Y64.662 E.08528
G1 X186.528 Y65.33 E.05999
G1 X183.872 Y66.055 E.08632
G1 X181.175 Y66.49 E.08566
G1 X178.433 Y66.639 E.0861
M73 Q1 S31
G1 X176.543 Y66.572 E.0593
M73 P1 R31
G1 X173.818 Y66.228 E.08612
G1 X171.16 Y65.602 E.08562
G1 X168.562 Y64.69 E.08633
G1 X166.843 Y63.908 E.05921
G1 X164.454 Y62.549 E.08618
G1 X162.236 Y60.956 E.08562
G1 X160.182 Y59.121 E.08636
G1 X158.891 Y57.74 E.05927
G1 X157.199 Y55.568 E.08633
G1 X155.758 Y53.248 E.08563
G1 X154.564 Y50.774 E.08613
G1 X153.898 Y49.005 E.05927
G1 X153.163 Y46.352 E.08632
G1 X152.716 Y43.657 E.08565
G1 X152.557 Y40.915 E.08612
G1 X152.617 Y39.026 E.05926
M73 P1 R30
G1 X152.952 Y36.286 E.08655
G1 X153.116 Y35.576 E.02285
M204 S1000
G1 X153.116 Y35.576 F10800
G1 X153.465 Y35.637
M204 S800
G1 F1200
G1 X153.492 Y35.486 E.00481
G1 X153.932 Y33.726 E.05688
G1 X154.499 Y31.996 E.05708
G1 X155.571 Y29.501 E.08514
G1 X156.912 Y27.119 E.08571
G1 X157.938 Y25.625 E.05683
G1 X159.648 Y23.554 E.08421
G1 X160.933 Y22.252 E.05736
G1 X163.015 Y20.491 E.0855
G1 X165.255 Y18.972 E.08486
G1 X166.864 Y18.08 E.05768
G1 X169.332 Y16.986 E.08464
G1 X171.317 Y16.343 E.06542
G1 X174.761 Y16.325 E.10799
G1 X175.154 Y16.408 E.01259
G1 X175.751 Y16.706 E.02092
G1 X176.218 Y17.156 E.02033
G1 X176.534 Y17.725 E.02041
G1 X176.863 Y19.512 E.05697
G1 X176.846 Y19.998 E.01525
G1 X176.715 Y20.484 E.01578
G1 X176.166 Y21.278 E.03027
G1 X175.32 Y21.759 E.03051
G1 X173.128 Y22.25 E.07043
G1 X171.083 Y22.958 E.06785
G1 X169.131 Y23.891 E.06784
G1 X167.295 Y25.038 E.06788
G1 X165.6 Y26.382 E.06783
G1 X164.066 Y27.909 E.06787
G1 X162.713 Y29.597 E.06783
G1 X161.92 Y30.803 E.04526
G1 X161.225 Y32.053 E.04484
G1 X160.345 Y34.058 E.06865
G1 X159.896 Y35.416 E.04485
G1 X159.41 Y37.524 E.06783
G1 X159.219 Y38.955 E.04527
G1 X159.135 Y41.117 E.06784
G1 X159.254 Y42.916 E.05653
G1 X159.533 Y44.698 E.05655
G1 X160.09 Y46.789 E.06785
G1 X160.878 Y48.804 E.06784
G1 X161.887 Y50.718 E.06784
G1 X163.104 Y52.507 E.06784
G1 X164.769 Y54.404 E.07914
G1 X166.663 Y56.072 E.07913
G1 X168.45 Y57.292 E.06784
G1 X170.363 Y58.305 E.06787
M73 Q1 S30
G1 X172.377 Y59.096 E.06784
G1 X174.467 Y59.657 E.06785
G1 X176.606 Y59.979 E.06782
G1 X178.769 Y60.06 E.06787
G1 X180.926 Y59.898 E.06782
G1 X183.052 Y59.496 E.06784
G1 X185.12 Y58.857 E.06787
G1 X187.103 Y57.991 E.06785
G1 X188.366 Y57.292 E.04526
G1 X189.572 Y56.501 E.04522
G1 X191.263 Y55.151 E.06784
G1 X192.302 Y54.149 E.04526
G1 X193.262 Y53.072 E.04524
G1 X194.14 Y51.926 E.04527
G1 X194.929 Y50.718 E.04524
G1 X195.625 Y49.455 E.04522
G1 X196.225 Y48.142 E.04526
G1 X196.937 Y46.099 E.06784
G1 X197.283 Y44.698 E.04525
G1 X197.522 Y43.275 E.04524
G1 X197.655 Y41.838 E.04525
G1 X197.679 Y40.395 E.04525
G1 X197.596 Y38.955 E.04523
G1 X197.405 Y37.524 E.04527
G1 X197.108 Y36.112 E.04524
G1 X196.706 Y34.726 E.04525
G1 X196.201 Y33.374 E.04525
G1 X195.596 Y32.064 E.04524
G1 X194.896 Y30.803 E.04522
G1 X194.102 Y29.597 E.04527
G1 X193.221 Y28.455 E.04522
G1 X192.001 Y27.127 E.05654
G1 X190.667 Y25.913 E.05655
G1 X189.52 Y25.038 E.04523
G1 X188.311 Y24.251 E.04523
G1 X187.046 Y23.556 E.04526
G1 X185.732 Y22.958 E.04527
G1 X184.378 Y22.46 E.04523
G1 X181.257 Y21.673 E.10092
G1 X180.58 Y21.208 E.02575
G1 X180.18 Y20.651 E.0215
G1 X180.02 Y20.231 E.01409
G1 X179.945 Y19.6 E.01992
G1 X180.221 Y17.902 E.05394
G1 X180.559 Y17.207 E.02423
G1 X181.157 Y16.648 E.02567
G1 X182.104 Y16.314 E.03149
G1 X185.362 Y16.322 E.10215
G1 X186.591 Y16.665 E.04001
G1 X188.318 Y17.321 E.05792
G1 X190.771 Y18.515 E.08554
G1 X193.068 Y19.955 E.085
G1 X195.207 Y21.639 E.08536
G1 X197.157 Y23.543 E.08545
G1 X198.876 Y25.624 E.08463
G1 X200.374 Y27.889 E.08514
G1 X201.254 Y29.52 E.05811
G1 X202.32 Y32.007 E.08484
G1 X203.117 Y34.593 E.08485
G1 X203.499 Y36.387 E.05751
G1 X203.823 Y39.068 E.08467
G1 X203.862 Y41.79 E.08536
G1 X203.61 Y44.498 E.08527
G1 X203.073 Y47.156 E.08502
G1 X202.553 Y48.907 E.05727
G1 X201.555 Y51.424 E.0849
G1 X200.293 Y53.825 E.08505
G1 X199.29 Y55.377 E.05794
G1 X197.615 Y57.521 E.08531
G1 X195.732 Y59.464 E.08484
G1 X193.658 Y61.193 E.08466
G1 X191.389 Y62.706 E.08551
G1 X189.391 Y63.768 E.07095
G1 X187.303 Y64.658 E.07117
G1 X184.713 Y65.469 E.0851
G1 X182.043 Y66.001 E.08536
G1 X180.206 Y66.198 E.05793
G1 X177.5 Y66.246 E.08486
G1 X174.813 Y66.007 E.08458
G1 X172.144 Y65.48 E.0853
G1 X170.369 Y64.96 E.05799
G1 X167.856 Y63.974 E.08464
G1 X165.456 Y62.723 E.08486
G1 X163.192 Y61.218 E.08524
G1 X161.744 Y60.056 E.05821
G1 X159.805 Y58.19 E.08438
G1 X158.063 Y56.119 E.08485
G1 X156.545 Y53.862 E.08528
G1 X155.654 Y52.241 E.058
G1 X154.569 Y49.769 E.08465
G1 X153.752 Y47.19 E.08482
G1 X153.209 Y44.525 E.08528
G1 X153.004 Y42.68 E.0582
G1 X152.946 Y39.987 E.08446
G1 X153.175 Y37.293 E.08477
G1 X153.455 Y35.697 E.05081
M204 S1000
G1 X153.455 Y35.697 F10800
G1 X153.841 Y35.786
M204 S800
G1 F1200
G1 X154.295 Y33.828 E.06302
G1 X154.852 Y32.129 E.05606
G1 X155.531 Y30.469 E.05623
G1 X156.32 Y28.873 E.05582
G1 X157.232 Y27.318 E.05652
G1 X158.239 Y25.853 E.05574
G1 X159.928 Y23.807 E.08319
G1 X161.194 Y22.525 E.05649
G1 X162.552 Y21.334 E.05663
G1 X164.701 Y19.765 E.08343
G1 X166.236 Y18.84 E.05619
G1 X167.843 Y18.023 E.05652
G1 X170.306 Y17.035 E.08321
G1 X171.398 Y16.712 E.03571
G1 X174.743 Y16.702 E.10488
G1 X175.515 Y17.002 E.02597
G1 X175.903 Y17.366 E.01668
G1 X176.188 Y17.88 E.01843
G1 X176.488 Y19.557 E.05342
G1 X176.361 Y20.351 E.02521
G1 X175.909 Y21.002 E.02485
G1 X175.224 Y21.394 E.02475
G1 X173.024 Y21.887 E.07069
G1 X170.94 Y22.609 E.06915
G1 X168.949 Y23.561 E.0692
G1 X167.078 Y24.73 E.06917
G1 X165.35 Y26.101 E.06916
M73 P2 R30
M73 Q2 S30
G1 X163.786 Y27.657 E.06917
G1 X162.406 Y29.378 E.06917
G1 X161.228 Y31.244 E.06919
G1 X160.415 Y32.893 E.05765
G1 X159.534 Y35.31 E.08066
G1 X159.039 Y37.46 E.06918
G1 X158.844 Y38.919 E.04615
G1 X158.758 Y41.123 E.06916
G1 X158.879 Y42.958 E.05766
G1 X159.163 Y44.774 E.05763
G1 X159.516 Y46.203 E.04615
G1 X160.241 Y48.286 E.06915
G1 X161.196 Y50.275 E.06918
G1 X162.368 Y52.144 E.06917
G1 X163.735 Y53.863 E.06886
G1 X165.309 Y55.439 E.06984
G1 X167.025 Y56.809 E.06885
G1 X168.892 Y57.984 E.06917
G1 X170.879 Y58.942 E.06916
G1 X172.962 Y59.671 E.0692
G1 X175.112 Y60.163 E.06915
G1 X177.305 Y60.41 E.06919
G1 X179.511 Y60.41 E.06917
G1 X181.703 Y60.163 E.06916
G1 X183.854 Y59.671 E.06918
G1 X185.936 Y58.942 E.06917
G1 X187.923 Y57.984 E.06916
G1 X189.183 Y57.224 E.04614
G1 X190.382 Y56.371 E.04614
G1 X192.054 Y54.931 E.06919
G1 X193.073 Y53.87 E.04612
G1 X194.011 Y52.737 E.04612
G1 X194.861 Y51.536 E.04613
G1 X195.619 Y50.275 E.04613
G1 X196.281 Y48.961 E.04613
G1 X196.842 Y47.601 E.04613
G1 X197.3 Y46.203 E.04613
G1 X197.652 Y44.774 E.04614
G1 X197.978 Y42.592 E.06917
G1 X198.058 Y41.123 E.04613
G1 X198.028 Y39.652 E.04613
G1 X197.777 Y37.46 E.06918
G1 X197.474 Y36.021 E.04611
G1 X197.064 Y34.608 E.04613
G1 X196.549 Y33.229 E.04615
G1 X195.933 Y31.893 E.04613
G1 X195.218 Y30.607 E.04613
G1 X194.409 Y29.378 E.04613
G1 X193.037 Y27.665 E.06881
G1 X190.907 Y25.622 E.09254
G1 X189.737 Y24.73 E.04613
G1 X187.866 Y23.561 E.06917
G1 X186.551 Y22.902 E.04612
G1 X185.19 Y22.342 E.04614
G1 X183.791 Y21.887 E.04613
G1 X181.392 Y21.317 E.07731
G1 X180.864 Y20.958 E.02002
G1 X180.521 Y20.489 E.01822
G1 X180.392 Y20.161 E.01105
G1 X180.323 Y19.583 E.01825
G1 X180.588 Y17.993 E.05054
G1 X180.879 Y17.409 E.02046
G1 X181.393 Y16.942 E.02177
G1 X182.132 Y16.691 E.02447
G1 X185.334 Y16.699 E.1004
G1 X187.353 Y17.339 E.06641
G1 X189.87 Y18.463 E.08643
G1 X192.12 Y19.768 E.08155
G1 X194.263 Y21.334 E.08322
G1 X195.621 Y22.525 E.05663
G1 X197.47 Y24.464 E.08401
G1 X199.103 Y26.591 E.08408
G1 X200.495 Y28.871 E.08376
G1 X201.637 Y31.288 E.08382
G1 X202.516 Y33.813 E.08383
G1 X202.955 Y35.566 E.05666
G1 X203.371 Y38.199 E.08358
G1 X203.492 Y40.003 E.05669
G1 X203.433 Y42.677 E.08386
G1 X203.092 Y45.32 E.08356
G1 X202.47 Y47.919 E.08379
G1 X201.892 Y49.639 E.05689
G1 X200.811 Y52.098 E.08422
G1 X199.481 Y54.417 E.08382
G1 X197.921 Y56.571 E.08339
G1 X196.127 Y58.561 E.08401
G1 X194.795 Y59.796 E.05695
G1 X192.681 Y61.431 E.08379
G1 X190.41 Y62.829 E.08362
G1 X188.02 Y63.971 E.08305
G1 X186.297 Y64.612 E.05764
G1 X183.719 Y65.316 E.08379
G1 X181.088 Y65.741 E.08356
G1 X178.426 Y65.885 E.08359
G1 X176.604 Y65.82 E.05716
G1 X173.952 Y65.486 E.08381
G1 X171.365 Y64.876 E.08334
G1 X168.843 Y63.991 E.0838
G1 X167.186 Y63.236 E.05709
G1 X164.86 Y61.914 E.08389
G1 X162.702 Y60.363 E.08333
G1 X160.709 Y58.582 E.0838
G1 X159.465 Y57.25 E.05715
G1 X157.821 Y55.142 E.08382
G1 X156.415 Y52.879 E.08353
G1 X155.257 Y50.477 E.08361
G1 X154.615 Y48.771 E.05715
G1 X153.9 Y46.196 E.08379
G1 X153.466 Y43.574 E.08333
G1 X153.311 Y40.905 E.08383
G1 X153.369 Y39.083 E.05716
G1 X153.693 Y36.423 E.08402
G1 X153.828 Y35.845 E.01861
M204 S1000
G1 X153.828 Y35.845 F10800
G1 X154.183 Y35.907
M204 S800
G1 F1200
G1 X154.229 Y35.643 E.0084
G1 X154.657 Y33.935 E.05521
G1 X155.523 Y31.442 E.08275
G1 X156.247 Y29.835 E.05526
G1 X157.081 Y28.288 E.0551
G1 X158.54 Y26.08 E.08298
G1 X160.208 Y24.06 E.08214
G1 X161.451 Y22.801 E.05547
G1 X162.788 Y21.629 E.05575
G1 X164.91 Y20.079 E.08239
G1 X167.2 Y18.755 E.08294
G1 X169.606 Y17.688 E.08252
G1 X171.427 Y17.089 E.06011
G1 X174.725 Y17.08 E.10341
G1 X175.28 Y17.299 E.01871
G1 X175.622 Y17.619 E.01469
G1 X175.841 Y18.029 E.01457
G1 X176.113 Y19.601 E.05002
G1 X176.007 Y20.219 E.01966
G1 X175.648 Y20.729 E.01956
G1 X175.126 Y21.028 E.01886
G1 X172.921 Y21.524 E.07086
G1 X170.797 Y22.26 E.07048
G1 X168.768 Y23.23 E.07051
G1 X166.861 Y24.421 E.0705
G1 X165.099 Y25.819 E.07052
G1 X163.505 Y27.405 E.0705
G1 X162.099 Y29.159 E.07048
G1 X161.275 Y30.412 E.04702
G1 X160.55 Y31.715 E.04675
G1 X159.64 Y33.79 E.07104
G1 X159.171 Y35.205 E.04674
G1 X158.667 Y37.396 E.07049
G1 X158.411 Y39.63 E.0705
G1 X158.407 Y41.871 E.07027
G1 X158.657 Y44.122 E.07101
G1 X159.153 Y46.307 E.07025
G1 X159.62 Y47.732 E.04702
G1 X160.516 Y49.794 E.07049
G1 X161.639 Y51.742 E.0705
G1 X162.972 Y53.553 E.07051
G1 X164.235 Y54.937 E.05875
G1 X166.203 Y56.67 E.08222
G1 X168.06 Y57.938 E.0705
G1 X170.048 Y58.99 E.07052
G1 X172.141 Y59.812 E.0705
G1 X173.581 Y60.228 E.047
G1 X175.049 Y60.534 E.04702
G1 X177.283 Y60.786 E.07049
G1 X179.532 Y60.786 E.07052
G1 X181.766 Y60.534 E.07049
G1 X183.959 Y60.034 E.07052
G1 X186.081 Y59.29 E.0705
G1 X188.106 Y58.314 E.07048
G1 X190.009 Y57.116 E.07051
G1 X191.766 Y55.713 E.0705
G1 X192.845 Y54.672 E.04701
G1 X193.843 Y53.553 E.04701
G1 X194.755 Y52.362 E.04703
G1 X195.575 Y51.107 E.047
G1 X196.299 Y49.794 E.04701
G1 X196.923 Y48.43 E.04703
G1 X197.442 Y47.023 E.04702
G1 X197.856 Y45.582 E.04701
G1 X198.16 Y44.114 E.047
G1 X198.353 Y42.627 E.04701
G1 X198.435 Y41.13 E.04701
G1 X198.404 Y39.63 E.04704
G1 X198.262 Y38.138 E.04699
G1 X198.008 Y36.66 E.04702
G1 X197.644 Y35.205 E.04703
G1 X197.172 Y33.782 E.04701
G1 X196.596 Y32.398 E.047
G1 X195.541 Y30.412 E.07051
G1 X194.716 Y29.159 E.04704
G1 X193.801 Y27.972 E.04699
