; generated by PrusaSlicer 2.8.0+win64 on 2025-02-15 at 19:03:49 UTC


;
;
; 

; external perimeters extrusion width = 0.60mm
; perimeters extrusion width = 0.50mm
; infill extrusion width = 0.50mm
; solid infill extrusion width = 0.50mm
; top infill extrusion width = 0.45mm
; first layer extrusion width = 0.42mm

M73 P0 R33
M73 Q0 S34
M201 X1000 Y1000 Z200 E5000 ; sets maximum accelerations, mm/sec^2
M203 X200 Y200 Z12 E120 ; sets maximum feedrates, mm / sec
M204 S1250 T1250 ; sets acceleration (S) and retract acceleration (R), mm/sec^2
M205 X8.00 Y8.00 Z0.40 E4.50 ; sets the jerk limits, mm/sec
M205 S0 T0 ; sets the minimum extruding and travel feed rate, mm/sec

; printing object 775_to_300W_ring_adapter2.stl id:0 copy 0
; stop printing object 775_to_300W_ring_adapter2.stl id:0 copy 0

;TYPE:Custom
M862.3 P "MK3S" ; printer model check
M862.1 P0.4 ; nozzle diameter check
M115 U3.13.3 ; tell printer latest fw version
G90 ; use absolute coordinates
M83 ; extruder relative mode
M104 S200 ; set extruder temp
M140 S67 ; set bed temp
M190 S67 ; wait for bed temp
M109 S200 ; wait for extruder temp
G28 W ; home all without mesh bed level
G80 X152.01 Y32.888 W52.7954 H34.2967 ; mesh bed levelling

G1 Z0.2 F720
G1 Y-3 F1000 ; go outside print area
G92 E0
G1 X60 E9 F1000 ; intro line
G1 X100 E12.5 F1000 ; intro line

G92 E0
M221 S95

; Don't change E values below. Excessive value can damage the printer.

G21 ; set units to millimeters
G90 ; use absolute coordinates
M83 ; use relative distances for extrusion
M900 K0.05 ; Filament gcode LA 1.5
M900 K30 ; Filament gcode LA 1.0
M107
;LAYER_CHANGE
;Z:0.2
;HEIGHT:0.2
G1 E-1.2 F2100
G1 Z.6 F720
G1 X153.161 Y35.24 F10800
G1 Z.2 F720
G1 E1.2 F2100
M204 S800
;TYPE:Skirt/Brim
;WIDTH:0.42
G1 F1200
G1 X153.543 Y34.474 E.02684
G1 X154.116 Y33.908 E.02525
G1 X154.953 Y33.517 E.02897
G1 X157.52 Y33.439 E.08052
G1 X157.946 Y33.512 E.01355
G1 X158.531 Y33.758 E.0199
G1 X159.015 Y34.124 E.01903
G1 X159.471 Y34.69 E.02279
G1 X159.784 Y35.526 E.02799
G1 X159.818 Y36.071 E.01712
G1 X159.523 Y38.836 E.08719
G1 X159.551 Y40.795 E.06143
G1 X159.914 Y43.426 E.08327
G1 X160.636 Y45.966 E.08279
G1 X161.711 Y48.391 E.08317
G1 X162.73 Y50.09 E.06212
G1 X163.914 Y51.665 E.06178
G1 X165.254 Y53.108 E.06174
G1 X167.293 Y54.822 E.08352
G1 X168.945 Y55.896 E.06178
G1 X171.317 Y57.055 E.08278
G1 X172.559 Y57.508 E.04145
G1 X174.461 Y58.02 E.06176
G1 X177.087 Y58.39 E.08315
G1 X179.728 Y58.39 E.08281
G1 X182.355 Y58.02 E.08318
G1 X184.268 Y57.505 E.06212
G1 X186.106 Y56.797 E.06176
G1 X187.304 Y56.212 E.0418
G1 X188.991 Y55.195 E.06176
G1 X190.059 Y54.417 E.04143
G1 X191.545 Y53.124 E.06176
G1 X192.477 Y52.156 E.04213
G1 X193.721 Y50.613 E.06214
G1 X194.796 Y48.949 E.06211
G1 X195.693 Y47.178 E.06224
G1 X196.392 Y45.343 E.06157
G1 X196.902 Y43.423 E.06229
G1 X197.206 Y41.479 E.06169
G1 X197.296 Y40.15 E.04177
G1 X197.199 Y37.527 E.0823
G1 X196.995 Y36.019 E.04771
G1 X197.047 Y35.454 E.01779
G1 X197.207 Y34.956 E.0164
G1 X197.449 Y34.535 E.01523
G1 X197.899 Y34.03 E.02121
G1 X198.3 Y33.75 E.01533
G1 X198.826 Y33.525 E.01794
G1 X199.325 Y33.437 E.01589
G1 X201.542 Y33.449 E.06951
G1 X202.331 Y33.687 E.02584
G1 X203.046 Y34.212 E.02781
G1 X203.638 Y35.183 E.03566
G1 X204.089 Y37.831 E.08422
G1 X204.256 Y40.423 E.08144
G1 X204.163 Y43.015 E.08132
G1 X203.958 Y44.716 E.05372
G1 X203.64 Y46.412 E.0541
G1 X202.95 Y48.909 E.08123
G1 X202.356 Y50.522 E.05389
G1 X201.656 Y52.091 E.05387
G1 X200.413 Y54.355 E.08098
G1 X198.947 Y56.486 E.0811
G1 X197.271 Y58.465 E.08131
G1 X195.405 Y60.266 E.08131
G1 X193.373 Y61.867 E.08111
G1 X191.192 Y63.257 E.08109
G1 X188.882 Y64.422 E.08112
G1 X186.468 Y65.35 E.08109
G1 X183.973 Y66.033 E.08111
G1 X181.424 Y66.462 E.08105
G1 X178.848 Y66.635 E.08095
G1 X176.262 Y66.55 E.08113
G1 X173.694 Y66.206 E.08124
G1 X171.177 Y65.607 E.08112
G1 X168.739 Y64.763 E.08089
G1 X167.133 Y64.051 E.05508
G1 X164.881 Y62.818 E.0805
G1 X163.381 Y61.821 E.05647
G1 X162.105 Y60.85 E.05027
G1 X160.775 Y59.692 E.05529
G1 X158.974 Y57.835 E.08111
G1 X157.375 Y55.818 E.0807
G1 X155.972 Y53.63 E.0815
G1 X154.798 Y51.316 E.08136
G1 X153.866 Y48.911 E.08087
G1 X153.379 Y47.256 E.05409
G1 X153.004 Y45.574 E.05403
G1 X152.74 Y43.862 E.05431
G1 X152.592 Y42.142 E.05413
G1 X152.559 Y40.419 E.05403
G1 X152.642 Y38.696 E.05409
G1 X152.839 Y36.981 E.05413
G1 X153.15 Y35.299 E.05363
M204 S1000
G1 X153.15 Y35.299 F10800
G1 X153.521 Y35.368
M204 S800
G1 F1200
G1 X153.526 Y35.336 E.00102
G1 X153.863 Y34.675 E.02326
G1 X154.353 Y34.203 E.02133
G1 X155.092 Y33.868 E.02544
G1 X157.506 Y33.816 E.07571
G1 X157.859 Y33.879 E.01124
G1 X158.325 Y34.075 E.01585
G1 X158.739 Y34.382 E.01616
G1 X159.142 Y34.874 E.01994
G1 X159.415 Y35.607 E.02452
G1 X159.442 Y36.038 E.01354
G1 X159.146 Y38.822 E.08778
G1 X159.175 Y40.824 E.06278
G1 X159.545 Y43.503 E.0848
G1 X160.282 Y46.094 E.08446
G1 X161.376 Y48.564 E.0847
G1 X162.415 Y50.298 E.06338
G1 X163.624 Y51.907 E.0631
G1 X164.994 Y53.381 E.0631
G1 X167.068 Y55.125 E.08496
G1 X168.756 Y56.223 E.06314
G1 X171.176 Y57.405 E.08444
G1 X172.442 Y57.867 E.04226
G1 X174.386 Y58.389 E.06311
G1 X177.061 Y58.766 E.0847
G1 X179.755 Y58.766 E.08447
G1 X182.43 Y58.389 E.0847
G1 X184.382 Y57.865 E.06337
G1 X186.26 Y57.141 E.06311
G1 X187.478 Y56.546 E.0425
G1 X189.202 Y55.507 E.06311
G1 X190.291 Y54.714 E.04224
G1 X191.809 Y53.393 E.06309
G1 X192.755 Y52.41 E.04278
G1 X194.024 Y50.837 E.06337
G1 X195.122 Y49.14 E.06337
G1 X196.036 Y47.334 E.06346
G1 X196.751 Y45.46 E.06289
G1 X197.272 Y43.5 E.06359
G1 X197.503 Y42.168 E.04239
G1 X197.673 Y40.162 E.06312
G1 X197.669 Y38.805 E.04255
G1 X197.373 Y36.028 E.08756
G1 X197.413 Y35.546 E.01516
G1 X197.744 Y34.77 E.02645
G1 X198.165 Y34.299 E.01981
G1 X198.952 Y33.881 E.02794
G1 X199.34 Y33.814 E.01235
G1 X201.511 Y33.826 E.06807
G1 X202.185 Y34.037 E.02214
G1 X202.805 Y34.502 E.0243
G1 X203.293 Y35.339 E.03038
G1 X203.604 Y37.035 E.05406
G1 X203.797 Y38.715 E.05302
G1 X203.879 Y40.426 E.05371
G1 X203.847 Y42.12 E.05312
M73 P1 R33
G1 X203.701 Y43.818 E.05344
G1 X203.44 Y45.511 E.05371
G1 X203.072 Y47.159 E.05294
G1 X202.593 Y48.788 E.05324
M73 Q1 S34
G1 X202.008 Y50.377 E.05309
G1 X200.925 Y52.699 E.08033
G1 X200.09 Y54.159 E.05274
G1 X199.148 Y55.579 E.05343
G1 X197.553 Y57.592 E.08053
G1 X195.778 Y59.422 E.07994
G1 X193.834 Y61.06 E.07971
G1 X191.725 Y62.504 E.08014
G1 X190.258 Y63.338 E.05291
G1 X188.727 Y64.078 E.05332
G1 X186.347 Y64.993 E.07995
G1 X183.895 Y65.664 E.07971
G1 X181.377 Y66.088 E.08006
G1 X178.838 Y66.258 E.07979
G1 X176.291 Y66.174 E.0799
G1 X173.76 Y65.834 E.08007
G1 X171.28 Y65.244 E.07993
G1 X168.877 Y64.412 E.07973
G1 X167.3 Y63.713 E.05409
G1 X165.081 Y62.498 E.07932
G1 X163.598 Y61.513 E.05582
G1 X162.337 Y60.553 E.04969
G1 X161.034 Y59.418 E.05418
G1 X159.26 Y57.589 E.07989
G1 X157.684 Y55.601 E.07954
G1 X156.298 Y53.44 E.0805
G1 X155.141 Y51.159 E.08019
G1 X154.225 Y48.796 E.07946
G1 X153.743 Y47.159 E.05351
G1 X153.375 Y45.507 E.05307
G1 X153.114 Y43.814 E.05371
G1 X152.969 Y42.125 E.05315
G1 X152.936 Y40.427 E.05325
G1 X153.017 Y38.729 E.0533
G1 X153.212 Y37.035 E.05346
G1 X153.51 Y35.427 E.05128
M204 S1000
G1 X153.51 Y35.427 F10800
G1 X153.874 Y35.493
M204 S800
G1 F1200
G1 X153.877 Y35.477 E.00051
G1 X154.15 Y34.922 E.01939
G1 X154.589 Y34.499 E.01911
G1 X155.221 Y34.223 E.02162
G1 X157.734 Y34.236 E.07879
G1 X158.157 Y34.413 E.01438
G1 X158.491 Y34.667 E.01316
G1 X158.833 Y35.092 E.0171
G1 X159.046 Y35.687 E.01982
G1 X158.769 Y38.808 E.09824
G1 X158.799 Y40.852 E.0641
G1 X159.175 Y43.581 E.08637
G1 X159.927 Y46.223 E.08613
G1 X161.041 Y48.738 E.08625
G1 X162.488 Y51.061 E.08581
G1 X164.256 Y53.175 E.08641
G1 X165.758 Y54.578 E.06444
G1 X167.398 Y55.817 E.06445
G1 X169.779 Y57.195 E.08626
G1 X172.325 Y58.226 E.08612
G1 X174.31 Y58.759 E.06444
G1 X177.035 Y59.143 E.08628
G1 X179.781 Y59.143 E.0861
G1 X182.505 Y58.759 E.08625
G1 X184.495 Y58.224 E.06461
G1 X186.414 Y57.486 E.06446
G1 X187.652 Y56.881 E.0432
G1 X189.413 Y55.82 E.06446
G1 X190.524 Y55.011 E.04309
G1 X192.074 Y53.661 E.06445
G1 X193.034 Y52.665 E.04337
G1 X194.328 Y51.061 E.06462
G1 X195.447 Y49.331 E.0646
G1 X196.38 Y47.49 E.06471
G1 X197.109 Y45.577 E.06419
G1 X197.641 Y43.576 E.06492
G1 X197.957 Y41.55 E.06429
G1 X198.05 Y40.174 E.04324
G1 X198.009 Y38.114 E.0646
G1 X197.749 Y35.997 E.06688
G1 X197.899 Y35.256 E.0237
G1 X198.428 Y34.569 E.02719
G1 X199.042 Y34.248 E.02172
G1 X199.356 Y34.191 E.01001
G1 X201.478 Y34.203 E.06653
G1 X202.036 Y34.384 E.01839
G1 X202.557 Y34.786 E.02063
G1 X202.929 Y35.442 E.02365
G1 X203.231 Y37.093 E.05262
G1 X203.422 Y38.749 E.05227
G1 X203.502 Y40.434 E.05289
M73 Q1 S33
G1 X203.47 Y42.104 E.05237
G1 X203.214 Y44.595 E.07851
G1 X202.706 Y47.068 E.07916
G1 X202.236 Y48.667 E.05226
G1 X201.657 Y50.238 E.0525
G1 X200.594 Y52.52 E.07893
G1 X199.31 Y54.678 E.07873
G1 X197.82 Y56.694 E.0786
G1 X196.138 Y58.55 E.07854
G1 X194.27 Y60.236 E.0789
G1 X192.242 Y61.728 E.07894
G1 X190.086 Y63.002 E.07852
G1 X187.812 Y64.056 E.07859
G1 X185.435 Y64.881 E.07889
G1 X182.996 Y65.462 E.07861
G1 X180.503 Y65.797 E.07887
G1 X177.993 Y65.881 E.07874
G1 X175.487 Y65.714 E.07875
G1 X173.015 Y65.299 E.07859
G1 X170.593 Y64.637 E.07873
G1 X168.254 Y63.739 E.07856
G1 X166.006 Y62.606 E.07893
G1 X163.823 Y61.211 E.08123
G1 X161.902 Y59.693 E.07677
G1 X160.091 Y57.944 E.07894
G1 X158.479 Y56.043 E.07815
G1 X157.055 Y53.975 E.07873
G1 X155.846 Y51.78 E.07857
G1 X154.861 Y49.471 E.07871
G1 X154.329 Y47.863 E.05311
G1 X153.913 Y46.254 E.05211
G1 X153.604 Y44.614 E.05233
G1 X153.345 Y42.102 E.07918
G1 X153.313 Y40.436 E.05225
G1 X153.393 Y38.763 E.05252
G1 X153.584 Y37.097 E.05258
G1 X153.863 Y35.552 E.04923
M204 S1000
G1 X153.863 Y35.552 F10800
G1 X154.234 Y35.619
M204 S800
G1 F1200
G1 X154.243 Y35.569 E.00159
G1 X154.436 Y35.17 E.0139
G1 X154.824 Y34.796 E.0169
G1 X155.314 Y34.592 E.01664
G1 X157.645 Y34.603 E.07309
G1 X158.214 Y34.923 E.02047
G1 X158.504 Y35.278 E.01437
G1 X158.677 Y35.767 E.01626
G1 X158.392 Y38.794 E.09533
G1 X158.423 Y40.881 E.06544
G1 X158.806 Y43.659 E.08793
G1 X159.572 Y46.351 E.08776
G1 X160.706 Y48.912 E.08782
G1 X162.184 Y51.285 E.08766
G1 X163.982 Y53.434 E.08785
G1 X165.515 Y54.867 E.0658
G1 X167.19 Y56.132 E.06581
G1 X169.614 Y57.534 E.0878
G1 X172.208 Y58.584 E.08774
G1 X174.235 Y59.129 E.06581
G1 X177.008 Y59.519 E.0878
G1 X179.807 Y59.519 E.08776
G1 X182.581 Y59.129 E.08783
G1 X184.609 Y58.584 E.06584
G1 X186.567 Y57.831 E.06578
G1 X187.827 Y57.215 E.04397
G1 X189.624 Y56.133 E.06577
G1 X190.757 Y55.308 E.04394
G1 X192.339 Y53.93 E.06578
G1 X193.312 Y52.919 E.044
G1 X194.632 Y51.285 E.06586
G1 X195.772 Y49.522 E.06583
G1 X196.723 Y47.646 E.06595
G1 X197.468 Y45.694 E.06551
G1 X198.01 Y43.653 E.06621
G1 X198.25 Y42.277 E.04379
G1 X198.427 Y40.187 E.06577
G1 X198.424 Y38.785 E.04396
G1 X198.146 Y35.726 E.09631
G1 X198.357 Y35.21 E.01748
G1 X198.663 Y34.865 E.01446
G1 X199.37 Y34.568 E.02404
G1 X201.444 Y34.58 E.06503
G1 X201.88 Y34.729 E.01445
G1 X202.278 Y35.047 E.01597
G1 X202.565 Y35.547 E.01808
G1 X202.859 Y37.152 E.05116
G1 X203.046 Y38.782 E.05144
G1 X203.125 Y40.443 E.05214
G1 X203.093 Y42.087 E.05156
G1 X202.952 Y43.729 E.05167
G1 X202.699 Y45.371 E.05209
G1 X202.342 Y46.97 E.05137
G1 X201.879 Y48.545 E.05147
G1 X201.307 Y50.099 E.05192
G1 X200.638 Y51.6 E.05153
G1 X199.445 Y53.769 E.07762
G1 X198.046 Y55.801 E.07735
G1 X196.439 Y57.698 E.07795
G1 X194.654 Y59.419 E.07774
G1 X192.711 Y60.95 E.07756
G1 X190.624 Y62.278 E.07756
G1 X189.171 Y63.041 E.05146
G1 X187.667 Y63.708 E.05159
G1 X185.326 Y64.52 E.07769
G1 X182.924 Y65.092 E.07742
G1 X180.468 Y65.422 E.0777
G1 X177.996 Y65.504 E.07755
G1 X175.528 Y65.339 E.07756
G1 X173.093 Y64.93 E.07742
G1 X170.707 Y64.278 E.07755
G1 X168.404 Y63.393 E.07736
G1 X166.19 Y62.277 E.07774
G1 X164.041 Y60.903 E.07998
G1 X162.147 Y59.407 E.07568
G1 X160.368 Y57.688 E.07756
G1 X158.777 Y55.811 E.07715
G1 X157.374 Y53.774 E.07755
M73 P2 R33
G1 X156.184 Y51.613 E.07735
G1 X155.213 Y49.337 E.07759
G1 X154.691 Y47.759 E.05211
G1 X154.282 Y46.175 E.05129
G1 X153.977 Y44.554 E.05172
G1 X153.722 Y42.085 E.07783
M73 Q2 S33
G1 X153.69 Y40.438 E.05165
G1 X153.769 Y38.79 E.05173
G1 X153.957 Y37.151 E.05173
G1 X154.224 Y35.678 E.04694
M204 S1000
G1 X154.224 Y35.678 F10800
G1 X154.595 Y35.745
M204 S800
G1 F1200
G1 X154.609 Y35.664 E.00258
G1 X154.756 Y35.372 E.01025
G1 X155.051 Y35.099 E.0126
G1 X155.416 Y34.956 E.01229
G1 X157.55 Y34.969 E.06691
G1 X157.939 Y35.182 E.01391
G1 X158.179 Y35.469 E.01173
G1 X158.308 Y35.847 E.01252
G1 X158.015 Y38.78 E.09242
G1 X158.047 Y40.91 E.06679
G1 X158.437 Y43.736 E.08945
G1 X159.217 Y46.479 E.08941
G1 X160.371 Y49.085 E.08936
G1 X161.47 Y50.921 E.06709
G1 X162.756 Y52.633 E.06714
G1 X164.214 Y54.201 E.06713
G1 X166.394 Y56.034 E.0893
G1 X168.189 Y57.202 E.06715
G1 X170.751 Y58.454 E.08941
G1 X173.461 Y59.337 E.08937
G1 X175.563 Y59.746 E.06714
G1 X178.408 Y59.945 E.08942
G1 X181.253 Y59.746 E.08942
G1 X183.354 Y59.337 E.06711
G1 X185.4 Y58.71 E.0671
G1 X186.721 Y58.175 E.04469
G1 X188.628 Y57.202 E.06713
G1 X189.836 Y56.445 E.0447
G1 X190.989 Y55.605 E.04473
G1 X192.603 Y54.199 E.06711
G1 X193.591 Y53.174 E.04464
G1 X194.935 Y51.509 E.06709
G1 X196.098 Y49.713 E.06709
G1 X197.067 Y47.802 E.06718
G1 X197.827 Y45.811 E.06682
G1 X198.38 Y43.729 E.06754
G1 X198.708 Y41.62 E.06692
G1 X198.804 Y40.199 E.04466
G1 X198.761 Y38.06 E.06708
G1 X198.503 Y35.97 E.06603
G1 X198.581 Y35.579 E.0125
G1 X198.903 Y35.157 E.01664
G1 X199.265 Y34.969 E.01279
G1 X201.407 Y34.956 E.06716
G1 X201.717 Y35.07 E.01036
G1 X202.01 Y35.313 E.01194
G1 X202.202 Y35.65 E.01216
G1 X202.486 Y37.21 E.04972
G1 X202.67 Y38.816 E.05068
G1 X202.748 Y40.451 E.05132
G1 X202.717 Y42.064 E.05058
G1 X202.577 Y43.687 E.05108
G1 X202.167 Y46.083 E.07622
G1 X201.52 Y48.43 E.07633
G1 X200.642 Y50.697 E.07622
G1 X199.538 Y52.875 E.07656
G1 X198.225 Y54.925 E.07633
G1 X196.709 Y56.839 E.07656
G1 X195.013 Y58.588 E.07639
G1 X193.156 Y60.154 E.07616
G1 X191.141 Y61.535 E.07659
G1 X189.01 Y62.701 E.07616
G1 X186.767 Y63.65 E.07636
G1 X184.446 Y64.37 E.07619
G1 X182.852 Y64.721 E.05118
G1 X180.434 Y65.046 E.0765
G1 X177.999 Y65.127 E.07639
M73 P2 R32
G1 X175.569 Y64.965 E.07636
G1 X173.172 Y64.561 E.07622
G1 X170.822 Y63.918 E.07639
G1 X168.554 Y63.047 E.07618
G1 X166.373 Y61.948 E.07657
G1 X164.258 Y60.595 E.07872
G1 X162.397 Y59.125 E.07436
G1 X160.645 Y57.433 E.07637
G1 X159.074 Y55.579 E.07619
G1 X157.693 Y53.573 E.07636
G1 X156.522 Y51.445 E.07616
G1 X155.566 Y49.204 E.07639
G1 X154.839 Y46.879 E.07638
G1 X154.349 Y44.493 E.07637
G1 X154.155 Y42.881 E.05091
G1 X154.07 Y41.259 E.05093
G1 X154.145 Y38.818 E.07657
G1 X154.33 Y37.205 E.05091
G1 X154.584 Y35.804 E.04464
M204 S1000
G1 X154.958 Y35.865 F10800
M204 S800
G1 F1200
G1 X154.975 Y35.762 E.00327
G1 X155.07 Y35.583 E.00635
G1 X155.509 Y35.322 E.01601
G1 X157.406 Y35.322 E.05948
G1 X157.666 Y35.443 E.00899
G1 X157.859 Y35.668 E.00929
G1 X157.934 Y35.897 E.00756
G1 X157.678 Y38.032 E.06742
G1 X157.634 Y40.211 E.06833
G1 X157.819 Y42.381 E.06829
G1 X158.23 Y44.522 E.06836
G1 X158.863 Y46.607 E.06832
G1 X159.404 Y47.956 E.04557
G1 X160.39 Y49.899 E.06832
G1 X161.158 Y51.133 E.04557
G1 X162.467 Y52.875 E.06832
G1 X163.438 Y53.956 E.04556
G1 X164.482 Y54.967 E.04557
G1 X166.174 Y56.34 E.06832
G1 X168 Y57.529 E.06832
G1 X169.283 Y58.212 E.04557
G1 X171.288 Y59.065 E.06832
G1 X173.371 Y59.703 E.06831
G1 X175.51 Y60.119 E.06832
G1 X176.955 Y60.272 E.04556
G1 X178.408 Y60.322 E.04558
G1 X179.86 Y60.272 E.04555
G1 X181.305 Y60.119 E.04556
G1 X183.444 Y59.703 E.06832
G1 X184.841 Y59.302 E.04557
G1 X186.206 Y58.804 E.04556
G1 X188.18 Y57.882 E.06831
G1 X189.438 Y57.154 E.04557
G1 X190.642 Y56.34 E.04557
G1 X191.786 Y55.444 E.04556
G1 X192.865 Y54.471 E.04556
G1 X194.354 Y52.869 E.06858
G1 X195.241 Y51.729 E.04529
G1 X196.052 Y50.523 E.04557
G1 X196.777 Y49.262 E.04561
G1 X197.41 Y47.957 E.04548
G1 X198.187 Y45.923 E.06827
G1 X198.748 Y43.811 E.06852
G1 X198.997 Y42.382 E.04548
G1 X199.145 Y40.937 E.04554
G1 X199.177 Y38.758 E.06833
