; generated by PrusaSlicer 2.8.0+win64 on 2025-02-14 at 14:45:13 UTC


;
;
; 

; external perimeters extrusion width = 0.60mm
; perimeters extrusion width = 0.50mm
; infill extrusion width = 0.50mm
; solid infill extrusion width = 0.50mm
; top infill extrusion width = 0.45mm
; support material extrusion width = 0.38mm
; first layer extrusion width = 0.42mm

; external perimeters extrusion width = 0.60mm
; perimeters extrusion width = 0.50mm
; infill extrusion width = 0.50mm
; solid infill extrusion width = 0.50mm
; top infill extrusion width = 0.45mm
; support material extrusion width = 0.38mm
; first layer extrusion width = 0.42mm

; external perimeters extrusion width = 0.60mm
; perimeters extrusion width = 0.50mm
; infill extrusion width = 0.50mm
; solid infill extrusion width = 0.50mm
; top infill extrusion width = 0.45mm
; support material extrusion width = 0.38mm
; first layer extrusion width = 0.42mm

; external perimeters extrusion width = 0.60mm
; perimeters extrusion width = 0.50mm
; infill extrusion width = 0.50mm
; solid infill extrusion width = 0.50mm
; top infill extrusion width = 0.45mm
; support material extrusion width = 0.38mm
; first layer extrusion width = 0.42mm

M73 P0 R63
M73 Q0 S63
M201 X1000 Y1000 Z200 E5000 ; sets maximum accelerations, mm/sec^2
M203 X200 Y200 Z12 E120 ; sets maximum feedrates, mm / sec
M204 S1250 T1250 ; sets acceleration (S) and retract acceleration (R), mm/sec^2
M205 X8.00 Y8.00 Z0.40 E4.50 ; sets the jerk limits, mm/sec
M205 S0 T0 ; sets the minimum extruding and travel feed rate, mm/sec

; printing object foot.stl id:0 copy 0
; stop printing object foot.stl id:0 copy 0
; printing object foot.stl id:3 copy 0
; stop printing object foot.stl id:3 copy 0
; printing object foot.stl id:2 copy 0
; stop printing object foot.stl id:2 copy 0
; printing object foot.stl id:1 copy 0
; stop printing object foot.stl id:1 copy 0

;TYPE:Custom
M862.3 P "MK3S" ; printer model check
M862.1 P0.4 ; nozzle diameter check
M115 U3.13.3 ; tell printer latest fw version
G90 ; use absolute coordinates
M83 ; extruder relative mode
M104 S200 ; set extruder temp
M140 S67 ; set bed temp
M190 S67 ; wait for bed temp
M109 S200 ; wait for extruder temp
G28 W ; home all without mesh bed level
G80 X120 Y18 W83.0035 H20 ; mesh bed levelling

G1 Z0.2 F720
G1 Y-3 F1000 ; go outside print area
G92 E0
G1 X60 E9 F1000 ; intro line
G1 X100 E12.5 F1000 ; intro line

G92 E0
M221 S95

; Don't change E values below. Excessive value can damage the printer.

G21 ; set units to millimeters
G90 ; use absolute coordinates
M83 ; use relative distances for extrusion
M900 K0.05 ; Filament gcode LA 1.5
M900 K30 ; Filament gcode LA 1.0
M107
;LAYER_CHANGE
;Z:0.2
;HEIGHT:0.2
G1 E-1.2 F2100
G1 Z.6 F720
; printing object foot.stl id:3 copy 0
G1 X193.216 Y23.715 F10800
G1 Z.2 F720
G1 E1.2 F2100
M204 S800
;TYPE:Support material
;WIDTH:0.42
G1 F1200
G1 X194.054 Y23.841 E.02657
G1 X194.851 Y24.128 E.02656
G1 X195.576 Y24.567 E.02657
G1 X196.201 Y25.14 E.02659
G1 X196.701 Y25.825 E.02659
G1 X197.056 Y26.594 E.02656
G1 X197.254 Y27.418 E.02657
G1 X197.285 Y28.265 E.02657
G1 X197.149 Y29.102 E.02659
G1 X196.852 Y29.895 E.02655
G1 X196.404 Y30.615 E.02659
G1 X195.824 Y31.233 E.02657
G1 X195.133 Y31.724 E.02658
G1 X194.559 Y31.998 E.01994
G1 X193.743 Y32.226 E.02657
G1 X192.897 Y32.288 E.0266
G1 X192.056 Y32.184 E.02657
G1 X191.252 Y31.916 E.02657
G1 X190.517 Y31.495 E.02656
G1 X189.878 Y30.938 E.02658
G1 X189.361 Y30.266 E.02658
G1 X188.987 Y29.506 E.02656
G1 X188.769 Y28.687 E.02657
G1 X188.717 Y27.841 E.02658
G1 X188.832 Y27.001 E.02658
G1 X189.109 Y26.2 E.02657
G1 X189.539 Y25.47 E.02656
G1 X190.104 Y24.838 E.02658
G1 X190.782 Y24.33 E.02656
G1 X191.547 Y23.965 E.02658
G1 X192.369 Y23.757 E.02659
G1 X193.159 Y23.714 E.02481
M204 S1000
G1 X193.159 Y23.714 F10800
G1 X196.774 Y29.659
M204 S800
G1 F1200
G1 X196.774 Y26.826 E.08883
G1 X196.355 Y25.912 E.03153
G1 X196.355 Y30.09 E.131
G1 X195.936 Y30.645 E.0218
G1 X195.936 Y25.354 E.1659
G1 X195.517 Y24.953 E.01818
G1 X195.517 Y31.046 E.19104
G1 X195.098 Y31.348 E.01619
G1 X195.098 Y24.652 E.20995
G1 X194.679 Y24.423 E.01497
G1 X194.679 Y31.576 E.22428
G1 X194.26 Y31.745 E.01417
G1 X194.26 Y24.256 E.23481
G1 X193.841 Y24.141 E.01362
G1 X193.841 Y31.86 E.24202
G1 X193.422 Y31.927 E.0133
G1 X193.422 Y24.073 E.24626
G1 X193.004 Y24.05 E.01313
G1 X193.004 Y31.949 E.24767
G1 X192.585 Y31.927 E.01316
G1 X192.585 Y24.073 E.24626
G1 X192.166 Y24.141 E.01331
G1 X192.166 Y31.86 E.24202
G1 X191.747 Y31.745 E.01362
G1 X191.747 Y24.256 E.23481
G1 X191.328 Y24.423 E.01414
G1 X191.328 Y31.576 E.22428
G1 X190.909 Y31.348 E.01496
G1 X190.909 Y24.652 E.20995
G1 X190.49 Y24.953 E.01618
G1 X190.49 Y31.046 E.19104
G1 X190.071 Y30.645 E.01818
G1 X190.071 Y25.354 E.1659
G1 X189.652 Y25.912 E.02188
G1 X189.652 Y30.09 E.131
G1 X189.233 Y29.175 E.03155
G1 X189.233 Y26.343 E.0888
M204 S1000
;WIPE_START
G1 F8640
G1 X189.233 Y29.175 E-.65392
G1 X189.652 Y30.09 E-.23237
G1 X189.652 Y28.731 E-.31371
;WIPE_END
G1 Z.6 F720
G1 X199.807 Y30.611 F10800
G1 Z.2 F720
G1 E1.2 F2100
M204 S800
;TYPE:Perimeter
;WIDTH:0.419999
G1 F1200
G1 X199.591 Y31.13 E.01763
G1 X199.25 Y31.766 E.02263
G1 X198.847 Y32.364 E.02261
G1 X198.388 Y32.92 E.02261
G1 X197.875 Y33.428 E.02264
G1 X197.315 Y33.883 E.02262
G1 X196.713 Y34.28 E.02261
G1 X196.074 Y34.616 E.02264
G1 X195.406 Y34.887 E.0226
;WIDTH:0.460494
G1 X194.719 Y35.11 E.02508
;WIDTH:0.489302
G1 X194.621 Y35.147 E.00389
;WIDTH:0.518109
G1 X194.522 Y35.184 E.00418
G1 X194.01 Y35.251 E.0204
;WIDTH:0.473281
G1 X193.287 Y35.298 E.02593
;WIDTH:0.443556
G1 X192.565 Y35.292 E.02405
;WIDTH:0.483952
G1 X191.844 Y35.233 E.02653
;WIDTH:0.50402
G1 X191.637 Y35.207 E.008
G1 X191.389 Y35.13 E.00996
;WIDTH:0.46201
G1 X191.142 Y35.052 E.00903
;WIDTH:0.419999
G1 X190.455 Y34.834 E.0226
G1 X189.792 Y34.549 E.02263
G1 X189.161 Y34.199 E.02262
G1 X188.567 Y33.789 E.02263
G1 X188.017 Y33.323 E.0226
G1 X187.516 Y32.804 E.02262
G1 X187.068 Y32.239 E.02261
G1 X186.678 Y31.631 E.02265
G1 X186.35 Y30.989 E.0226
G1 X186.088 Y30.317 E.02261
;WIDTH:0.464536
G1 X185.871 Y29.628 E.02532
;WIDTH:0.508685
G1 X185.806 Y29.429 E.00811
G1 X185.744 Y28.916 E.02001
;WIDTH:0.467073
G1 X185.703 Y28.193 E.02554
;WIDTH:0.446588
G1 X185.716 Y27.471 E.02424
;WIDTH:0.491607
G1 X185.781 Y26.751 E.02697
G1 X185.878 Y26.401 E.01355
;WIDTH:0.455803
G1 X185.975 Y26.052 E.01244
;WIDTH:0.419999
G1 X186.202 Y25.367 E.02263
G1 X186.495 Y24.708 E.02261
G1 X186.852 Y24.081 E.02262
G1 X187.269 Y23.492 E.02263
G1 X187.743 Y22.948 E.02262
G1 X188.268 Y22.453 E.02262
G1 X188.839 Y22.012 E.02262
G1 X189.451 Y21.63 E.02262
G1 X190.097 Y21.31 E.0226
G1 X190.772 Y21.056 E.02261
;WIDTH:0.467683
G1 X191.463 Y20.846 E.02551
;WIDTH:0.499852
G1 X191.664 Y20.79 E.00793
G1 X192.178 Y20.732 E.01965
;WIDTH:0.461456
G1 X193.211 Y20.702 E.03597
;WIDTH:0.470381
G1 X193.983 Y20.747 E.02749
G1 X194.336 Y20.825 E.01285
;WIDTH:0.44519
G1 X194.69 Y20.904 E.01213
;WIDTH:0.419999
G1 X195.383 Y21.105 E.02262
G1 X196.052 Y21.374 E.02261
G1 X196.692 Y21.708 E.02263
G1 X197.295 Y22.103 E.0226
G1 X197.857 Y22.555 E.02261
G1 X198.371 Y23.062 E.02264
G1 X198.833 Y23.616 E.02262
G1 X199.237 Y24.213 E.0226
G1 X199.581 Y24.847 E.02262
G1 X199.86 Y25.513 E.02264
G1 X200.072 Y26.202 E.0226
;WIDTH:0.450038
G1 X200.158 Y26.553 E.01223
;WIDTH:0.480077
G1 X200.245 Y26.904 E.01314
G1 X200.299 Y27.626 E.02632
;WIDTH:0.442096
G1 X200.299 Y28.349 E.024
;WIDTH:0.476877
G1 X200.247 Y29.07 E.02608
G1 X200.163 Y29.422 E.01306
;WIDTH:0.448438
G1 X200.078 Y29.774 E.01221
;WIDTH:0.419999
G1 X199.868 Y30.464 E.02261
G1 X199.83 Y30.556 E.00312
M204 S1000
G1 X199.83 Y30.556 F10800
G1 X199.458 Y30.47
M204 S800
G1 F1200
G1 X199.245 Y30.981 E.01736
G1 X198.92 Y31.583 E.02145
G1 X198.537 Y32.15 E.02145
G1 X198.1 Y32.676 E.02144
G1 X197.614 Y33.157 E.02144
G1 X197.082 Y33.587 E.02145
G1 X196.51 Y33.962 E.02145
G1 X195.904 Y34.279 E.02144
G1 X195.269 Y34.535 E.02147
G1 X194.612 Y34.727 E.02146
G1 X193.94 Y34.853 E.02144
G1 X193.258 Y34.912 E.02146
G1 X192.574 Y34.904 E.02145
G1 X191.895 Y34.827 E.02143
G1 X191.226 Y34.684 E.02145
G1 X190.574 Y34.476 E.02146
G1 X189.946 Y34.204 E.02146
G1 X189.348 Y33.872 E.02145
G1 X188.786 Y33.482 E.02145
G1 X188.265 Y33.039 E.02144
G1 X187.79 Y32.546 E.02147
G1 X187.367 Y32.009 E.02143
G1 X186.998 Y31.432 E.02147
G1 X186.689 Y30.822 E.02144
G1 X186.441 Y30.185 E.02143
G1 X186.257 Y29.526 E.02145
G1 X186.139 Y28.852 E.02145
G1 X186.089 Y28.169 E.02147
G1 X186.106 Y27.486 E.02142
G1 X186.19 Y26.807 E.02145
G1 X186.342 Y26.139 E.02148
G1 X186.558 Y25.49 E.02145
G1 X186.837 Y24.866 E.02143
G1 X187.177 Y24.272 E.02146
G1 X187.574 Y23.715 E.02145
G1 X188.024 Y23.199 E.02147
G1 X188.522 Y22.731 E.02143
G1 X189.065 Y22.314 E.02147
G1 X189.646 Y21.953 E.02145
G1 X190.26 Y21.651 E.02145
G1 X190.9 Y21.411 E.02143
G1 X191.561 Y21.235 E.02145
G1 X192.237 Y21.126 E.02147
G1 X193.22 Y21.089 E.03084
G1 X193.943 Y21.147 E.02274
G1 X194.616 Y21.274 E.02147
G1 X195.272 Y21.466 E.02143
G1 X195.907 Y21.722 E.02147
G1 X196.513 Y22.039 E.02144
G1 X197.084 Y22.415 E.02144
G1 X197.616 Y22.846 E.02147
G1 X198.103 Y23.326 E.02144
G1 X198.539 Y23.853 E.02145
G1 X198.922 Y24.42 E.02145
G1 X199.247 Y25.022 E.02145
G1 X199.51 Y25.654 E.02146
G1 X199.71 Y26.308 E.02144
G1 X199.845 Y26.979 E.02146
G1 X199.912 Y27.66 E.02146
G1 X199.912 Y28.344 E.02145
G1 X199.844 Y29.024 E.02143
G1 X199.709 Y29.695 E.02146
G1 X199.509 Y30.349 E.02144
G1 X199.482 Y30.415 E.00224
M204 S1000
G1 X199.482 Y30.415 F10800
G1 X199.11 Y30.33
M204 S800
G1 F1200
G1 X198.899 Y30.831 E.01704
G1 X198.591 Y31.399 E.02026
G1 X198.228 Y31.935 E.0203
G1 X197.813 Y32.432 E.0203
G1 X197.352 Y32.885 E.02026
G1 X196.848 Y33.291 E.02029
G1 X196.307 Y33.645 E.02027
G1 X195.733 Y33.943 E.02028
G1 X195.132 Y34.184 E.0203
G1 X194.511 Y34.364 E.02027
G1 X193.875 Y34.482 E.02028
G1 X193.231 Y34.536 E.02026
G1 X192.584 Y34.527 E.02029
G1 X191.941 Y34.453 E.02029
G1 X191.309 Y34.317 E.02027
G1 X190.693 Y34.118 E.0203
G1 X190.1 Y33.86 E.02028
G1 X189.535 Y33.545 E.02028
G1 X189.004 Y33.175 E.02029
G1 X188.513 Y32.755 E.02026
G1 X188.065 Y32.288 E.02029
G1 X187.666 Y31.779 E.02028
G1 X187.319 Y31.233 E.02028
G1 X187.027 Y30.656 E.02028
G1 X186.794 Y30.052 E.0203
G1 X186.621 Y29.429 E.02027
G1 X186.512 Y28.791 E.02029
G1 X186.465 Y28.146 E.02028
G1 X186.483 Y27.5 E.02026
G1 X186.564 Y26.858 E.02029
G1 X186.708 Y26.227 E.02029
G1 X186.914 Y25.614 E.02028
G1 X187.18 Y25.024 E.02029
G1 X187.502 Y24.463 E.02028
G1 X187.878 Y23.937 E.02027
G1 X188.305 Y23.451 E.02028
G1 X188.777 Y23.009 E.02028
G1 X189.291 Y22.616 E.02029
G1 X189.841 Y22.275 E.02029
G1 X190.422 Y21.991 E.02028
G1 X191.028 Y21.765 E.02028
G1 X191.654 Y21.601 E.02029
G1 X192.293 Y21.499 E.02029
G1 X193.229 Y21.465 E.02937
G1 X193.906 Y21.523 E.0213
G1 X194.542 Y21.643 E.02029
G1 X195.162 Y21.826 E.02027
G1 X195.761 Y22.07 E.02028
G1 X196.334 Y22.371 E.02029
G1 X196.873 Y22.728 E.02027
G1 X197.375 Y23.136 E.02028
G1 X197.834 Y23.591 E.02026
G1 X198.246 Y24.09 E.02029
G1 X198.607 Y24.627 E.02029
G1 X198.913 Y25.197 E.02028
G1 X199.161 Y25.795 E.0203
G1 X199.348 Y26.414 E.02027
G1 X199.474 Y27.048 E.02027
G1 X199.536 Y27.692 E.02029
G1 X199.535 Y28.339 E.02029
G1 X199.469 Y28.983 E.0203
G1 X199.341 Y29.616 E.02025
G1 X199.15 Y30.235 E.02031
G1 X199.133 Y30.275 E.00136
M204 S1000
G1 X199.133 Y30.275 F10800
G1 X198.761 Y30.189
M204 S800
G1 F1200
G1 X198.553 Y30.681 E.01675
G1 X198.261 Y31.216 E.01911
G1 X197.918 Y31.72 E.01911
G1 X197.526 Y32.187 E.01912
G1 X197.09 Y32.613 E.01911
G1 X196.615 Y32.995 E.01911
G1 X196.103 Y33.327 E.01913
G1 X195.562 Y33.607 E.0191
G1 X194.996 Y33.832 E.0191
G1 X194.41 Y34.001 E.01912
G1 X193.81 Y34.11 E.01912
G1 X193.203 Y34.16 E.0191
G1 X192.593 Y34.15 E.01913
G1 X191.988 Y34.079 E.0191
G1 X191.392 Y33.949 E.01913
G1 X190.812 Y33.761 E.01912
G1 X190.254 Y33.516 E.01911
G1 X189.722 Y33.217 E.01913
G1 X189.223 Y32.868 E.01909
G1 X188.761 Y32.47 E.01912
G1 X188.34 Y32.029 E.01912
G1 X187.965 Y31.549 E.0191
G1 X187.639 Y31.034 E.01911
G1 X187.365 Y30.489 E.01913
G1 X187.147 Y29.92 E.01911
G1 X186.986 Y29.332 E.01911
G1 X186.884 Y28.731 E.01911
G1 X186.841 Y28.123 E.01911
G1 X186.859 Y27.514 E.0191
G1 X186.938 Y26.909 E.01913
G1 X187.075 Y26.315 E.01911
G1 X187.27 Y25.738 E.0191
G1 X187.522 Y25.182 E.01914
G1 X187.827 Y24.655 E.01909
G1 X188.183 Y24.16 E.01912
G1 X188.586 Y23.702 E.01913
G1 X189.032 Y23.287 E.0191
G1 X189.517 Y22.918 E.01911
G1 X190.036 Y22.598 E.01912
G1 X190.584 Y22.331 E.01911
G1 X191.156 Y22.12 E.01912
G1 X191.746 Y21.966 E.01912
G1 X192.348 Y21.872 E.0191
G1 X193.239 Y21.842 E.02795
G1 X193.869 Y21.898 E.01983
G1 X194.467 Y22.013 E.01909
G1 X195.052 Y22.187 E.01914
G1 X195.616 Y22.418 E.01911
G1 X196.155 Y22.703 E.01912
G1 X196.662 Y23.04 E.01909
G1 X197.134 Y23.426 E.01912
G1 X197.566 Y23.856 E.01911
G1 X197.953 Y24.327 E.01911
G1 X198.292 Y24.834 E.01912
G1 X198.579 Y25.372 E.01912
G1 X198.811 Y25.936 E.01912
G1 X198.986 Y26.52 E.01912
G1 X199.103 Y27.118 E.01911
G1 X199.161 Y27.725 E.01912
G1 X199.158 Y28.334 E.01909
G1 X199.095 Y28.941 E.01913
G1 X198.972 Y29.538 E.01911
G1 X198.791 Y30.12 E.01911
G1 X198.785 Y30.134 E.00048
M204 S1000
G1 X198.785 Y30.134 F10800
G1 X198.413 Y30.049
M204 S800
G1 F1200
G1 X198.207 Y30.532 E.01646
G1 X197.931 Y31.033 E.01793
G1 X197.608 Y31.505 E.01793
G1 X197.239 Y31.943 E.01796
G1 X196.829 Y32.342 E.01794
G1 X196.381 Y32.699 E.01796
G1 X195.9 Y33.009 E.01794
G1 X195.391 Y33.271 E.01795
G1 X194.859 Y33.481 E.01793
G1 X194.308 Y33.637 E.01796
G1 X193.745 Y33.739 E.01794
G1 X193.175 Y33.784 E.01793
G1 X192.602 Y33.773 E.01797
G1 X192.034 Y33.705 E.01794
G1 X191.475 Y33.581 E.01795
G1 X190.931 Y33.403 E.01795
G1 X190.408 Y33.172 E.01793
G1 X189.91 Y32.89 E.01794
G1 X189.442 Y32.56 E.01795
G1 X189.009 Y32.186 E.01794
G1 X188.615 Y31.771 E.01794
G1 X188.264 Y31.319 E.01794
G1 X187.959 Y30.835 E.01794
G1 X187.703 Y30.322 E.01798
G1 X187.5 Y29.788 E.01791
G1 X187.35 Y29.235 E.01797
G1 X187.256 Y28.671 E.01793
G1 X187.218 Y28.1 E.01794
G1 X187.236 Y27.528 E.01794
G1 X187.311 Y26.96 E.01796
G1 X187.442 Y26.403 E.01794
G1 X187.627 Y25.861 E.01796
G1 X187.864 Y25.341 E.01792
G1 X188.152 Y24.846 E.01796
G1 X188.487 Y24.382 E.01794
G1 X188.867 Y23.954 E.01795
G1 X189.287 Y23.565 E.01795
G1 X189.743 Y23.219 E.01795
G1 X190.231 Y22.921 E.01793
G1 X190.747 Y22.672 E.01796
G1 X191.284 Y22.475 E.01793
G1 X191.838 Y22.332 E.01794
G1 X192.404 Y22.245 E.01795
G1 X193.248 Y22.219 E.02648
G1 X193.832 Y22.273 E.01839
G1 X194.393 Y22.383 E.01792
G1 X194.941 Y22.548 E.01794
G1 X195.47 Y22.766 E.01794
G1 X195.976 Y23.035 E.01797
G1 X196.451 Y23.353 E.01792
G1 X196.894 Y23.716 E.01796
G1 X197.298 Y24.121 E.01794
G1 X197.66 Y24.565 E.01796
G1 X197.977 Y25.041 E.01793
G1 X198.244 Y25.547 E.01794
G1 X198.461 Y26.077 E.01796
G1 X198.624 Y26.625 E.01793
G1 X198.733 Y27.187 E.01795
G1 X198.785 Y27.757 E.01795
G1 X198.781 Y28.33 E.01797
G1 X198.72 Y28.899 E.01794
G1 X198.603 Y29.459 E.01794
G1 X198.435 Y29.993 E.01755
M204 S1000
G1 X198.435 Y29.993 F10800
G1 X198.065 Y29.908
M204 S800
;TYPE:External perimeter
G1 F1200
G1 X197.861 Y30.382 E.01618
G1 X197.602 Y30.85 E.01677
G1 X197.298 Y31.29 E.01677
G1 X196.952 Y31.698 E.01677
G1 X196.567 Y32.07 E.01679
G1 X196.147 Y32.403 E.01681
G1 X195.697 Y32.692 E.01677
G1 X195.221 Y32.935 E.01676
M73 P0 R62
G1 X194.722 Y33.13 E.0168
G1 X194.207 Y33.274 E.01677
G1 X193.68 Y33.367 E.01678
G1 X193.147 Y33.408 E.01676
G1 X192.612 Y33.396 E.01678
G1 X192.081 Y33.331 E.01677
G1 X191.559 Y33.213 E.01678
G1 X191.051 Y33.045 E.01678
G1 X190.562 Y32.827 E.01679
G1 X190.097 Y32.563 E.01677
G1 X189.66 Y32.253 E.0168
G1 X189.256 Y31.902 E.01678
G1 X188.889 Y31.513 E.01677
G1 X188.562 Y31.089 E.01679
G1 X188.279 Y30.635 E.01677
G1 X188.042 Y30.156 E.01676
G1 X187.853 Y29.655 E.01679
G1 X187.715 Y29.138 E.01678
G1 X187.628 Y28.61 E.01678
G1 X187.594 Y28.076 E.01678
G1 X187.613 Y27.541 E.01679
G1 X187.685 Y27.011 E.01677
G1 X187.808 Y26.491 E.01675
G1 X187.983 Y25.985 E.01679
