; generated by PrusaSlicer 2.8.0+win64 on 2025-02-18 at 19:40:23 UTC


;
;
; 

; external perimeters extrusion width = 0.60mm
; perimeters extrusion width = 0.50mm
; infill extrusion width = 0.50mm
; solid infill extrusion width = 0.50mm
; top infill extrusion width = 0.45mm
; first layer extrusion width = 0.42mm

M73 P0 R51
M73 Q0 S52
M201 X1000 Y1000 Z200 E5000 ; sets maximum accelerations, mm/sec^2
M203 X200 Y200 Z12 E120 ; sets maximum feedrates, mm / sec
M204 S1250 T1250 ; sets acceleration (S) and retract acceleration (R), mm/sec^2
M205 X8.00 Y8.00 Z0.40 E4.50 ; sets the jerk limits, mm/sec
M205 S0 T0 ; sets the minimum extruding and travel feed rate, mm/sec

; printing object power_board_mount.stl id:0 copy 0
; stop printing object power_board_mount.stl id:0 copy 0

;TYPE:Custom
M862.3 P "MK3S" ; printer model check
M862.1 P0.4 ; nozzle diameter check
M115 U3.13.3 ; tell printer latest fw version
G90 ; use absolute coordinates
M83 ; extruder relative mode
M104 S205 ; set extruder temp
M140 S67 ; set bed temp
M190 S67 ; wait for bed temp
M109 S205 ; wait for extruder temp
G28 W ; home all without mesh bed level
G80 X138.55 Y15.3736 W83 H55 ; mesh bed levelling

G1 Z0.2 F720
G1 Y-3 F1000 ; go outside print area
G92 E0
G1 X60 E9 F1000 ; intro line
G1 X100 E12.5 F1000 ; intro line

G92 E0
M221 S95

; Don't change E values below. Excessive value can damage the printer.

G21 ; set units to millimeters
G90 ; use absolute coordinates
M83 ; use relative distances for extrusion
M900 K0.05 ; Filament gcode LA 1.5
M900 K30 ; Filament gcode LA 1.0
M107
;LAYER_CHANGE
;Z:0.2
;HEIGHT:0.2
G1 E-1.2 F2100
G1 Z.6 F720
; printing object power_board_mount.stl id:0 copy 0
G1 X155.612 Y66.952 F10800
G1 Z.2 F720
G1 E1.2 F2100
M204 S800
;TYPE:Perimeter
;WIDTH:0.419999
G1 F1200
G1 X155.335 Y66.851 E.00924
G1 X155.012 Y66.665 E.01169
G1 X154.561 Y66.286 E.01847
G1 X154.321 Y66.001 E.01168
G1 X154.027 Y65.49 E.01848
G1 X153.823 Y64.853 E.02097
G1 X153.797 Y64.187 E.0209
G1 X153.899 Y63.607 E.01846
G1 X154.027 Y63.257 E.01168
G1 X154.322 Y62.747 E.01847
G1 X154.561 Y62.461 E.01169
G1 X155.012 Y62.083 E.01845
G1 X155.615 Y61.767 E.02135
G1 X156.223 Y61.634 E.01951
G1 X156.797 Y61.628 E.018
G1 X157.368 Y61.73 E.01819
G1 X157.826 Y61.931 E.01568
G1 X158.131 Y62.108 E.01106
G1 X158.496 Y62.412 E.01489
G1 X158.826 Y62.806 E.01611
G1 X159.026 Y63.14 E.01221
G1 X159.251 Y63.77 E.02098
G1 X159.303 Y64.187 E.01318
G1 X159.281 Y64.833 E.02027
G1 X159.073 Y65.49 E.02161
G1 X158.956 Y65.745 E.0088
G1 X158.539 Y66.286 E.02142
G1 X158.088 Y66.665 E.01847
G1 X157.765 Y66.851 E.01169
G1 X157.211 Y67.052 E.01848
G1 X156.55 Y67.143 E.02092
G1 X155.889 Y67.052 E.02092
G1 X155.668 Y66.972 E.00737
M204 S1000
G1 X155.739 Y66.603 F10800
M204 S800
G1 F1200
G1 X155.523 Y66.524 E.00721
G1 X155.201 Y66.338 E.01166
G1 X154.85 Y66.043 E.01438
G1 X154.61 Y65.758 E.01168
G1 X154.381 Y65.361 E.01437
G1 X154.194 Y64.788 E.0189
G1 X154.174 Y64.187 E.01885
G1 X154.254 Y63.736 E.01436
G1 X154.381 Y63.386 E.01167
G1 X154.61 Y62.989 E.01437
G1 X154.85 Y62.704 E.01168
G1 X155.201 Y62.409 E.01438
G1 X155.741 Y62.122 E.01917
G1 X156.291 Y62.005 E.01763
G1 X156.737 Y62 E.01398
G1 X157.268 Y62.094 E.01691
G1 X157.637 Y62.258 E.01266
G1 X157.933 Y62.429 E.01072
G1 X158.25 Y62.704 E.01316
G1 X158.604 Y63.148 E.0178
G1 X158.846 Y63.736 E.01994
G1 X158.926 Y64.187 E.01436
G1 X158.909 Y64.772 E.01835
G1 X158.719 Y65.361 E.0194
G1 X158.49 Y65.758 E.01437
G1 X158.25 Y66.043 E.01168
G1 X157.899 Y66.338 E.01438
G1 X157.577 Y66.524 E.01166
G1 X157.146 Y66.681 E.01438
G1 X156.55 Y66.766 E.01888
G1 X155.954 Y66.681 E.01888
G1 X155.795 Y66.623 E.00531
M204 S1000
G1 X155.795 Y66.623 F10800
G1 X155.866 Y66.254
M204 S800
G1 F1200
G1 X155.712 Y66.198 E.00514
G1 X155.173 Y65.84 E.02029
G1 X154.899 Y65.516 E.0133
G1 X154.736 Y65.232 E.01027
G1 X154.565 Y64.723 E.01684
G1 X154.551 Y64.187 E.01681
G1 X154.608 Y63.865 E.01025
G1 X154.736 Y63.515 E.01168
G1 X154.899 Y63.231 E.01027
G1 X155.139 Y62.946 E.01168
G1 X155.389 Y62.736 E.01024
G1 X155.867 Y62.478 E.01703
G1 X156.358 Y62.376 E.01572
G1 X156.677 Y62.373 E.01
G1 X157.253 Y62.485 E.0184
G1 X157.735 Y62.75 E.01725
G1 X157.961 Y62.946 E.00938
G1 X158.282 Y63.345 E.01606
G1 X158.492 Y63.865 E.01758
G1 X158.549 Y64.187 E.01025
G1 X158.536 Y64.712 E.01647
G1 X158.364 Y65.232 E.01717
G1 X158.201 Y65.516 E.01027
G1 X157.961 Y65.801 E.01168
G1 X157.711 Y66.011 E.01024
G1 X157.388 Y66.198 E.0117
G1 X157.08 Y66.31 E.01028
G1 X156.55 Y66.389 E.0168
G1 X156.02 Y66.31 E.0168
G1 X155.922 Y66.274 E.00327
M204 S1000
G1 X155.922 Y66.274 F10800
G1 X155.997 Y65.894
M204 S800
G1 F1200
G1 X155.9 Y65.871 E.00313
G1 X155.448 Y65.582 E.01682
G1 X155.09 Y65.103 E.01875
G1 X154.937 Y64.658 E.01475
G1 X154.928 Y64.187 E.01477
G1 X155.09 Y63.644 E.01777
G1 X155.427 Y63.189 E.01775
G1 X155.9 Y62.876 E.01778
G1 X156.426 Y62.747 E.01698
G1 X157.007 Y62.808 E.01832
G1 X157.26 Y62.911 E.00856
G1 X157.536 Y63.071 E.01
G1 X157.912 Y63.474 E.01728
G1 X158.01 Y63.644 E.00615
G1 X158.167 Y64.112 E.01548
G1 X158.164 Y64.651 E.0169
G1 X157.971 Y65.188 E.01789
G1 X157.673 Y65.559 E.01492
G1 X157.2 Y65.871 E.01777
G1 X156.648 Y66.003 E.0178
G1 X156.452 Y66.003 E.00615
G1 X156.056 Y65.908 E.01277
M204 S1000
G1 X156.056 Y65.908 F10800
G1 X156.122 Y65.551
M204 S800
;TYPE:External perimeter
G1 F1200
G1 X156.089 Y65.545 E.00105
G1 X155.716 Y65.316 E.01372
G1 X155.444 Y64.974 E.0137
G1 X155.305 Y64.56 E.01369
G1 X155.317 Y64.123 E.01371
G1 X155.477 Y63.716 E.01371
G1 X155.766 Y63.389 E.01368
G1 X156.149 Y63.181 E.01367
G1 X156.557 Y63.117 E.01295
G1 X157.011 Y63.203 E.01449
G1 X157.338 Y63.392 E.01184
G1 X157.656 Y63.773 E.01556
G1 X157.795 Y64.187 E.01369
G1 X157.783 Y64.624 E.01371
G1 X157.623 Y65.031 E.01371
G1 X157.334 Y65.358 E.01368
G1 X156.949 Y65.567 E.01374
G1 X156.517 Y65.632 E.0137
G1 X156.181 Y65.563 E.01075
M204 S1000
;WIPE_START
G1 F8640
G1 X156.122 Y65.551 E-.0139
G1 X156.089 Y65.545 E-.00774
G1 X155.716 Y65.316 E-.10106
G1 X155.444 Y64.974 E-.1009
G1 X155.305 Y64.56 E-.10084
G1 X155.317 Y64.123 E-.10094
G1 X155.477 Y63.716 E-.10098
G1 X155.766 Y63.389 E-.10077
G1 X156.149 Y63.181 E-.10064
G1 X156.557 Y63.117 E-.09536
G1 X157.011 Y63.203 E-.10669
G1 X157.338 Y63.392 E-.08721
G1 X157.656 Y63.773 E-.11459
G1 X157.75 Y64.054 E-.06838
;WIPE_END
G1 Z.6 F720
G1 X146.033 Y39.725 F10800
G1 Z.2 F720
G1 E1.2 F2100
M204 S800
;TYPE:Perimeter
G1 F1200
G1 X146.224 Y39.837 E.00694
G1 X146.5 Y40.055 E.01103
G1 X146.949 Y40.519 E.02024
G1 X147.157 Y40.803 E.01104
G1 X147.467 Y41.369 E.02023
G1 X147.594 Y41.697 E.01103
G1 X147.744 Y42.325 E.02024
G1 X147.779 Y42.675 E.01103
G1 X147.757 Y43.321 E.02027
G1 X147.699 Y43.667 E.011
G1 X147.507 Y44.284 E.02026
G1 X147.359 Y44.603 E.01103
G1 X147.012 Y45.147 E.02023
G1 X146.785 Y45.416 E.01104
G1 X146.306 Y45.849 E.02025
G1 X146.016 Y46.048 E.01103
G1 X145.44 Y46.339 E.02023
G1 X145.107 Y46.455 E.01106
G1 X144.475 Y46.583 E.02022
G1 X144.126 Y46.607 E.01097
G1 X143.501 Y46.567 E.01964
G1 X143.161 Y46.499 E.01087
G1 X142.532 Y46.285 E.02083
G1 X142.211 Y46.123 E.01127
G1 X141.679 Y45.758 E.02023
G1 X141.418 Y45.522 E.01103
G1 X141.001 Y45.029 E.02025
G1 X140.811 Y44.732 E.01105
G1 X140.54 Y44.147 E.02021
G1 X140.443 Y43.809 E.01103
;WIDTH:0.404742
G1 X140.403 Y43.489 E.0097
;WIDTH:0.377709
G1 X140.362 Y43.168 E.00901
;WIDTH:0.37488
G1 X140.4 Y42.204 E.02663
;WIDTH:0.419228
G1 X140.457 Y41.864 E.01079
;WIDTH:0.419999
G1 X140.692 Y41.242 E.02085
G1 X140.864 Y40.927 E.01125
G1 X141.246 Y40.407 E.02023
G1 X141.491 Y40.154 E.01104
G1 X141.998 Y39.754 E.02025
G1 X142.301 Y39.575 E.01103
G1 X142.895 Y39.323 E.02023
G1 X143.232 Y39.23 E.01096
G1 X143.852 Y39.145 E.01962
G1 X144.451 Y39.156 E.01878
G1 X145.344 Y39.371 E.0288
G1 X145.668 Y39.508 E.01103
G1 X145.982 Y39.694 E.01144
M204 S1000
G1 X145.982 Y39.694 F10800
G1 X145.814 Y40.044
M204 S800
G1 F1200
G1 X146.031 Y40.162 E.00774
G1 X146.677 Y40.782 E.02807
G1 X146.827 Y40.984 E.00789
G1 X147.137 Y41.55 E.02023
G1 X147.227 Y41.785 E.00789
G1 X147.377 Y42.413 E.02024
G1 X147.402 Y42.663 E.00788
G1 X147.38 Y43.308 E.02024
G1 X147.339 Y43.556 E.00788
G1 X147.147 Y44.172 E.02023
G1 X146.893 Y44.633 E.0165
G1 X146.532 Y45.136 E.01941
G1 X146.053 Y45.57 E.02027
G1 X145.27 Y46.003 E.02805
G1 X144.4 Y46.214 E.02807
G1 X144.151 Y46.231 E.00783
G1 X143.526 Y46.19 E.01964
G1 X143.283 Y46.142 E.00777
G1 X142.654 Y45.928 E.02083
G1 X142.424 Y45.812 E.00808
G1 X141.892 Y45.447 E.02023
G1 X141.289 Y44.785 E.02808
G1 X140.882 Y43.988 E.02806
G1 X140.7 Y43.111 E.02808
G1 X140.691 Y42.862 E.00781
G1 X140.753 Y42.239 E.01963
G1 X141.044 Y41.376 E.02856
G1 X141.167 Y41.151 E.00804
G1 X141.55 Y40.631 E.02025
G1 X142.231 Y40.05 E.02807
G1 X143.042 Y39.67 E.02808
G1 X143.283 Y39.604 E.00783
G1 X143.903 Y39.519 E.01962
G1 X144.429 Y39.532 E.0165
G1 X145.245 Y39.735 E.02636
G1 X145.761 Y40.015 E.01841
M204 S1000
G1 X145.601 Y40.353 F10800
M204 S800
G1 F1200
G1 X145.839 Y40.486 E.00855
G1 X146.406 Y41.044 E.02494
G1 X146.806 Y41.731 E.02493
G1 X147.01 Y42.5 E.02495
G1 X147.004 Y43.295 E.02493
G1 X146.787 Y44.061 E.02496
G1 X146.376 Y44.742 E.02494
G1 X145.8 Y45.29 E.02493
G1 X145.1 Y45.666 E.02491
G1 X144.324 Y45.844 E.02496
G1 X143.55 Y45.814 E.02429
G1 X142.775 Y45.571 E.02547
G1 X142.105 Y45.136 E.02505
G1 X141.577 Y44.542 E.02492
G1 X141.224 Y43.829 E.02495
G1 X141.072 Y43.049 E.02492
G1 X141.128 Y42.276 E.0243
G1 X141.397 Y41.509 E.02548
G1 X141.854 Y40.854 E.02504
G1 X142.465 Y40.346 E.02491
G1 X143.189 Y40.017 E.02493
G1 X143.954 Y39.893 E.0243
G1 X144.522 Y39.928 E.01784
G1 X145.145 Y40.098 E.02025
G1 X145.549 Y40.324 E.01451
M204 S1000
G1 X145.39 Y40.662 F10800
M204 S800
;TYPE:External perimeter
G1 F1200
G1 X145.647 Y40.811 E.00931
G1 X146.135 Y41.306 E.02179
G1 X146.475 Y41.913 E.02181
G1 X146.643 Y42.587 E.02178
G1 X146.627 Y43.283 E.02183
G1 X146.427 Y43.949 E.0218
G1 X146.058 Y44.539 E.02182
G1 X145.547 Y45.01 E.02179
G1 X144.93 Y45.33 E.02179
G1 X144.249 Y45.475 E.02183
G1 X143.575 Y45.438 E.02116
G1 X142.897 Y45.214 E.02239
G1 X142.319 Y44.825 E.02184
G1 X141.865 Y44.299 E.02179
G1 X141.566 Y43.671 E.02181
G1 X141.443 Y42.986 E.02182
G1 X141.503 Y42.313 E.02119
G1 X141.75 Y41.643 E.02239
G1 X142.157 Y41.078 E.02183
G1 X142.699 Y40.642 E.02181
G1 X143.337 Y40.364 E.02182
G1 X144.005 Y40.266 E.02117
G1 X144.423 Y40.291 E.01313
G1 X145.045 Y40.462 E.02023
G1 X145.338 Y40.632 E.01062
M204 S1000
;WIPE_START
G1 F8640
G1 X145.39 Y40.662 E-.01386
G1 X145.647 Y40.811 E-.06859
G1 X146.135 Y41.306 E-.1605
G1 X146.475 Y41.913 E-.16065
G1 X146.643 Y42.587 E-.16039
G1 X146.627 Y43.283 E-.16075
G1 X146.427 Y43.949 E-.16057
G1 X146.058 Y44.539 E-.16068
G1 X145.568 Y44.991 E-.15401
;WIPE_END
G1 Z.6 F720
G1 X154.781 Y19.266 F10800
G1 Z.2 F720
G1 E1.2 F2100
M204 S800
;TYPE:Perimeter
G1 F1200
G1 X155.012 Y19.083 E.00924
G1 X155.335 Y18.896 E.0117
G1 X155.879 Y18.697 E.01816
G1 X156.528 Y18.606 E.02055
G1 X157.187 Y18.691 E.02083
G1 X157.765 Y18.896 E.01923
G1 X158.088 Y19.083 E.0117
G1 X158.539 Y19.461 E.01845
G1 X158.956 Y20.002 E.02142
G1 X159.201 Y20.607 E.02047
G1 X159.281 Y20.914 E.00995
G1 X159.303 Y21.56 E.02027
G1 X159.251 Y21.977 E.01318
G1 X159.073 Y22.49 E.01703
G1 X158.875 Y22.874 E.01355
G1 X158.539 Y23.286 E.01667
G1 X158.169 Y23.615 E.01552
G1 X157.658 Y23.908 E.01847
G1 X157.211 Y24.052 E.01472
G1 X156.671 Y24.138 E.01714
G1 X156.255 Y24.117 E.01306
G1 X155.62 Y23.982 E.02035
G1 X155.013 Y23.665 E.02147
G1 X154.561 Y23.286 E.01849
G1 X154.322 Y23.001 E.01166
G1 X154.027 Y22.49 E.0185
G1 X153.823 Y21.853 E.02097
G1 X153.797 Y21.187 E.0209
G1 X153.899 Y20.607 E.01846
G1 X154.027 Y20.257 E.01168
G1 X154.321 Y19.747 E.01846
G1 X154.623 Y19.391 E.01464
G1 X154.734 Y19.303 E.00444
M204 S1000
G1 X154.734 Y19.303 F10800
G1 X155.021 Y19.552
M204 S800
G1 F1200
G1 X155.201 Y19.409 E.00721
G1 X155.523 Y19.223 E.01166
G1 X155.947 Y19.068 E.01415
G1 X156.528 Y18.984 E.01841
G1 X157.127 Y19.063 E.01894
G1 X157.577 Y19.223 E.01497
G1 X157.899 Y19.409 E.01166
G1 X158.25 Y19.704 E.01438
G1 X158.627 Y20.188 E.01924
G1 X158.846 Y20.736 E.0185
G1 X158.926 Y21.187 E.01436
G1 X158.914 Y21.735 E.01719
G1 X158.719 Y22.361 E.02056
G1 X158.565 Y22.66 E.01055
G1 X158.216 Y23.082 E.01717
G1 X157.899 Y23.338 E.01278
G1 X157.395 Y23.611 E.01797
G1 X156.779 Y23.746 E.01977
G1 X156.321 Y23.746 E.01436
G1 X155.745 Y23.626 E.01845
G1 X155.201 Y23.338 E.0193
G1 X154.85 Y23.044 E.01436
G1 X154.61 Y22.758 E.01171
G1 X154.381 Y22.361 E.01437
G1 X154.194 Y21.788 E.0189
G1 X154.174 Y21.187 E.01885
G1 X154.254 Y20.736 E.01436
G1 X154.381 Y20.386 E.01167
G1 X154.61 Y19.989 E.01437
G1 X154.898 Y19.649 E.01397
G1 X154.974 Y19.589 E.00304
M204 S1000
G1 X154.974 Y19.589 F10800
G1 X155.268 Y19.844
M204 S800
G1 F1200
G1 X155.712 Y19.55 E.0167
G1 X156.014 Y19.439 E.01009
G1 X156.528 Y19.361 E.0163
G1 X157.067 Y19.435 E.01706
G1 X157.388 Y19.55 E.01069
G1 X157.711 Y19.736 E.01169
G1 X157.961 Y19.946 E.01024
G1 X158.299 Y20.373 E.01708
G1 X158.492 Y20.865 E.01657
G1 X158.549 Y21.187 E.01025
G1 X158.52 Y21.792 E.01899
G1 X158.338 Y22.297 E.01683
G1 X158.254 Y22.445 E.00534
G1 X157.914 Y22.853 E.01665
G1 X157.449 Y23.163 E.01752
G1 X157.08 Y23.31 E.01245
G1 X156.508 Y23.388 E.0181
G1 X155.87 Y23.271 E.02034
G1 X155.39 Y23.012 E.0171
G1 X155.139 Y22.801 E.01028
G1 X154.899 Y22.516 E.01168
G1 X154.736 Y22.232 E.01027
G1 X154.565 Y21.723 E.01684
G1 X154.551 Y21.187 E.01681
G1 X154.608 Y20.865 E.01025
G1 X154.736 Y20.515 E.01168
G1 X154.899 Y20.232 E.01024
G1 X155.173 Y19.907 E.01333
G1 X155.218 Y19.878 E.00168
M204 S1000
G1 X155.218 Y19.878 F10800
G1 X155.509 Y20.135
M204 S800
G1 F1200
G1 X155.578 Y20.062 E.00315
G1 X156.082 Y19.81 E.01767
G1 X156.617 Y19.745 E.0169
G1 X157.2 Y19.876 E.01874
G1 X157.673 Y20.189 E.01778
G1 X157.971 Y20.559 E.0149
G1 X158.164 Y21.096 E.01789
G1 X158.167 Y21.635 E.0169
G1 X157.994 Y22.142 E.0168
G1 X157.944 Y22.231 E.0032
G1 X157.618 Y22.615 E.01579
G1 X157.164 Y22.89 E.01664
G1 X156.648 Y23.003 E.01656
G1 X156.452 Y23.003 E.00615
G1 X155.996 Y22.915 E.01456
G1 X155.578 Y22.685 E.01496
G1 X155.188 Y22.273 E.01779
G1 X154.962 Y21.753 E.01778
G1 X154.928 Y21.56 E.00614
G1 X154.962 Y20.994 E.01778
G1 X155.188 Y20.474 E.01778
G1 X155.468 Y20.178 E.01278
M204 S1000
G1 X155.468 Y20.178 F10800
G1 X155.744 Y20.414
M204 S800
;TYPE:External perimeter
G1 F1200
G1 X155.766 Y20.389 E.00104
G1 X156.149 Y20.18 E.01368
G1 X156.557 Y20.117 E.01294
G1 X157.011 Y20.203 E.01449
G1 X157.384 Y20.431 E.01371
G1 X157.656 Y20.773 E.0137
G1 X157.795 Y21.187 E.01369
G1 X157.783 Y21.624 E.01371
G1 X157.634 Y22.017 E.01318
G1 X157.334 Y22.358 E.01424
G1 X156.949 Y22.567 E.01374
G1 X156.517 Y22.632 E.0137
G1 X156.089 Y22.545 E.01369
G1 X155.716 Y22.316 E.01372
G1 X155.444 Y21.974 E.0137
G1 X155.305 Y21.56 E.01369
G1 X155.317 Y21.123 E.01371
G1 X155.477 Y20.716 E.01371
G1 X155.704 Y20.459 E.01075
M204 S1000
;WIPE_START
G1 F8640
G1 X155.744 Y20.414 E-.0139
G1 X155.766 Y20.389 E-.00769
G1 X156.149 Y20.18 E-.10075
G1 X156.557 Y20.117 E-.09532
G1 X157.011 Y20.203 E-.10669
G1 X157.384 Y20.431 E-.10094
G1 X157.656 Y20.773 E-.1009
G1 X157.795 Y21.187 E-.10084
G1 X157.783 Y21.624 E-.10094
G1 X157.634 Y22.017 E-.09705
G1 X157.334 Y22.358 E-.10487
G1 X156.949 Y22.567 E-.10115
G1 X156.517 Y22.632 E-.10087
G1 X156.228 Y22.573 E-.06809
;WIPE_END
G1 Z.6 F720
G1 X206.926 Y20.002 F10800
G1 Z.2 F720
G1 E1.2 F2100
M204 S800
;TYPE:Perimeter
G1 F1200
G1 X207.073 Y20.257 E.00923
G1 X207.201 Y20.607 E.01168
G1 X207.303 Y21.187 E.01846
G1 X207.277 Y21.853 E.0209
G1 X207.073 Y22.49 E.02097
G1 X206.778 Y23.001 E.0185
G1 X206.539 Y23.286 E.01166
G1 X206.088 Y23.665 E.01847
G1 X205.48 Y23.982 E.0215
G1 X204.845 Y24.117 E.02035
G1 X204.429 Y24.138 E.01306
G1 X203.889 Y24.052 E.01714
G1 X203.442 Y23.908 E.01472
G1 X202.969 Y23.639 E.01706
G1 X202.698 Y23.431 E.01071
G1 X202.321 Y23.001 E.01793
G1 X202.074 Y22.607 E.01458
G1 X201.849 Y21.977 E.02098
G1 X201.797 Y21.56 E.01318
G1 X201.819 Y20.914 E.02027
G1 X202.027 Y20.257 E.02161
G1 X202.144 Y20.002 E.0088
G1 X202.561 Y19.461 E.02142
